%
O01001
(Using G0 which travels along dogleg path.)
(T1 D=1. CR=0. - ZMIN=0.15 - flat end mill)
(T2 D=0.375 CR=0.1875 - ZMIN=0.3796 - ball end mill)
(T3 D=0.372 CR=0. - ZMIN=0.1489 - thread mill)
N10 G90 G94 G17
N15 G20
N20 G53 G0 Z0.

(Adaptive6)
N25 T1 M6
N30 S6000 M3
N35 G17 G90 G94
N40 G54
N45 M8
N50 G0 X-2.102 Y-3.1416
N55 G43 Z2.1 H1
N60 T2
N65 G0 Z1.7
N70 Z1.54
N75 G1 Z1.44 F40.
N80 X-2.1019 Y-3.1413 Z1.4322
N85 X-2.1017 Y-3.1404 Z1.4244
N90 X-2.1013 Y-3.1389 Z1.4167
N95 X-2.1008 Y-3.1369 Z1.4091
N100 X-2.1001 Y-3.1342 Z1.4017
N105 X-2.0993 Y-3.131 Z1.3946
N110 X-2.0984 Y-3.1273 Z1.3878
N115 X-2.0973 Y-3.1231 Z1.3812
N120 X-2.0961 Y-3.1184 Z1.3751
N125 X-2.0947 Y-3.1132 Z1.3693
N130 X-2.0933 Y-3.1076 Z1.364
N135 X-2.0918 Y-3.1017 Z1.3591
N140 X-2.0902 Y-3.0953 Z1.3547
N145 X-2.0885 Y-3.0887 Z1.3509
N150 X-2.0867 Y-3.0818 Z1.3476
N155 X-2.0849 Y-3.0747 Z1.3449
N160 X-2.083 Y-3.0673 Z1.3428
N165 X-2.0811 Y-3.0599 Z1.3412
N170 X-2.0791 Y-3.0523 Z1.3403
N175 X-2.0772 Y-3.0447 Z1.34
N180 G3 X-1.9989 Y-2.5003 I-2.4731 J0.6335
N185 G1 Y-2.4894
N190 X-2.0603 Y-2.4073
N195 X-2.1111 Y-2.3182
N200 X-2.1525 Y-2.2244
N205 X-2.1857 Y-2.1273
N210 X-2.2119 Y-2.0282
N215 X-2.2324 Y-1.9278
N220 X-2.2483 Y-1.8264
N225 X-2.2606 Y-1.7246
N230 X-2.2699 Y-1.6225
N235 X-2.2769 Y-1.5202
N240 X-2.2823 Y-1.4178
N245 X-2.2863 Y-1.3153
N250 X-2.2893 Y-1.2128
N255 X-2.2916 Y-1.1103
N260 X-2.2933 Y-1.0078
N265 X-2.2946 Y-0.9053
N270 X-2.2955 Y-0.8027
N275 X-2.2963 Y-0.7002
N280 X-2.2968 Y-0.5976
N285 X-2.2972 Y-0.4951
N290 X-2.2978 Y-0.29
N295 X-2.2982 Y0.0176
N300 X-2.2985 Y0.5303
N305 X-2.2988 Y1.5558
N310 Y1.6583
N315 X-2.2804 Y1.7592
N320 X-2.2377 Y1.8524
N325 X-2.1772 Y1.9352
N330 X-2.1035 Y2.0065
N335 X-2.0204 Y2.0667
N340 X-1.9307 Y2.1164
N345 X-1.8365 Y2.1567
N350 X-1.7392 Y2.1891
N355 X-1.6399 Y2.2146
N360 X-1.5393 Y2.2346
N365 X-1.4379 Y2.25
N370 X-1.336 Y2.2618
N375 X-1.2339 Y2.2709
N380 X-1.1316 Y2.2777
N385 X-1.0292 Y2.2829
N390 X-0.9267 Y2.2868
N395 X-0.8242 Y2.2897
N400 X-0.7217 Y2.2919
N405 X-0.6191 Y2.2936
N410 X-0.5166 Y2.2948
N415 X-0.4141 Y2.2957
N420 X-0.3115 Y2.2964
N425 X-0.209 Y2.2969
N430 X-0.1064 Y2.2973
N435 X0.0986 Y2.2979
N440 X0.4063 Y2.2983
N445 X0.919 Y2.2986
N450 X1.4317 Y2.2988
N455 X1.6368
N460 X1.7386 Y2.2865
N465 X1.8338 Y2.2483
N470 X1.9188 Y2.191
N475 X1.9926 Y2.1198
N480 X2.055 Y2.0384
N485 X2.1068 Y1.9499
N490 X2.149 Y1.8565
N495 X2.1829 Y1.7597
N500 X2.2098 Y1.6607
N505 X2.2308 Y1.5604
N510 X2.2471 Y1.4591
N515 X2.2596 Y1.3574
N520 X2.2692 Y1.2553
N525 X2.2764 Y1.153
N530 X2.2819 Y1.0506
N535 X2.2861 Y0.9481
N540 X2.2892 Y0.8456
N545 X2.2915 Y0.7431
N550 X2.2932 Y0.6406
N555 X2.2946 Y0.538
N560 X2.2955 Y0.4355
N565 X2.2963 Y0.333
N570 X2.2968 Y0.2304
N575 X2.2973 Y0.1279
N580 X2.2978 Y-0.0772
N585 X2.2983 Y-0.3848
N590 X2.2986 Y-0.8976
N595 X2.2987 Y-1.3077
N600 X2.2988 Y-1.6154
N605 X2.2931 Y-1.7178
N610 X2.2596 Y-1.8147
N615 X2.2059 Y-1.902
N620 X2.1372 Y-1.9781
N625 X2.0576 Y-2.0429
N630 X1.9704 Y-2.0968
N635 X1.8779 Y-2.1409
N640 X1.7817 Y-2.1765
N645 X1.6831 Y-2.2047
N650 X1.583 Y-2.2268
N655 X1.4819 Y-2.244
N660 X1.3802 Y-2.2573
N665 X1.2781 Y-2.2674
N670 X1.1759 Y-2.2751
N675 X1.0735 Y-2.2809
N680 X0.9711 Y-2.2853
N685 X0.8686 Y-2.2886
N690 X0.7661 Y-2.2911
N695 X0.6635 Y-2.2929
N700 X0.561 Y-2.2943
N705 X0.4585 Y-2.2954
N710 X0.3559 Y-2.2961
N715 X0.2534 Y-2.2967
N720 X0.1508 Y-2.2972
N725 X0.0483 Y-2.2975
N730 X-0.1568 Y-2.298
N735 X-0.4644 Y-2.2983
N740 X-1.0797 Y-2.2987
N745 X-1.1822
N750 X-1.3873
N755 X-1.4879 Y-2.2789
N760 X-1.5823 Y-2.2388
N765 X-1.6679 Y-2.1823
N770 X-1.7437 Y-2.1132
N775 X-1.8092 Y-2.0343
N780 X-1.8649 Y-1.9482
N785 X-1.9116 Y-1.8569
N790 X-1.95 Y-1.7619
N795 X-1.9814 Y-1.6642
N800 X-2.0067 Y-1.5649
N805 X-2.0269 Y-1.4643
N810 X-2.0429 Y-1.363
N815 X-2.0555 Y-1.2613
N820 X-2.0653 Y-1.1592
N825 X-2.073 Y-1.0569
N830 X-2.0789 Y-0.9546
N835 X-2.0835 Y-0.8521
N840 X-2.087 Y-0.7497
N845 X-2.0897 Y-0.6471
N850 X-2.0918 Y-0.5446
N855 X-2.0933 Y-0.4421
N860 X-2.0946 Y-0.3396
N865 X-2.0955 Y-0.237
N870 X-2.0962 Y-0.1345
N875 X-2.0968 Y-0.0319
N880 X-2.0972 Y0.0706
N885 X-2.0978 Y0.2757
N890 X-2.0983 Y0.5833
N895 X-2.0986 Y1.0961
N900 X-2.0987 Y1.3011
N905 X-2.0829 Y1.4025
N910 X-2.0498 Y1.4995
N915 X-2.0012 Y1.5898
N920 X-1.9394 Y1.6717
N925 X-1.867 Y1.7443
N930 X-1.7863 Y1.8075
N935 X-1.6992 Y1.8617
N940 X-1.6074 Y1.9074
N945 X-1.5122 Y1.9454
N950 X-1.4145 Y1.9767
N955 X-1.3152 Y2.0021
N960 X-1.2147 Y2.0227
N965 X-1.1135 Y2.0391
N970 X-1.0118 Y2.0522
N975 X-0.9098 Y2.0625
N980 X-0.8076 Y2.0706
N985 X-0.7052 Y2.0769
N990 X-0.6028 Y2.0819
N995 X-0.5003 Y2.0857
N1000 X-0.3978 Y2.0887
N1005 X-0.2953 Y2.0909
N1010 X-0.1928 Y2.0927
N1015 X-0.0902 Y2.0941
N1020 X0.0123 Y2.0951
N1025 X0.1148 Y2.0959
N1030 X0.2174 Y2.0966
N1035 X0.3199 Y2.097
N1040 X0.4225 Y2.0974
N1045 X0.6275 Y2.0979
N1050 X0.9352 Y2.0984
N1055 X1.2428 Y2.0986
N1060 X1.3452 Y2.0929
N1065 X1.4451 Y2.0696
N1070 X1.5395 Y2.0295
N1075 X1.6263 Y1.9749
N1080 X1.7042 Y1.9083
N1085 X1.7727 Y1.832
N1090 X1.832 Y1.7483
N1095 X1.8824 Y1.659
N1100 X1.9246 Y1.5656
N1105 X1.9596 Y1.4692
N1110 X1.9883 Y1.3708
N1115 X2.0116 Y1.2709
N1120 X2.0303 Y1.1701
N1125 X2.0452 Y1.0686
N1130 X2.057 Y0.9668
N1135 X2.0663 Y0.8646
N1140 X2.0736 Y0.7623
N1145 X2.0792 Y0.66
N1150 X2.0837 Y0.5575
N1155 X2.0871 Y0.455
N1160 X2.0897 Y0.3525
N1165 X2.0918 Y0.25
N1170 X2.0933 Y0.1475
N1175 X2.0946 Y0.0449
N1180 X2.0955 Y-0.0576
N1185 X2.0962 Y-0.1602
N1190 X2.0968 Y-0.2627
N1195 X2.0972 Y-0.3652
N1200 X2.0978 Y-0.5703
N1205 X2.0983 Y-0.878
N1210 X2.0986 Y-1.2881
N1215 X2.0853 Y-1.3898
N1220 X2.0545 Y-1.4876
N1225 X2.0078 Y-1.5789
N1230 X1.9476 Y-1.6619
N1235 X1.8764 Y-1.7357
N1240 X1.7966 Y-1.8001
N1245 X1.7102 Y-1.8554
N1250 X1.6189 Y-1.9021
N1255 X1.5241 Y-1.9411
N1260 X1.4267 Y-1.9732
N1265 X1.3275 Y-1.9993
N1270 X1.2272 Y-2.0205
N1275 X1.126 Y-2.0374
N1280 X1.0244 Y-2.0508
N1285 X0.9224 Y-2.0614
N1290 X0.8202 Y-2.0697
N1295 X0.7179 Y-2.0763
N1300 X0.6154 Y-2.0813
N1305 X0.513 Y-2.0853
N1310 X0.4105 Y-2.0883
N1315 X0.308 Y-2.0907
N1320 X0.2054 Y-2.0925
N1325 X0.1029 Y-2.0939
N1330 X0.0004 Y-2.095
N1335 X-0.1022 Y-2.0958
N1340 X-0.2047 Y-2.0965
N1345 X-0.3073 Y-2.097
N1350 X-0.4098 Y-2.0974
N1355 X-0.6149 Y-2.0979
N1360 X-0.9225 Y-2.0984
N1365 X-1.0251 Y-2.0985
N1370 X-1.127 Y-2.0873
N1375 X-1.2259 Y-2.0603
N1380 X-1.3194 Y-2.0181
N1385 X-1.4056 Y-1.9626
N1390 X-1.4834 Y-1.8958
N1395 X-1.5524 Y-1.8199
N1400 X-1.6124 Y-1.7368
N1405 X-1.664 Y-1.6481
N1410 X-1.7077 Y-1.5554
N1415 X-1.7443 Y-1.4596
N1420 X-1.7747 Y-1.3616
N1425 X-1.7996 Y-1.2622
N1430 X-1.8198 Y-1.1616
N1435 X-1.8362 Y-1.0604
N1440 X-1.8494 Y-0.9587
N1445 X-1.8599 Y-0.8567
N1450 X-1.8682 Y-0.7545
N1455 X-1.8748 Y-0.6522
N1460 X-1.88 Y-0.5498
N1465 X-1.8841 Y-0.4473
N1470 X-1.8873 Y-0.3448
N1475 X-1.8898 Y-0.2423
N1480 X-1.8918 Y-0.1398
N1485 X-1.8933 Y-0.0372
N1490 X-1.8945 Y0.0653
N1495 X-1.8954 Y0.1678
N1500 X-1.8961 Y0.2704
N1505 X-1.8967 Y0.3729
N1510 X-1.8971 Y0.4755
N1515 X-1.8978 Y0.6806
N1520 X-1.8982 Y0.8856
N1525 X-1.8974 Y0.9882
N1530 X-1.8856 Y1.09
N1535 X-1.8595 Y1.1892
N1540 X-1.8192 Y1.2835
N1545 X-1.766 Y1.3712
N1550 X-1.7016 Y1.451
N1555 X-1.628 Y1.5224
N1560 X-1.5469 Y1.5852
N1565 X-1.46 Y1.6396
N1570 X-1.3686 Y1.6861
N1575 X-1.2739 Y1.7255
N1580 X-1.1768 Y1.7584
N1585 X-1.078 Y1.7857
N1590 X-0.9779 Y1.8081
N1595 X-0.877 Y1.8264
N1600 X-0.7755 Y1.8412
N1605 X-0.6737 Y1.8531
N1610 X-0.5716 Y1.8627
N1615 X-0.4693 Y1.8703
N1620 X-0.3669 Y1.8763
N1625 X-0.2645 Y1.8811
N1630 X-0.162 Y1.8849
N1635 X-0.0595 Y1.8879
N1640 X0.043 Y1.8903
N1645 X0.1455 Y1.8921
N1650 X0.248 Y1.8935
N1655 X0.3506 Y1.8947
N1660 X0.4531 Y1.8956
N1665 X0.5557 Y1.8963
N1670 X0.6582 Y1.8968
N1675 X0.7607 Y1.8972
N1680 X0.8633 Y1.8976
N1685 X0.9658 Y1.8974
N1690 X1.068 Y1.8884
N1695 X1.1679 Y1.8654
N1700 X1.2635 Y1.8282
N1705 X1.3527 Y1.7776
N1710 X1.4343 Y1.7155
N1715 X1.5075 Y1.6437
N1720 X1.5721 Y1.5641
N1725 X1.6283 Y1.4783
N1730 X1.6765 Y1.3878
N1735 X1.7174 Y1.2938
N1740 X1.7517 Y1.1971
N1745 X1.7802 Y1.0986
N1750 X1.8036 Y0.9988
N1755 X1.8228 Y0.898
N1760 X1.8383 Y0.7967
N1765 X1.8508 Y0.6949
N1770 X1.8608 Y0.5928
N1775 X1.8688 Y0.4906
N1780 X1.8752 Y0.3883
N1785 X1.8802 Y0.2859
N1790 X1.8842 Y0.1834
N1795 X1.8873 Y0.0809
N1800 X1.8898 Y-0.0216
N1805 X1.8917 Y-0.1242
N1810 X1.8933 Y-0.2267
N1815 X1.8945 Y-0.3292
N1820 X1.8954 Y-0.4318
N1825 X1.8961 Y-0.5343
N1830 X1.8967 Y-0.6368
N1835 X1.8971 Y-0.7394
N1840 X1.8978 Y-0.9445
N1845 X1.8915 Y-1.0468
N1850 X1.8717 Y-1.1474
N1855 X1.8374 Y-1.2441
N1860 X1.7895 Y-1.3347
N1865 X1.7296 Y-1.418
N1870 X1.6597 Y-1.493
N1875 X1.5816 Y-1.5594
N1880 X1.4969 Y-1.6173
N1885 X1.4073 Y-1.6672
N1890 X1.3139 Y-1.7095
N1895 X1.2177 Y-1.7451
N1900 X1.1196 Y-1.7747
N1905 X1.02 Y-1.7991
N1910 X0.9194 Y-1.8191
N1915 X0.8181 Y-1.8353
N1920 X0.7164 Y-1.8484
N1925 X0.6144 Y-1.8589
N1930 X0.5122 Y-1.8673
N1935 X0.4099 Y-1.874
N1940 X0.3075 Y-1.8793
N1945 X0.205 Y-1.8835
N1950 X0.1025 Y-1.8868
N1955 X0. Y-1.8894
N1960 X-0.1025 Y-1.8914
N1965 X-0.205 Y-1.893
N1970 X-0.3076 Y-1.8942
N1975 X-0.4101 Y-1.8952
N1980 X-0.5126 Y-1.896
N1985 X-0.6152 Y-1.8966
N1990 X-0.7177
N1995 X-0.82 Y-1.8891
N2000 X-0.9205 Y-1.8688
N2005 X-1.0173 Y-1.8349
N2010 X-1.1084 Y-1.7879
N2015 X-1.1926 Y-1.7293
N2020 X-1.2688 Y-1.6607
N2025 X-1.3367 Y-1.5839
N2030 X-1.3964 Y-1.5005
N2035 X-1.4481 Y-1.4119
N2040 X-1.4923 Y-1.3194
N2045 X-1.5298 Y-1.224
N2050 X-1.5612 Y-1.1263
N2055 X-1.5874 Y-1.0272
N2060 X-1.6089 Y-0.9269
N2065 X-1.6266 Y-0.8259
N2070 X-1.641 Y-0.7244
N2075 X-1.6526 Y-0.6225
N2080 X-1.662 Y-0.5204
N2085 X-1.6696 Y-0.4181
N2090 X-1.6756 Y-0.3158
N2095 X-1.6805 Y-0.2134
N2100 X-1.6843 Y-0.1109
N2105 X-1.6873 Y-0.0084
N2110 X-1.6897 Y0.0941
N2115 X-1.6916 Y0.1967
N2120 X-1.6931 Y0.2992
N2125 X-1.6943 Y0.4017
N2130 X-1.6953 Y0.5043
N2135 X-1.696 Y0.6068
N2140 X-1.6948 Y0.7094
N2145 X-1.6851 Y0.8114
N2150 X-1.6631 Y0.9116
N2155 X-1.628 Y1.0079
N2160 X-1.5804 Y1.0988
N2165 X-1.5215 Y1.1827
N2170 X-1.453 Y1.259
N2175 X-1.3764 Y1.3272
N2180 X-1.2933 Y1.3873
N2185 X-1.205 Y1.4395
N2190 X-1.1128 Y1.4844
N2195 X-1.0177 Y1.5225
N2200 X-0.9203 Y1.5547
N2205 X-0.8213 Y1.5815
N2210 X-0.7212 Y1.6038
N2215 X-0.6203 Y1.6221
N2220 X-0.5189 Y1.6371
N2225 X-0.4171 Y1.6494
N2230 X-0.315 Y1.6593
N2235 X-0.2128 Y1.6672
N2240 X-0.1104 Y1.6737
N2245 X-0.008 Y1.6788
N2250 X0.0944 Y1.6829
N2255 X0.1969 Y1.6862
N2260 X0.2994 Y1.6888
N2265 X0.402 Y1.6909
N2270 X0.5045 Y1.6926
N2275 X0.607 Y1.6938
N2280 X0.7096 Y1.6928
N2285 X0.8117 Y1.6833
N2290 X0.9119 Y1.6614
N2295 X1.0082 Y1.6263
N2300 X1.099 Y1.5787
N2305 X1.183 Y1.5199
N2310 X1.2592 Y1.4513
N2315 X1.3274 Y1.3746
N2320 X1.3874 Y1.2915
N2325 X1.4396 Y1.2032
N2330 X1.4845 Y1.111
N2335 X1.5226 Y1.0159
N2340 X1.5548 Y0.9185
N2345 X1.5817 Y0.8195
N2350 X1.6039 Y0.7194
N2355 X1.6223 Y0.6185
N2360 X1.6373 Y0.5171
N2365 X1.6495 Y0.4153
N2370 X1.6594 Y0.3132
N2375 X1.6673 Y0.211
N2380 X1.6737 Y0.1086
N2385 X1.6789 Y0.0062
N2390 X1.683 Y-0.0962
N2395 X1.6863 Y-0.1987
N2400 X1.6889 Y-0.3012
N2405 X1.6909 Y-0.4038
N2410 X1.6926 Y-0.5063
N2415 X1.6939 Y-0.6088
N2420 X1.6929 Y-0.7114
N2425 X1.6831 Y-0.8134
N2430 X1.661 Y-0.9136
N2435 X1.6257 Y-1.0099
N2440 X1.5779 Y-1.1006
N2445 X1.5189 Y-1.1844
N2450 X1.4501 Y-1.2605
N2455 X1.3733 Y-1.3285
N2460 X1.2901 Y-1.3883
N2465 X1.2017 Y-1.4404
N2470 X1.1094 Y-1.4851
N2475 X1.0142 Y-1.5232
N2480 X0.9168 Y-1.5552
N2485 X0.8178 Y-1.582
N2490 X0.7177 Y-1.6042
N2495 X0.6168 Y-1.6225
N2500 X0.5154 Y-1.6375
N2505 X0.4136 Y-1.6497
N2510 X0.3115 Y-1.6595
N2515 X0.2093 Y-1.6675
N2520 X0.1069 Y-1.6739
N2525 X0.0045 Y-1.679
N2530 X-0.098 Y-1.6831
N2535 X-0.2005 Y-1.6863
N2540 X-0.303 Y-1.6889
N2545 X-0.4055 Y-1.6907
N2550 X-0.508 Y-1.6884
N2555 X-0.6099 Y-1.6765
N2560 X-0.7095 Y-1.6525
N2565 X-0.8053 Y-1.6158
N2570 X-0.8954 Y-1.5668
N2575 X-0.9787 Y-1.507
N2580 X-1.0544 Y-1.4378
N2585 X-1.1221 Y-1.3609
N2590 X-1.1819 Y-1.2776
N2595 X-1.2341 Y-1.1892
N2600 X-1.279 Y-1.0971
N2605 X-1.3174 Y-1.002
N2610 X-1.3498 Y-0.9047
N2615 X-1.377 Y-0.8058
N2620 X-1.3996 Y-0.7058
N2625 X-1.4184 Y-0.605
N2630 X-1.4338 Y-0.5036
N2635 X-1.4464 Y-0.4019
N2640 X-1.4567 Y-0.2998
N2645 X-1.465 Y-0.1976
N2650 X-1.4718 Y-0.0953
N2655 X-1.4772 Y0.0071
N2660 X-1.4816 Y0.1096
N2665 X-1.485 Y0.212
N2670 X-1.4878 Y0.3145
N2675 X-1.4888 Y0.4171
N2680 X-1.484 Y0.5195
N2685 X-1.4691 Y0.621
N2690 X-1.4419 Y0.7198
N2695 X-1.4024 Y0.8145
N2700 X-1.3512 Y0.9033
N2705 X-1.2895 Y0.9852
N2710 X-1.219 Y1.0596
N2715 X-1.1409 Y1.1262
N2720 X-1.0569 Y1.1849
N2725 X-0.9681 Y1.2361
N2730 X-0.8755 Y1.2803
N2735 X-0.7802 Y1.3181
N2740 X-0.6827 Y1.35
N2745 X-0.5838 Y1.3769
N2750 X-0.4837 Y1.3993
N2755 X-0.3829 Y1.4179
N2760 X-0.2815 Y1.4332
N2765 X-0.1797 Y1.4458
N2770 X-0.0777 Y1.4561
N2775 X0.0245 Y1.4644
N2780 X0.1268 Y1.4712
N2785 X0.2292 Y1.4767
N2790 X0.3317 Y1.4809
N2795 X0.4342 Y1.4827
N2800 X0.5366 Y1.4772
N2805 X0.6378 Y1.4607
N2810 X0.7363 Y1.4319
N2815 X0.8301 Y1.3906
N2820 X0.9179 Y1.3377
N2825 X0.9987 Y1.2745
N2830 X1.0719 Y1.2027
N2835 X1.1372 Y1.1236
N2840 X1.1946 Y1.0387
N2845 X1.2446 Y0.9491
N2850 X1.2877 Y0.8561
N2855 X1.3244 Y0.7603
N2860 X1.3554 Y0.6626
N2865 X1.3814 Y0.5634
N2870 X1.4031 Y0.4632
N2875 X1.421 Y0.3622
N2880 X1.4358 Y0.2607
N2885 X1.4479 Y0.1589
N2890 X1.4578 Y0.0568
N2895 X1.4658 Y-0.0454
N2900 X1.4723 Y-0.1477
N2905 X1.4776 Y-0.2501
N2910 X1.4816 Y-0.3526
N2915 X1.4822 Y-0.4552
N2920 X1.4748 Y-0.5574
N2925 X1.4559 Y-0.6582
N2930 X1.4244 Y-0.7558
N2935 X1.3806 Y-0.8485
N2940 X1.3255 Y-0.935
N2945 X1.2605 Y-1.0143
N2950 X1.1871 Y-1.0859
N2955 X1.1066 Y-1.1495
N2960 X1.0207 Y-1.2054
N2965 X0.9303 Y-1.2539
N2970 X0.8367 Y-1.2956
N2975 X0.7405 Y-1.3312
N2980 X0.6424 Y-1.3611
N2985 X0.543 Y-1.3862
N2990 X0.4426 Y-1.4071
N2995 X0.3415 Y-1.4244
N3000 X0.2399 Y-1.4385
N3005 X0.1381 Y-1.4502
N3010 X0.036 Y-1.4596
N3015 X-0.0663 Y-1.4673
N3020 X-0.1687 Y-1.4725
N3025 X-0.2713 Y-1.4722
N3030 X-0.3733 Y-1.4622
N3035 X-0.4735 Y-1.4403
N3040 X-0.57 Y-1.4058
N3045 X-0.6614 Y-1.3593
N3050 X-0.7464 Y-1.3018
N3055 X-0.824 Y-1.2348
N3060 X-0.8939 Y-1.1598
N3065 X-0.956 Y-1.0782
N3070 X-1.0105 Y-0.9913
N3075 X-1.0578 Y-0.9004
N3080 X-1.0985 Y-0.8062
N3085 X-1.1331 Y-0.7097
N3090 X-1.1624 Y-0.6114
N3095 X-1.167 Y-0.5928
N3100 X-1.1921 Y-0.4867
N3105 X-1.2117 Y-0.3861
N3110 X-1.2279 Y-0.2848
N3115 X-1.2413 Y-0.1832
N3120 X-1.2523 Y-0.0812
N3125 X-1.2566 Y0.0212
N3130 X-1.2597 Y0.1237
N3135 X-1.2589 Y0.2263
N3140 X-1.2498 Y0.3284
N3145 X-1.2296 Y0.429
N3150 X-1.1974 Y0.5263
N3155 X-1.153 Y0.6187
N3160 X-1.0975 Y0.705
N3165 X-1.0813 Y0.7248
N3170 X-1.0093 Y0.8066
N3175 X-0.9337 Y0.8759
N3180 X-0.8517 Y0.9374
N3185 X-0.7645 Y0.9914
N3190 X-0.6733 Y1.0383
N3195 X-0.5791 Y1.0787
N3200 X-0.4825 Y1.1131
N3205 X-0.3842 Y1.1423
N3210 X-0.2846 Y1.1668
N3215 X-0.1841 Y1.1874
N3220 X-0.083 Y1.2044
N3225 X0.0186 Y1.2184
N3230 X0.1206 Y1.229
N3235 X0.223 Y1.2338
N3240 X0.3254 Y1.2289
N3245 X0.4265 Y1.2117
N3250 X0.5245 Y1.1816
N3255 X0.6177 Y1.1387
N3260 X0.6231 Y1.1353
N3265 X0.7096 Y1.0802
N3270 X0.789 Y1.0152
N3275 X0.8605 Y0.9418
N3280 X0.9242 Y0.8614
N3285 X0.9802 Y0.7755
N3290 X1.0289 Y0.6853
N3295 X1.0708 Y0.5917
N3300 X1.1066 Y0.4956
N3305 X1.1369 Y0.3976
N3310 X1.1624 Y0.2983
N3315 X1.1837 Y0.198
N3320 X1.2014 Y0.097
N3325 X1.216 Y-0.0045
N3330 X1.2274 Y-0.1064
N3335 X1.2335 Y-0.2088
N3340 X1.2301 Y-0.3113
N3345 X1.2149 Y-0.4127
N3350 X1.1864 Y-0.5112
N3355 X1.1453 Y-0.6051
N3360 X1.142 Y-0.6106
N3365 X1.0885 Y-0.6981
N3370 X1.0247 Y-0.7784
N3375 X0.9523 Y-0.851
N3380 X0.8728 Y-0.9157
N3385 X0.7875 Y-0.9728
N3390 X0.6978 Y-1.0224
N3395 X0.6046 Y-1.0652
N3400 X0.5088 Y-1.1018
N3405 X0.4111 Y-1.1329
N3410 X0.312 Y-1.159
N3415 X0.2117 Y-1.1808
N3420 X0.1107 Y-1.198
N3425 X0.0087 Y-1.2086
N3430 X-0.0939 Y-1.2091
N3435 X-0.1957 Y-1.1968
N3440 X-0.2949 Y-1.171
N3445 X-0.3898 Y-1.132
N3450 X-0.4787 Y-1.081
N3455 X-0.5606 Y-1.0193
N3460 X-0.6348 Y-0.9485
N3465 X-0.668 Y-0.9094
N3470 X-0.6758 Y-0.8992
N3475 X-0.6835 Y-0.889
N3480 G3 X-0.6923 Y-0.8793 Z1.3407 I-0.0781 J-0.0625
N3485 G2 X-0.7218 Y-0.8231 Z1.344 I0.0692 J0.0721
N3490 G1 X-0.7344 Y-0.7448 Z1.348
N3495 X-0.8034 Y-0.316
N3500 X-0.8156 Y-0.2403 Z1.3441
N3505 G2 X-0.8137 Y-0.1996 Z1.342 I0.0987 J0.0159
N3510 G1 Y-0.1995
N3515 G3 X-0.8081 Y-0.1607 Z1.34 I-0.1766 J0.0451
N3520 G1 Y-0.1543
N3525 X-0.8565 Y-0.0639
N3530 X-0.8643 Y-0.0395
N3535 X-0.866 Y-0.0333
N3540 X-0.8677 Y-0.0291 Z1.3403
N3545 X-0.8694 Y-0.0249 Z1.3411
N3550 X-0.8711 Y-0.0208 Z1.3424
N3555 X-0.8727 Y-0.0169 Z1.3442
N3560 X-0.8747 Y-0.0138 Z1.3464
N3565 X-0.8765 Y-0.0108 Z1.3489
N3570 X-0.8782 Y-0.0082 Z1.3518
N3575 X-0.8798 Y-0.0058 Z1.3551
N3580 X-0.8811 Y-0.0037 Z1.3586
N3585 X-0.8822 Y-0.002 Z1.3624
N3590 X-0.8832 Y-0.0007 Z1.3664
N3595 X-0.8839 Y0.0003 Z1.3706
N3600 X-0.8844 Y0.0008 Z1.3749
N3605 X-0.8845 Y0.001 Z1.3793
N3610 G0 Z1.7
N3615 X-2.102 Y-3.1416
N3620 Z1.38
N3625 G1 Z1.28 F40.
N3630 X-2.1019 Y-3.1413 Z1.2722
N3635 X-2.1017 Y-3.1404 Z1.2644
N3640 X-2.1013 Y-3.1389 Z1.2567
N3645 X-2.1008 Y-3.1369 Z1.2491
N3650 X-2.1001 Y-3.1342 Z1.2417
N3655 X-2.0993 Y-3.131 Z1.2346
N3660 X-2.0984 Y-3.1273 Z1.2278
N3665 X-2.0973 Y-3.1231 Z1.2212
N3670 X-2.0961 Y-3.1184 Z1.2151
N3675 X-2.0947 Y-3.1132 Z1.2093
N3680 X-2.0933 Y-3.1076 Z1.204
N3685 X-2.0918 Y-3.1017 Z1.1991
N3690 X-2.0902 Y-3.0953 Z1.1947
N3695 X-2.0885 Y-3.0887 Z1.1909
N3700 X-2.0867 Y-3.0818 Z1.1876
N3705 X-2.0849 Y-3.0747 Z1.1849
N3710 X-2.083 Y-3.0673 Z1.1828
N3715 X-2.0811 Y-3.0599 Z1.1812
N3720 X-2.0791 Y-3.0523 Z1.1803
N3725 X-2.0772 Y-3.0447 Z1.18
N3730 G3 X-1.9989 Y-2.5003 I-2.4731 J0.6335
N3735 G1 Y-2.4894
N3740 X-2.0603 Y-2.4073
N3745 X-2.1111 Y-2.3182
N3750 X-2.1525 Y-2.2244
N3755 X-2.1857 Y-2.1273
N3760 X-2.2119 Y-2.0282
N3765 X-2.2324 Y-1.9278
N3770 X-2.2483 Y-1.8264
N3775 X-2.2606 Y-1.7246
N3780 X-2.2699 Y-1.6225
N3785 X-2.2769 Y-1.5202
N3790 X-2.2823 Y-1.4178
N3795 X-2.2863 Y-1.3153
N3800 X-2.2893 Y-1.2128
N3805 X-2.2916 Y-1.1103
N3810 X-2.2933 Y-1.0078
N3815 X-2.2946 Y-0.9053
N3820 X-2.2955 Y-0.8027
N3825 X-2.2963 Y-0.7002
N3830 X-2.2968 Y-0.5976
N3835 X-2.2972 Y-0.4951
N3840 X-2.2978 Y-0.29
N3845 X-2.2982 Y0.0176
N3850 X-2.2985 Y0.5303
N3855 X-2.2988 Y1.5558
N3860 Y1.6583
N3865 X-2.2804 Y1.7592
N3870 X-2.2377 Y1.8524
N3875 X-2.1772 Y1.9352
N3880 X-2.1035 Y2.0065
N3885 X-2.0204 Y2.0667
N3890 X-1.9307 Y2.1164
N3895 X-1.8365 Y2.1567
N3900 X-1.7392 Y2.1891
N3905 X-1.6399 Y2.2146
N3910 X-1.5393 Y2.2346
N3915 X-1.4379 Y2.25
N3920 X-1.336 Y2.2618
N3925 X-1.2339 Y2.2709
N3930 X-1.1316 Y2.2777
N3935 X-1.0292 Y2.2829
N3940 X-0.9267 Y2.2868
N3945 X-0.8242 Y2.2897
N3950 X-0.7217 Y2.2919
N3955 X-0.6191 Y2.2936
N3960 X-0.5166 Y2.2948
N3965 X-0.4141 Y2.2957
N3970 X-0.3115 Y2.2964
N3975 X-0.209 Y2.2969
N3980 X-0.1064 Y2.2973
N3985 X0.0986 Y2.2979
N3990 X0.4063 Y2.2983
N3995 X0.919 Y2.2986
N4000 X1.4317 Y2.2988
N4005 X1.6368
N4010 X1.7386 Y2.2865
N4015 X1.8338 Y2.2483
N4020 X1.9188 Y2.191
N4025 X1.9926 Y2.1198
N4030 X2.055 Y2.0384
N4035 X2.1068 Y1.9499
N4040 X2.149 Y1.8565
N4045 X2.1829 Y1.7597
N4050 X2.2098 Y1.6607
N4055 X2.2308 Y1.5604
N4060 X2.2471 Y1.4591
N4065 X2.2596 Y1.3574
N4070 X2.2692 Y1.2553
N4075 X2.2764 Y1.153
N4080 X2.2819 Y1.0506
N4085 X2.2861 Y0.9481
N4090 X2.2892 Y0.8456
N4095 X2.2915 Y0.7431
N4100 X2.2932 Y0.6406
N4105 X2.2946 Y0.538
N4110 X2.2955 Y0.4355
N4115 X2.2963 Y0.333
N4120 X2.2968 Y0.2304
N4125 X2.2973 Y0.1279
N4130 X2.2978 Y-0.0772
N4135 X2.2983 Y-0.3848
N4140 X2.2986 Y-0.8976
N4145 X2.2987 Y-1.3077
N4150 X2.2988 Y-1.6154
N4155 X2.2931 Y-1.7178
N4160 X2.2596 Y-1.8147
N4165 X2.2059 Y-1.902
N4170 X2.1372 Y-1.9781
N4175 X2.0576 Y-2.0429
N4180 X1.9704 Y-2.0968
N4185 X1.8779 Y-2.1409
N4190 X1.7817 Y-2.1765
N4195 X1.6831 Y-2.2047
N4200 X1.583 Y-2.2268
N4205 X1.4819 Y-2.244
N4210 X1.3802 Y-2.2573
N4215 X1.2781 Y-2.2674
N4220 X1.1759 Y-2.2751
N4225 X1.0735 Y-2.2809
N4230 X0.9711 Y-2.2853
N4235 X0.8686 Y-2.2886
N4240 X0.7661 Y-2.2911
N4245 X0.6635 Y-2.2929
N4250 X0.561 Y-2.2943
N4255 X0.4585 Y-2.2954
N4260 X0.3559 Y-2.2961
N4265 X0.2534 Y-2.2967
N4270 X0.1508 Y-2.2972
N4275 X0.0483 Y-2.2975
N4280 X-0.1568 Y-2.298
N4285 X-0.4644 Y-2.2983
N4290 X-1.0797 Y-2.2987
N4295 X-1.1822
N4300 X-1.3873
N4305 X-1.4879 Y-2.2789
N4310 X-1.5823 Y-2.2388
N4315 X-1.6679 Y-2.1823
N4320 X-1.7437 Y-2.1132
N4325 X-1.8092 Y-2.0343
N4330 X-1.8649 Y-1.9482
N4335 X-1.9116 Y-1.8569
N4340 X-1.95 Y-1.7619
N4345 X-1.9814 Y-1.6642
N4350 X-2.0067 Y-1.5649
N4355 X-2.0269 Y-1.4643
N4360 X-2.0429 Y-1.363
N4365 X-2.0555 Y-1.2613
N4370 X-2.0653 Y-1.1592
N4375 X-2.073 Y-1.0569
N4380 X-2.0789 Y-0.9546
N4385 X-2.0835 Y-0.8521
N4390 X-2.087 Y-0.7497
N4395 X-2.0897 Y-0.6471
N4400 X-2.0918 Y-0.5446
N4405 X-2.0933 Y-0.4421
N4410 X-2.0946 Y-0.3396
N4415 X-2.0955 Y-0.237
N4420 X-2.0962 Y-0.1345
N4425 X-2.0968 Y-0.0319
N4430 X-2.0972 Y0.0706
N4435 X-2.0978 Y0.2757
N4440 X-2.0983 Y0.5833
N4445 X-2.0986 Y1.0961
N4450 X-2.0987 Y1.3011
N4455 X-2.0829 Y1.4025
N4460 X-2.0498 Y1.4995
N4465 X-2.0012 Y1.5898
N4470 X-1.9394 Y1.6717
N4475 X-1.867 Y1.7443
N4480 X-1.7863 Y1.8075
N4485 X-1.6992 Y1.8617
N4490 X-1.6074 Y1.9074
N4495 X-1.5122 Y1.9454
N4500 X-1.4145 Y1.9767
N4505 X-1.3152 Y2.0021
N4510 X-1.2148 Y2.0227
N4515 X-1.1135 Y2.0391
N4520 X-1.0118 Y2.0522
N4525 X-0.9098 Y2.0625
N4530 X-0.8076 Y2.0706
N4535 X-0.7052 Y2.0769
N4540 X-0.6028 Y2.0819
N4545 X-0.5003 Y2.0857
N4550 X-0.3978 Y2.0887
N4555 X-0.2953 Y2.0909
N4560 X-0.1928 Y2.0927
N4565 X-0.0902 Y2.0941
N4570 X0.0123 Y2.0951
N4575 X0.1148 Y2.0959
N4580 X0.2174 Y2.0966
N4585 X0.3199 Y2.097
N4590 X0.4225 Y2.0974
N4595 X0.6275 Y2.0979
N4600 X0.9352 Y2.0984
N4605 X1.2428 Y2.0986
N4610 X1.3452 Y2.0929
N4615 X1.4451 Y2.0696
N4620 X1.5395 Y2.0295
N4625 X1.6263 Y1.9749
N4630 X1.7042 Y1.9083
N4635 X1.7727 Y1.832
N4640 X1.832 Y1.7483
N4645 X1.8824 Y1.659
N4650 X1.9246 Y1.5656
N4655 X1.9596 Y1.4692
N4660 X1.9883 Y1.3708
N4665 X2.0116 Y1.2709
N4670 X2.0303 Y1.1701
N4675 X2.0452 Y1.0686
N4680 X2.057 Y0.9668
N4685 X2.0663 Y0.8646
N4690 X2.0736 Y0.7623
N4695 X2.0792 Y0.66
N4700 X2.0837 Y0.5575
N4705 X2.0871 Y0.455
N4710 X2.0897 Y0.3525
N4715 X2.0918 Y0.25
N4720 X2.0933 Y0.1475
N4725 X2.0946 Y0.0449
N4730 X2.0955 Y-0.0576
N4735 X2.0962 Y-0.1602
N4740 X2.0968 Y-0.2627
N4745 X2.0972 Y-0.3652
N4750 X2.0978 Y-0.5703
N4755 X2.0983 Y-0.878
N4760 X2.0986 Y-1.2881
N4765 X2.0853 Y-1.3898
N4770 X2.0545 Y-1.4876
N4775 X2.0078 Y-1.5789
N4780 X1.9476 Y-1.6619
N4785 X1.8764 Y-1.7357
N4790 X1.7966 Y-1.8001
N4795 X1.7102 Y-1.8554
N4800 X1.6189 Y-1.9021
N4805 X1.5241 Y-1.9411
N4810 X1.4267 Y-1.9732
N4815 X1.3275 Y-1.9993
N4820 X1.2272 Y-2.0205
N4825 X1.126 Y-2.0374
N4830 X1.0244 Y-2.0508
N4835 X0.9224 Y-2.0614
N4840 X0.8202 Y-2.0697
N4845 X0.7179 Y-2.0763
N4850 X0.6154 Y-2.0813
N4855 X0.513 Y-2.0853
N4860 X0.4105 Y-2.0883
N4865 X0.308 Y-2.0907
N4870 X0.2054 Y-2.0925
N4875 X0.1029 Y-2.0939
N4880 X0.0004 Y-2.095
N4885 X-0.1022 Y-2.0958
N4890 X-0.2047 Y-2.0965
N4895 X-0.3073 Y-2.097
N4900 X-0.4098 Y-2.0974
N4905 X-0.6149 Y-2.0979
N4910 X-0.9225 Y-2.0984
N4915 X-1.0251 Y-2.0985
N4920 X-1.127 Y-2.0873
N4925 X-1.2259 Y-2.0603
N4930 X-1.3194 Y-2.0181
N4935 X-1.4056 Y-1.9626
N4940 X-1.4834 Y-1.8958
N4945 X-1.5524 Y-1.8199
N4950 X-1.6124 Y-1.7368
N4955 X-1.664 Y-1.6481
N4960 X-1.7077 Y-1.5554
N4965 X-1.7443 Y-1.4596
N4970 X-1.7747 Y-1.3616
N4975 X-1.7996 Y-1.2622
N4980 X-1.8198 Y-1.1616
N4985 X-1.8362 Y-1.0604
N4990 X-1.8494 Y-0.9587
N4995 X-1.8599 Y-0.8567
N5000 X-1.8682 Y-0.7545
N5005 X-1.8748 Y-0.6522
N5010 X-1.88 Y-0.5498
N5015 X-1.8841 Y-0.4473
N5020 X-1.8873 Y-0.3448
N5025 X-1.8898 Y-0.2423
N5030 X-1.8918 Y-0.1398
N5035 X-1.8933 Y-0.0372
N5040 X-1.8945 Y0.0653
N5045 X-1.8954 Y0.1678
N5050 X-1.8961 Y0.2704
N5055 X-1.8967 Y0.3729
N5060 X-1.8971 Y0.4755
N5065 X-1.8978 Y0.6806
N5070 X-1.8982 Y0.8856
N5075 X-1.8974 Y0.9882
N5080 X-1.8856 Y1.09
N5085 X-1.8595 Y1.1892
N5090 X-1.8192 Y1.2835
N5095 X-1.766 Y1.3712
N5100 X-1.7016 Y1.451
N5105 X-1.628 Y1.5224
N5110 X-1.5469 Y1.5852
N5115 X-1.46 Y1.6396
N5120 X-1.3686 Y1.6861
N5125 X-1.2739 Y1.7255
N5130 X-1.1768 Y1.7584
N5135 X-1.078 Y1.7857
N5140 X-0.9779 Y1.8081
N5145 X-0.877 Y1.8264
N5150 X-0.7755 Y1.8412
N5155 X-0.6737 Y1.8531
N5160 X-0.5716 Y1.8627
N5165 X-0.4693 Y1.8703
N5170 X-0.3669 Y1.8763
N5175 X-0.2645 Y1.8811
N5180 X-0.162 Y1.8849
N5185 X-0.0595 Y1.8879
N5190 X0.043 Y1.8903
N5195 X0.1455 Y1.8921
N5200 X0.248 Y1.8935
N5205 X0.3506 Y1.8947
N5210 X0.4531 Y1.8956
N5215 X0.5557 Y1.8963
N5220 X0.6582 Y1.8968
N5225 X0.7607 Y1.8972
N5230 X0.8633 Y1.8976
N5235 X0.9658 Y1.8974
N5240 X1.068 Y1.8884
N5245 X1.1679 Y1.8654
N5250 X1.2635 Y1.8282
N5255 X1.3527 Y1.7776
N5260 X1.4343 Y1.7155
N5265 X1.5075 Y1.6437
N5270 X1.5721 Y1.5641
N5275 X1.6283 Y1.4783
N5280 X1.6765 Y1.3878
N5285 X1.7174 Y1.2938
N5290 X1.7517 Y1.1971
N5295 X1.7802 Y1.0986
N5300 X1.8036 Y0.9988
N5305 X1.8228 Y0.898
N5310 X1.8383 Y0.7967
N5315 X1.8508 Y0.6949
N5320 X1.8608 Y0.5928
N5325 X1.8688 Y0.4906
N5330 X1.8752 Y0.3883
N5335 X1.8802 Y0.2859
N5340 X1.8842 Y0.1834
N5345 X1.8873 Y0.0809
N5350 X1.8898 Y-0.0216
N5355 X1.8917 Y-0.1242
N5360 X1.8933 Y-0.2267
N5365 X1.8945 Y-0.3292
N5370 X1.8954 Y-0.4318
N5375 X1.8961 Y-0.5343
N5380 X1.8967 Y-0.6368
N5385 X1.8971 Y-0.7394
N5390 X1.8978 Y-0.9445
N5395 X1.8915 Y-1.0468
N5400 X1.8717 Y-1.1474
N5405 X1.8374 Y-1.2441
N5410 X1.7895 Y-1.3347
N5415 X1.7296 Y-1.418
N5420 X1.6597 Y-1.493
N5425 X1.5816 Y-1.5594
N5430 X1.4969 Y-1.6173
N5435 X1.4073 Y-1.6672
N5440 X1.3139 Y-1.7095
N5445 X1.2177 Y-1.7451
N5450 X1.1196 Y-1.7747
N5455 X1.02 Y-1.7991
N5460 X0.9194 Y-1.8191
N5465 X0.8181 Y-1.8353
N5470 X0.7164 Y-1.8484
N5475 X0.6144 Y-1.8589
N5480 X0.5122 Y-1.8673
N5485 X0.4099 Y-1.874
N5490 X0.3075 Y-1.8793
N5495 X0.205 Y-1.8835
N5500 X0.1025 Y-1.8868
N5505 X0. Y-1.8894
N5510 X-0.1025 Y-1.8914
N5515 X-0.205 Y-1.893
N5520 X-0.3076 Y-1.8942
N5525 X-0.4101 Y-1.8952
N5530 X-0.5126 Y-1.896
N5535 X-0.6152 Y-1.8966
N5540 X-0.7177
N5545 X-0.82 Y-1.8891
N5550 X-0.9205 Y-1.8688
N5555 X-1.0173 Y-1.8349
N5560 X-1.1084 Y-1.7879
N5565 X-1.1926 Y-1.7293
N5570 X-1.2688 Y-1.6607
N5575 X-1.3367 Y-1.5839
N5580 X-1.3964 Y-1.5005
N5585 X-1.4481 Y-1.4119
N5590 X-1.4923 Y-1.3194
N5595 X-1.5298 Y-1.224
N5600 X-1.5612 Y-1.1263
N5605 X-1.5874 Y-1.0272
N5610 X-1.6089 Y-0.9269
N5615 X-1.6266 Y-0.8259
N5620 X-1.641 Y-0.7244
N5625 X-1.6526 Y-0.6225
N5630 X-1.662 Y-0.5204
N5635 X-1.6696 Y-0.4181
N5640 X-1.6756 Y-0.3158
N5645 X-1.6805 Y-0.2134
N5650 X-1.6843 Y-0.1109
N5655 X-1.6873 Y-0.0084
N5660 X-1.6897 Y0.0941
N5665 X-1.6916 Y0.1967
N5670 X-1.6931 Y0.2992
N5675 X-1.6943 Y0.4017
N5680 X-1.6953 Y0.5043
N5685 X-1.696 Y0.6068
N5690 X-1.6948 Y0.7094
N5695 X-1.6851 Y0.8114
N5700 X-1.6631 Y0.9116
N5705 X-1.628 Y1.0079
N5710 X-1.5804 Y1.0988
N5715 X-1.5215 Y1.1827
N5720 X-1.453 Y1.259
N5725 X-1.3764 Y1.3272
N5730 X-1.2933 Y1.3873
N5735 X-1.205 Y1.4395
N5740 X-1.1128 Y1.4844
N5745 X-1.0177 Y1.5225
N5750 X-0.9203 Y1.5547
N5755 X-0.8213 Y1.5815
N5760 X-0.7212 Y1.6038
N5765 X-0.6203 Y1.6221
N5770 X-0.5189 Y1.6371
N5775 X-0.4171 Y1.6494
N5780 X-0.315 Y1.6593
N5785 X-0.2128 Y1.6672
N5790 X-0.1104 Y1.6737
N5795 X-0.008 Y1.6788
N5800 X0.0944 Y1.6829
N5805 X0.1969 Y1.6862
N5810 X0.2994 Y1.6888
N5815 X0.402 Y1.6909
N5820 X0.5045 Y1.6926
N5825 X0.607 Y1.6938
N5830 X0.7096 Y1.6928
N5835 X0.8117 Y1.6833
N5840 X0.9119 Y1.6614
N5845 X1.0082 Y1.6263
N5850 X1.099 Y1.5787
N5855 X1.183 Y1.5199
N5860 X1.2592 Y1.4513
N5865 X1.3274 Y1.3746
N5870 X1.3874 Y1.2915
N5875 X1.4396 Y1.2032
N5880 X1.4845 Y1.111
N5885 X1.5226 Y1.0159
N5890 X1.5548 Y0.9185
N5895 X1.5817 Y0.8195
N5900 X1.6039 Y0.7194
N5905 X1.6223 Y0.6185
N5910 X1.6373 Y0.5171
N5915 X1.6495 Y0.4153
N5920 X1.6594 Y0.3132
N5925 X1.6673 Y0.211
N5930 X1.6737 Y0.1086
N5935 X1.6789 Y0.0062
N5940 X1.683 Y-0.0962
N5945 X1.6863 Y-0.1987
N5950 X1.6889 Y-0.3012
N5955 X1.6909 Y-0.4038
N5960 X1.6926 Y-0.5063
N5965 X1.6939 Y-0.6088
N5970 X1.6929 Y-0.7114
N5975 X1.6831 Y-0.8134
N5980 X1.661 Y-0.9136
N5985 X1.6257 Y-1.0099
N5990 X1.5779 Y-1.1006
N5995 X1.5189 Y-1.1844
N6000 X1.4501 Y-1.2605
N6005 X1.3733 Y-1.3285
N6010 X1.2901 Y-1.3883
N6015 X1.2017 Y-1.4404
N6020 X1.1094 Y-1.4851
N6025 X1.0142 Y-1.5232
N6030 X0.9168 Y-1.5552
N6035 X0.8178 Y-1.582
N6040 X0.7177 Y-1.6042
N6045 X0.6168 Y-1.6225
N6050 X0.5154 Y-1.6375
N6055 X0.4136 Y-1.6497
N6060 X0.3115 Y-1.6595
N6065 X0.2093 Y-1.6675
N6070 X0.1069 Y-1.6739
N6075 X0.0045 Y-1.679
N6080 X-0.098 Y-1.6831
N6085 X-0.2005 Y-1.6863
N6090 X-0.303 Y-1.6889
N6095 X-0.4055 Y-1.6907
N6100 X-0.508 Y-1.6884
N6105 X-0.6099 Y-1.6765
N6110 X-0.7095 Y-1.6525
N6115 X-0.8053 Y-1.6158
N6120 X-0.8954 Y-1.5668
N6125 X-0.9787 Y-1.507
N6130 X-1.0544 Y-1.4378
N6135 X-1.1221 Y-1.3609
N6140 X-1.1819 Y-1.2776
N6145 X-1.2341 Y-1.1892
N6150 X-1.279 Y-1.0971
N6155 X-1.3174 Y-1.002
N6160 X-1.3498 Y-0.9047
N6165 X-1.377 Y-0.8058
N6170 X-1.3996 Y-0.7058
N6175 X-1.4184 Y-0.605
N6180 X-1.4338 Y-0.5036
N6185 X-1.4464 Y-0.4019
N6190 X-1.4567 Y-0.2998
N6195 X-1.465 Y-0.1976
N6200 X-1.4718 Y-0.0953
N6205 X-1.4772 Y0.0071
N6210 X-1.4816 Y0.1096
N6215 X-1.485 Y0.212
N6220 X-1.4878 Y0.3145
N6225 X-1.4888 Y0.4171
N6230 X-1.484 Y0.5195
N6235 X-1.4691 Y0.621
N6240 X-1.4419 Y0.7198
N6245 X-1.4024 Y0.8145
N6250 X-1.3512 Y0.9033
N6255 X-1.2895 Y0.9852
N6260 X-1.219 Y1.0596
N6265 X-1.1409 Y1.1262
N6270 X-1.0569 Y1.1849
N6275 X-0.9681 Y1.2361
N6280 X-0.8755 Y1.2803
N6285 X-0.7802 Y1.3181
N6290 X-0.6827 Y1.35
N6295 X-0.5838 Y1.3769
N6300 X-0.4837 Y1.3993
N6305 X-0.3829 Y1.4179
N6310 X-0.2815 Y1.4332
N6315 X-0.1797 Y1.4458
N6320 X-0.0777 Y1.4561
N6325 X0.0245 Y1.4644
N6330 X0.1268 Y1.4712
N6335 X0.2292 Y1.4767
N6340 X0.3317 Y1.4809
N6345 X0.4342 Y1.4827
N6350 X0.5366 Y1.4772
N6355 X0.6378 Y1.4607
N6360 X0.7363 Y1.4319
N6365 X0.8301 Y1.3906
N6370 X0.9179 Y1.3377
N6375 X0.9987 Y1.2745
N6380 X1.0719 Y1.2027
N6385 X1.1372 Y1.1236
N6390 X1.1946 Y1.0387
N6395 X1.2446 Y0.9491
N6400 X1.2877 Y0.8561
N6405 X1.3244 Y0.7603
N6410 X1.3554 Y0.6626
N6415 X1.3814 Y0.5634
N6420 X1.4031 Y0.4632
N6425 X1.421 Y0.3622
N6430 X1.4358 Y0.2607
N6435 X1.4479 Y0.1589
N6440 X1.4578 Y0.0568
N6445 X1.4658 Y-0.0454
N6450 X1.4723 Y-0.1477
N6455 X1.4776 Y-0.2501
N6460 X1.4816 Y-0.3526
N6465 X1.4822 Y-0.4552
N6470 X1.4748 Y-0.5574
N6475 X1.4559 Y-0.6582
N6480 X1.4244 Y-0.7558
N6485 X1.3806 Y-0.8485
N6490 X1.3255 Y-0.935
N6495 X1.2605 Y-1.0143
N6500 X1.1871 Y-1.0859
N6505 X1.1067 Y-1.1495
N6510 X1.0207 Y-1.2054
N6515 X0.9303 Y-1.2539
N6520 X0.8367 Y-1.2956
N6525 X0.7405 Y-1.3312
N6530 X0.6424 Y-1.3611
N6535 X0.543 Y-1.3862
N6540 X0.4426 Y-1.4071
N6545 X0.3415 Y-1.4244
N6550 X0.2399 Y-1.4385
N6555 X0.1381 Y-1.4502
N6560 X0.036 Y-1.4596
N6565 X-0.0663 Y-1.4673
N6570 X-0.1687 Y-1.4725
N6575 X-0.2713 Y-1.4722
N6580 X-0.3733 Y-1.4622
N6585 X-0.4735 Y-1.4403
N6590 X-0.57 Y-1.4058
N6595 X-0.6614 Y-1.3593
N6600 X-0.7464 Y-1.3018
N6605 X-0.824 Y-1.2348
N6610 X-0.8939 Y-1.1598
N6615 X-0.956 Y-1.0782
N6620 X-1.0105 Y-0.9913
N6625 X-1.0578 Y-0.9004
N6630 X-1.0985 Y-0.8062
N6635 X-1.1331 Y-0.7097
N6640 X-1.1624 Y-0.6114
N6645 X-1.167 Y-0.5928
N6650 X-1.1921 Y-0.4867
N6655 X-1.2117 Y-0.3861
N6660 X-1.2279 Y-0.2848
N6665 X-1.2413 Y-0.1832
N6670 X-1.2523 Y-0.0812
N6675 X-1.2566 Y0.0212
N6680 X-1.2597 Y0.1237
N6685 X-1.2589 Y0.2263
N6690 X-1.2498 Y0.3284
N6695 X-1.2296 Y0.429
N6700 X-1.1974 Y0.5263
N6705 X-1.153 Y0.6187
N6710 X-1.0975 Y0.705
N6715 X-1.0813 Y0.7248
N6720 X-1.0093 Y0.8066
N6725 X-0.9337 Y0.8759
N6730 X-0.8517 Y0.9374
N6735 X-0.7645 Y0.9914
N6740 X-0.6733 Y1.0383
N6745 X-0.5791 Y1.0787
N6750 X-0.4825 Y1.1131
N6755 X-0.3842 Y1.1423
N6760 X-0.2846 Y1.1668
N6765 X-0.1841 Y1.1874
N6770 X-0.083 Y1.2044
N6775 X0.0186 Y1.2184
N6780 X0.1206 Y1.229
N6785 X0.223 Y1.2338
N6790 X0.3254 Y1.2289
N6795 X0.4265 Y1.2117
N6800 X0.5245 Y1.1816
N6805 X0.6177 Y1.1387
N6810 X0.6231 Y1.1353
N6815 X0.7096 Y1.0802
N6820 X0.789 Y1.0152
N6825 X0.8605 Y0.9418
N6830 X0.9242 Y0.8614
N6835 X0.9802 Y0.7755
N6840 X1.0289 Y0.6853
N6845 X1.0708 Y0.5917
N6850 X1.1066 Y0.4956
N6855 X1.1369 Y0.3976
N6860 X1.1624 Y0.2983
N6865 X1.1837 Y0.198
N6870 X1.2014 Y0.097
N6875 X1.216 Y-0.0045
N6880 X1.2274 Y-0.1064
N6885 X1.2335 Y-0.2088
N6890 X1.2301 Y-0.3113
N6895 X1.2149 Y-0.4127
N6900 X1.1864 Y-0.5112
N6905 X1.1453 Y-0.6051
N6910 X1.142 Y-0.6106
N6915 X1.0885 Y-0.6981
N6920 X1.0247 Y-0.7784
N6925 X0.9523 Y-0.851
N6930 X0.8728 Y-0.9157
N6935 X0.7875 Y-0.9728
N6940 X0.6978 Y-1.0224
N6945 X0.6046 Y-1.0652
N6950 X0.5088 Y-1.1018
N6955 X0.4111 Y-1.1329
N6960 X0.312 Y-1.159
N6965 X0.2117 Y-1.1808
N6970 X0.1107 Y-1.198
N6975 X0.0087 Y-1.2086
N6980 X-0.0939 Y-1.2091
N6985 X-0.1957 Y-1.1968
N6990 X-0.2949 Y-1.171
N6995 X-0.3898 Y-1.132
N7000 X-0.4787 Y-1.081
N7005 X-0.5606 Y-1.0193
N7010 X-0.6348 Y-0.9485
N7015 X-0.668 Y-0.9094
N7020 X-0.6758 Y-0.8992
N7025 X-0.6835 Y-0.889
N7030 G3 X-0.6923 Y-0.8793 Z1.1807 I-0.0781 J-0.0625
N7035 G2 X-0.7218 Y-0.8231 Z1.184 I0.0692 J0.0721
N7040 G1 X-0.7344 Y-0.7448 Z1.188
N7045 X-0.8034 Y-0.316
N7050 X-0.8156 Y-0.2403 Z1.1841
N7055 G2 X-0.8137 Y-0.1996 Z1.182 I0.0987 J0.0159
N7060 G1 Y-0.1995
N7065 G3 X-0.8081 Y-0.1607 Z1.18 I-0.1766 J0.0451
N7070 G1 Y-0.1543
N7075 X-0.8565 Y-0.0639
N7080 X-0.8643 Y-0.0395
N7085 X-0.866 Y-0.0333
N7090 X-0.8677 Y-0.0291 Z1.1803
N7095 X-0.8694 Y-0.0249 Z1.1811
N7100 X-0.8711 Y-0.0208 Z1.1824
N7105 X-0.8727 Y-0.0169 Z1.1842
N7110 X-0.8747 Y-0.0138 Z1.1864
N7115 X-0.8765 Y-0.0108 Z1.1889
N7120 X-0.8782 Y-0.0082 Z1.1918
N7125 X-0.8798 Y-0.0058 Z1.1951
N7130 X-0.8811 Y-0.0037 Z1.1986
N7135 X-0.8822 Y-0.002 Z1.2024
N7140 X-0.8832 Y-0.0007 Z1.2064
N7145 X-0.8839 Y0.0003 Z1.2106
N7150 X-0.8844 Y0.0008 Z1.2149
N7155 X-0.8845 Y0.001 Z1.2193
N7160 G0 Z1.7
N7165 X-2.102 Y-3.1416
N7170 Z1.22
N7175 G1 Z1.12 F40.
N7180 X-2.1019 Y-3.1413 Z1.1122
N7185 X-2.1017 Y-3.1404 Z1.1044
N7190 X-2.1013 Y-3.1389 Z1.0967
N7195 X-2.1008 Y-3.1369 Z1.0891
N7200 X-2.1001 Y-3.1342 Z1.0817
N7205 X-2.0993 Y-3.131 Z1.0746
N7210 X-2.0984 Y-3.1273 Z1.0678
N7215 X-2.0973 Y-3.1231 Z1.0612
N7220 X-2.0961 Y-3.1184 Z1.0551
N7225 X-2.0947 Y-3.1132 Z1.0493
N7230 X-2.0933 Y-3.1076 Z1.044
N7235 X-2.0918 Y-3.1017 Z1.0391
N7240 X-2.0902 Y-3.0953 Z1.0347
N7245 X-2.0885 Y-3.0887 Z1.0309
N7250 X-2.0867 Y-3.0818 Z1.0276
N7255 X-2.0849 Y-3.0747 Z1.0249
N7260 X-2.083 Y-3.0673 Z1.0228
N7265 X-2.0811 Y-3.0599 Z1.0212
N7270 X-2.0791 Y-3.0523 Z1.0203
N7275 X-2.0772 Y-3.0447 Z1.02
N7280 G3 X-1.9989 Y-2.5003 I-2.4731 J0.6335
N7285 G1 Y-2.4894
N7290 X-2.0603 Y-2.4073
N7295 X-2.1111 Y-2.3182
N7300 X-2.1525 Y-2.2244
N7305 X-2.1857 Y-2.1273
N7310 X-2.2119 Y-2.0282
N7315 X-2.2324 Y-1.9278
N7320 X-2.2483 Y-1.8264
N7325 X-2.2606 Y-1.7246
N7330 X-2.2699 Y-1.6225
N7335 X-2.2769 Y-1.5202
N7340 X-2.2823 Y-1.4178
N7345 X-2.2863 Y-1.3153
N7350 X-2.2893 Y-1.2128
N7355 X-2.2916 Y-1.1103
N7360 X-2.2933 Y-1.0078
N7365 X-2.2946 Y-0.9053
N7370 X-2.2955 Y-0.8027
N7375 X-2.2963 Y-0.7002
N7380 X-2.2968 Y-0.5976
N7385 X-2.2972 Y-0.4951
N7390 X-2.2978 Y-0.29
N7395 X-2.2982 Y0.0176
N7400 X-2.2985 Y0.5303
N7405 X-2.2988 Y1.5558
N7410 Y1.6583
N7415 X-2.2804 Y1.7592
N7420 X-2.2377 Y1.8524
N7425 X-2.1772 Y1.9352
N7430 X-2.1035 Y2.0065
N7435 X-2.0204 Y2.0667
N7440 X-1.9307 Y2.1164
N7445 X-1.8365 Y2.1567
N7450 X-1.7392 Y2.1891
N7455 X-1.6399 Y2.2146
N7460 X-1.5393 Y2.2346
N7465 X-1.4379 Y2.25
N7470 X-1.336 Y2.2618
N7475 X-1.2339 Y2.2709
N7480 X-1.1316 Y2.2777
N7485 X-1.0292 Y2.2829
N7490 X-0.9267 Y2.2868
N7495 X-0.8242 Y2.2897
N7500 X-0.7217 Y2.2919
N7505 X-0.6191 Y2.2936
N7510 X-0.5166 Y2.2948
N7515 X-0.4141 Y2.2957
N7520 X-0.3115 Y2.2964
N7525 X-0.209 Y2.2969
N7530 X-0.1064 Y2.2973
N7535 X0.0986 Y2.2979
N7540 X0.4063 Y2.2983
N7545 X0.919 Y2.2986
N7550 X1.4317 Y2.2988
N7555 X1.6368
N7560 X1.7386 Y2.2865
N7565 X1.8338 Y2.2483
N7570 X1.9188 Y2.191
N7575 X1.9926 Y2.1198
N7580 X2.055 Y2.0384
N7585 X2.1068 Y1.9499
N7590 X2.149 Y1.8565
N7595 X2.1829 Y1.7597
N7600 X2.2098 Y1.6607
N7605 X2.2308 Y1.5604
N7610 X2.2471 Y1.4591
N7615 X2.2596 Y1.3574
N7620 X2.2692 Y1.2553
N7625 X2.2764 Y1.153
N7630 X2.2819 Y1.0506
N7635 X2.2861 Y0.9481
N7640 X2.2892 Y0.8456
N7645 X2.2915 Y0.7431
N7650 X2.2932 Y0.6406
N7655 X2.2946 Y0.538
N7660 X2.2955 Y0.4355
N7665 X2.2963 Y0.333
N7670 X2.2968 Y0.2304
N7675 X2.2973 Y0.1279
N7680 X2.2978 Y-0.0772
N7685 X2.2983 Y-0.3848
N7690 X2.2986 Y-0.8976
N7695 X2.2987 Y-1.3077
N7700 X2.2988 Y-1.6154
N7705 X2.2931 Y-1.7178
N7710 X2.2596 Y-1.8147
N7715 X2.2059 Y-1.902
N7720 X2.1372 Y-1.9781
N7725 X2.0576 Y-2.0429
N7730 X1.9704 Y-2.0968
N7735 X1.8779 Y-2.1409
N7740 X1.7817 Y-2.1765
N7745 X1.6831 Y-2.2047
N7750 X1.583 Y-2.2268
N7755 X1.4819 Y-2.244
N7760 X1.3802 Y-2.2573
N7765 X1.2781 Y-2.2674
N7770 X1.1759 Y-2.2751
N7775 X1.0735 Y-2.2809
N7780 X0.9711 Y-2.2853
N7785 X0.8686 Y-2.2886
N7790 X0.7661 Y-2.2911
N7795 X0.6635 Y-2.2929
N7800 X0.561 Y-2.2943
N7805 X0.4585 Y-2.2954
N7810 X0.3559 Y-2.2961
N7815 X0.2534 Y-2.2967
N7820 X0.1508 Y-2.2972
N7825 X0.0483 Y-2.2975
N7830 X-0.1568 Y-2.298
N7835 X-0.4644 Y-2.2983
N7840 X-1.0797 Y-2.2987
N7845 X-1.1822
N7850 X-1.3873
N7855 X-1.4879 Y-2.2789
N7860 X-1.5823 Y-2.2388
N7865 X-1.6679 Y-2.1823
N7870 X-1.7437 Y-2.1132
N7875 X-1.8092 Y-2.0343
N7880 X-1.8649 Y-1.9482
N7885 X-1.9116 Y-1.8569
N7890 X-1.95 Y-1.7619
N7895 X-1.9814 Y-1.6642
N7900 X-2.0067 Y-1.5649
N7905 X-2.0269 Y-1.4643
N7910 X-2.0429 Y-1.3631
N7915 X-2.0555 Y-1.2613
N7920 X-2.0653 Y-1.1592
N7925 X-2.073 Y-1.0569
N7930 X-2.0789 Y-0.9546
N7935 X-2.0835 Y-0.8521
N7940 X-2.087 Y-0.7497
N7945 X-2.0897 Y-0.6471
N7950 X-2.0918 Y-0.5446
N7955 X-2.0933 Y-0.4421
N7960 X-2.0946 Y-0.3396
N7965 X-2.0955 Y-0.237
N7970 X-2.0962 Y-0.1345
N7975 X-2.0968 Y-0.0319
N7980 X-2.0972 Y0.0706
N7985 X-2.0978 Y0.2757
N7990 X-2.0983 Y0.5833
N7995 X-2.0986 Y1.0961
N8000 X-2.0987 Y1.3011
N8005 X-2.0829 Y1.4025
N8010 X-2.0498 Y1.4995
N8015 X-2.0012 Y1.5898
N8020 X-1.9394 Y1.6717
N8025 X-1.867 Y1.7443
N8030 X-1.7863 Y1.8075
N8035 X-1.6992 Y1.8617
N8040 X-1.6074 Y1.9074
N8045 X-1.5122 Y1.9454
N8050 X-1.4145 Y1.9767
N8055 X-1.3152 Y2.0021
N8060 X-1.2148 Y2.0227
N8065 X-1.1135 Y2.0391
N8070 X-1.0118 Y2.0522
N8075 X-0.9098 Y2.0625
N8080 X-0.8076 Y2.0706
N8085 X-0.7052 Y2.0769
N8090 X-0.6028 Y2.0819
N8095 X-0.5003 Y2.0857
N8100 X-0.3978 Y2.0887
N8105 X-0.2953 Y2.0909
N8110 X-0.1928 Y2.0927
N8115 X-0.0902 Y2.0941
N8120 X0.0123 Y2.0951
N8125 X0.1148 Y2.0959
N8130 X0.2174 Y2.0966
N8135 X0.3199 Y2.097
N8140 X0.4225 Y2.0974
N8145 X0.6275 Y2.0979
N8150 X0.9352 Y2.0984
N8155 X1.2428 Y2.0986
N8160 X1.3452 Y2.0929
N8165 X1.4451 Y2.0696
N8170 X1.5395 Y2.0295
N8175 X1.6263 Y1.9749
N8180 X1.7042 Y1.9083
N8185 X1.7727 Y1.832
N8190 X1.832 Y1.7483
N8195 X1.8824 Y1.659
N8200 X1.9246 Y1.5656
N8205 X1.9596 Y1.4692
N8210 X1.9883 Y1.3708
N8215 X2.0116 Y1.2709
N8220 X2.0303 Y1.1701
N8225 X2.0452 Y1.0686
N8230 X2.057 Y0.9668
N8235 X2.0663 Y0.8646
N8240 X2.0736 Y0.7623
N8245 X2.0792 Y0.66
N8250 X2.0837 Y0.5575
N8255 X2.0871 Y0.455
N8260 X2.0897 Y0.3525
N8265 X2.0918 Y0.25
N8270 X2.0933 Y0.1475
N8275 X2.0946 Y0.0449
N8280 X2.0955 Y-0.0576
N8285 X2.0962 Y-0.1602
N8290 X2.0968 Y-0.2627
N8295 X2.0972 Y-0.3652
N8300 X2.0978 Y-0.5703
N8305 X2.0983 Y-0.878
N8310 X2.0986 Y-1.2881
N8315 X2.0853 Y-1.3898
N8320 X2.0545 Y-1.4876
N8325 X2.0078 Y-1.5789
N8330 X1.9476 Y-1.6619
N8335 X1.8764 Y-1.7357
N8340 X1.7966 Y-1.8001
N8345 X1.7102 Y-1.8554
N8350 X1.6189 Y-1.9021
N8355 X1.5241 Y-1.9411
N8360 X1.4267 Y-1.9732
N8365 X1.3275 Y-1.9993
N8370 X1.2272 Y-2.0205
N8375 X1.126 Y-2.0374
N8380 X1.0244 Y-2.0508
N8385 X0.9224 Y-2.0614
N8390 X0.8202 Y-2.0697
N8395 X0.7179 Y-2.0763
N8400 X0.6154 Y-2.0813
N8405 X0.513 Y-2.0853
N8410 X0.4105 Y-2.0883
N8415 X0.308 Y-2.0907
N8420 X0.2054 Y-2.0925
N8425 X0.1029 Y-2.0939
N8430 X0.0004 Y-2.095
N8435 X-0.1022 Y-2.0958
N8440 X-0.2047 Y-2.0965
N8445 X-0.3073 Y-2.097
N8450 X-0.4098 Y-2.0974
N8455 X-0.6149 Y-2.0979
N8460 X-0.9225 Y-2.0984
N8465 X-1.0251 Y-2.0985
N8470 X-1.127 Y-2.0873
N8475 X-1.2259 Y-2.0603
N8480 X-1.3194 Y-2.0181
N8485 X-1.4056 Y-1.9626
N8490 X-1.4834 Y-1.8958
N8495 X-1.5524 Y-1.8199
N8500 X-1.6124 Y-1.7368
N8505 X-1.664 Y-1.6481
N8510 X-1.7077 Y-1.5554
N8515 X-1.7443 Y-1.4596
N8520 X-1.7747 Y-1.3616
N8525 X-1.7996 Y-1.2622
N8530 X-1.8198 Y-1.1616
N8535 X-1.8362 Y-1.0604
N8540 X-1.8494 Y-0.9587
N8545 X-1.8599 Y-0.8567
N8550 X-1.8682 Y-0.7545
N8555 X-1.8748 Y-0.6522
N8560 X-1.88 Y-0.5498
N8565 X-1.8841 Y-0.4473
N8570 X-1.8873 Y-0.3448
N8575 X-1.8898 Y-0.2423
N8580 X-1.8918 Y-0.1398
N8585 X-1.8933 Y-0.0372
N8590 X-1.8945 Y0.0653
N8595 X-1.8954 Y0.1678
N8600 X-1.8961 Y0.2704
N8605 X-1.8967 Y0.3729
N8610 X-1.8971 Y0.4755
N8615 X-1.8978 Y0.6806
N8620 X-1.8982 Y0.8856
N8625 X-1.8974 Y0.9882
N8630 X-1.8856 Y1.09
N8635 X-1.8595 Y1.1892
N8640 X-1.8192 Y1.2835
N8645 X-1.766 Y1.3712
N8650 X-1.7016 Y1.451
N8655 X-1.628 Y1.5224
N8660 X-1.5469 Y1.5852
N8665 X-1.46 Y1.6396
N8670 X-1.3686 Y1.6861
N8675 X-1.2739 Y1.7255
N8680 X-1.1768 Y1.7584
N8685 X-1.078 Y1.7857
N8690 X-0.9779 Y1.8081
N8695 X-0.877 Y1.8264
N8700 X-0.7755 Y1.8412
N8705 X-0.6737 Y1.8531
N8710 X-0.5716 Y1.8627
N8715 X-0.4693 Y1.8703
N8720 X-0.3669 Y1.8763
N8725 X-0.2645 Y1.8811
N8730 X-0.162 Y1.8849
N8735 X-0.0595 Y1.8879
N8740 X0.043 Y1.8903
N8745 X0.1455 Y1.8921
N8750 X0.248 Y1.8935
N8755 X0.3506 Y1.8947
N8760 X0.4531 Y1.8956
N8765 X0.5557 Y1.8963
N8770 X0.6582 Y1.8968
N8775 X0.7607 Y1.8972
N8780 X0.8633 Y1.8976
N8785 X0.9658 Y1.8974
N8790 X1.068 Y1.8884
N8795 X1.1679 Y1.8654
N8800 X1.2635 Y1.8282
N8805 X1.3527 Y1.7776
N8810 X1.4343 Y1.7155
N8815 X1.5075 Y1.6437
N8820 X1.5721 Y1.5641
N8825 X1.6283 Y1.4783
N8830 X1.6765 Y1.3878
N8835 X1.7174 Y1.2938
N8840 X1.7517 Y1.1971
N8845 X1.7802 Y1.0986
N8850 X1.8036 Y0.9988
N8855 X1.8228 Y0.898
N8860 X1.8383 Y0.7967
N8865 X1.8508 Y0.6949
N8870 X1.8608 Y0.5928
N8875 X1.8688 Y0.4906
N8880 X1.8752 Y0.3883
N8885 X1.8802 Y0.2859
N8890 X1.8842 Y0.1834
N8895 X1.8873 Y0.0809
N8900 X1.8898 Y-0.0216
N8905 X1.8917 Y-0.1242
N8910 X1.8933 Y-0.2267
N8915 X1.8945 Y-0.3292
N8920 X1.8954 Y-0.4318
N8925 X1.8961 Y-0.5343
N8930 X1.8967 Y-0.6368
N8935 X1.8971 Y-0.7394
N8940 X1.8978 Y-0.9445
N8945 X1.8915 Y-1.0468
N8950 X1.8717 Y-1.1474
N8955 X1.8374 Y-1.2441
N8960 X1.7895 Y-1.3347
N8965 X1.7296 Y-1.418
N8970 X1.6597 Y-1.493
N8975 X1.5816 Y-1.5594
N8980 X1.4969 Y-1.6173
N8985 X1.4073 Y-1.6672
N8990 X1.3139 Y-1.7095
N8995 X1.2177 Y-1.7451
N9000 X1.1196 Y-1.7747
N9005 X1.02 Y-1.7991
N9010 X0.9194 Y-1.8191
N9015 X0.8181 Y-1.8353
N9020 X0.7164 Y-1.8484
N9025 X0.6144 Y-1.8589
N9030 X0.5122 Y-1.8673
N9035 X0.4099 Y-1.874
N9040 X0.3075 Y-1.8793
N9045 X0.205 Y-1.8835
N9050 X0.1025 Y-1.8868
N9055 X0. Y-1.8894
N9060 X-0.1025 Y-1.8914
N9065 X-0.205 Y-1.893
N9070 X-0.3076 Y-1.8942
N9075 X-0.4101 Y-1.8952
N9080 X-0.5126 Y-1.896
N9085 X-0.6152 Y-1.8966
N9090 X-0.7177
N9095 X-0.82 Y-1.8891
N9100 X-0.9205 Y-1.8688
N9105 X-1.0173 Y-1.8349
N9110 X-1.1084 Y-1.7879
N9115 X-1.1926 Y-1.7293
N9120 X-1.2688 Y-1.6607
N9125 X-1.3367 Y-1.5839
N9130 X-1.3964 Y-1.5005
N9135 X-1.4481 Y-1.4119
N9140 X-1.4923 Y-1.3194
N9145 X-1.5298 Y-1.224
N9150 X-1.5612 Y-1.1264
N9155 X-1.5874 Y-1.0272
N9160 X-1.6089 Y-0.9269
N9165 X-1.6266 Y-0.8259
N9170 X-1.641 Y-0.7244
N9175 X-1.6526 Y-0.6225
N9180 X-1.662 Y-0.5204
N9185 X-1.6696 Y-0.4181
N9190 X-1.6756 Y-0.3158
N9195 X-1.6805 Y-0.2134
N9200 X-1.6843 Y-0.1109
N9205 X-1.6873 Y-0.0084
N9210 X-1.6897 Y0.0941
N9215 X-1.6916 Y0.1967
N9220 X-1.6931 Y0.2992
N9225 X-1.6943 Y0.4017
N9230 X-1.6953 Y0.5043
N9235 X-1.696 Y0.6068
N9240 X-1.6948 Y0.7094
N9245 X-1.6851 Y0.8114
N9250 X-1.6631 Y0.9116
N9255 X-1.628 Y1.0079
N9260 X-1.5804 Y1.0988
N9265 X-1.5215 Y1.1827
N9270 X-1.453 Y1.259
N9275 X-1.3764 Y1.3272
N9280 X-1.2933 Y1.3873
N9285 X-1.205 Y1.4395
N9290 X-1.1128 Y1.4844
N9295 X-1.0177 Y1.5225
N9300 X-0.9203 Y1.5547
N9305 X-0.8213 Y1.5815
N9310 X-0.7212 Y1.6038
N9315 X-0.6203 Y1.6221
N9320 X-0.5189 Y1.6371
N9325 X-0.4171 Y1.6494
N9330 X-0.315 Y1.6593
N9335 X-0.2128 Y1.6672
N9340 X-0.1104 Y1.6737
N9345 X-0.008 Y1.6788
N9350 X0.0944 Y1.6829
N9355 X0.1969 Y1.6862
N9360 X0.2994 Y1.6888
N9365 X0.402 Y1.6909
N9370 X0.5045 Y1.6926
N9375 X0.607 Y1.6938
N9380 X0.7096 Y1.6928
N9385 X0.8117 Y1.6833
N9390 X0.9119 Y1.6614
N9395 X1.0082 Y1.6263
N9400 X1.099 Y1.5787
N9405 X1.183 Y1.5199
N9410 X1.2592 Y1.4513
N9415 X1.3274 Y1.3747
N9420 X1.3874 Y1.2915
N9425 X1.4396 Y1.2032
N9430 X1.4845 Y1.111
N9435 X1.5226 Y1.0159
N9440 X1.5548 Y0.9185
N9445 X1.5817 Y0.8195
N9450 X1.6039 Y0.7194
N9455 X1.6223 Y0.6185
N9460 X1.6373 Y0.5171
N9465 X1.6495 Y0.4153
N9470 X1.6594 Y0.3132
N9475 X1.6673 Y0.211
N9480 X1.6737 Y0.1086
N9485 X1.6789 Y0.0062
N9490 X1.683 Y-0.0962
N9495 X1.6863 Y-0.1987
N9500 X1.6889 Y-0.3012
N9505 X1.6909 Y-0.4038
N9510 X1.6926 Y-0.5063
N9515 X1.6939 Y-0.6088
N9520 X1.6929 Y-0.7114
N9525 X1.6831 Y-0.8134
N9530 X1.661 Y-0.9136
N9535 X1.6257 Y-1.0099
N9540 X1.5779 Y-1.1006
N9545 X1.5189 Y-1.1844
N9550 X1.4501 Y-1.2605
N9555 X1.3733 Y-1.3285
N9560 X1.2901 Y-1.3883
N9565 X1.2017 Y-1.4404
N9570 X1.1095 Y-1.4851
N9575 X1.0142 Y-1.5232
N9580 X0.9168 Y-1.5552
N9585 X0.8178 Y-1.582
N9590 X0.7177 Y-1.6042
N9595 X0.6168 Y-1.6225
N9600 X0.5154 Y-1.6375
N9605 X0.4136 Y-1.6497
N9610 X0.3115 Y-1.6595
N9615 X0.2093 Y-1.6675
N9620 X0.1069 Y-1.6739
N9625 X0.0045 Y-1.679
N9630 X-0.098 Y-1.6831
N9635 X-0.2005 Y-1.6863
N9640 X-0.303 Y-1.6889
N9645 X-0.4055 Y-1.6907
N9650 X-0.508 Y-1.6884
N9655 X-0.6099 Y-1.6765
N9660 X-0.7095 Y-1.6525
N9665 X-0.8053 Y-1.6158
N9670 X-0.8954 Y-1.5668
N9675 X-0.9787 Y-1.507
N9680 X-1.0544 Y-1.4378
N9685 X-1.1221 Y-1.3609
N9690 X-1.1819 Y-1.2776
N9695 X-1.2341 Y-1.1893
N9700 X-1.279 Y-1.0971
N9705 X-1.3174 Y-1.002
N9710 X-1.3498 Y-0.9047
N9715 X-1.377 Y-0.8058
N9720 X-1.3996 Y-0.7058
N9725 X-1.4184 Y-0.605
N9730 X-1.4338 Y-0.5036
N9735 X-1.4464 Y-0.4019
N9740 X-1.4567 Y-0.2998
N9745 X-1.465 Y-0.1976
N9750 X-1.4718 Y-0.0953
N9755 X-1.4772 Y0.0071
N9760 X-1.4816 Y0.1095
N9765 X-1.485 Y0.212
N9770 X-1.4878 Y0.3145
N9775 X-1.4888 Y0.4171
N9780 X-1.484 Y0.5195
N9785 X-1.4691 Y0.621
N9790 X-1.4419 Y0.7198
N9795 X-1.4024 Y0.8145
N9800 X-1.3512 Y0.9033
N9805 X-1.2895 Y0.9852
N9810 X-1.219 Y1.0596
N9815 X-1.1409 Y1.1262
N9820 X-1.0569 Y1.1849
N9825 X-0.9681 Y1.2361
N9830 X-0.8755 Y1.2803
N9835 X-0.7802 Y1.3181
N9840 X-0.6827 Y1.35
N9845 X-0.5838 Y1.3769
N9850 X-0.4837 Y1.3993
N9855 X-0.3829 Y1.4179
N9860 X-0.2815 Y1.4332
N9865 X-0.1797 Y1.4458
N9870 X-0.0777 Y1.4561
N9875 X0.0245 Y1.4644
N9880 X0.1268 Y1.4712
N9885 X0.2292 Y1.4767
N9890 X0.3317 Y1.4809
N9895 X0.4342 Y1.4827
N9900 X0.5366 Y1.4772
N9905 X0.6378 Y1.4607
N9910 X0.7363 Y1.4319
N9915 X0.8301 Y1.3906
N9920 X0.9179 Y1.3377
N9925 X0.9987 Y1.2745
N9930 X1.0719 Y1.2027
N9935 X1.1372 Y1.1236
N9940 X1.1946 Y1.0387
N9945 X1.2446 Y0.9491
N9950 X1.2877 Y0.8561
N9955 X1.3244 Y0.7603
N9960 X1.3554 Y0.6626
N9965 X1.3814 Y0.5634
N9970 X1.4031 Y0.4632
N9975 X1.421 Y0.3622
N9980 X1.4358 Y0.2607
N9985 X1.4479 Y0.1589
N9990 X1.4578 Y0.0568
N9995 X1.4658 Y-0.0454
N10000 X1.4723 Y-0.1477
N10005 X1.4776 Y-0.2501
N10010 X1.4816 Y-0.3526
N10015 X1.4822 Y-0.4552
N10020 X1.4748 Y-0.5574
N10025 X1.4559 Y-0.6582
N10030 X1.4244 Y-0.7558
N10035 X1.3806 Y-0.8485
N10040 X1.3255 Y-0.935
N10045 X1.2605 Y-1.0143
N10050 X1.1871 Y-1.0859
N10055 X1.1067 Y-1.1495
N10060 X1.0207 Y-1.2054
N10065 X0.9303 Y-1.2539
N10070 X0.8367 Y-1.2956
N10075 X0.7405 Y-1.3312
N10080 X0.6424 Y-1.3611
N10085 X0.543 Y-1.3862
N10090 X0.4426 Y-1.4071
N10095 X0.3415 Y-1.4244
N10100 X0.2399 Y-1.4385
N10105 X0.1381 Y-1.4502
N10110 X0.036 Y-1.4596
N10115 X-0.0663 Y-1.4673
N10120 X-0.1687 Y-1.4725
N10125 X-0.2713 Y-1.4722
N10130 X-0.3733 Y-1.4622
N10135 X-0.4735 Y-1.4403
N10140 X-0.57 Y-1.4058
N10145 X-0.6614 Y-1.3593
N10150 X-0.7464 Y-1.3018
N10155 X-0.824 Y-1.2348
N10160 X-0.8939 Y-1.1598
N10165 X-0.956 Y-1.0782
N10170 X-1.0105 Y-0.9913
N10175 X-1.0578 Y-0.9004
N10180 X-1.0985 Y-0.8062
N10185 X-1.1331 Y-0.7097
N10190 X-1.1624 Y-0.6114
N10195 X-1.167 Y-0.5928
N10200 X-1.1921 Y-0.4867
N10205 X-1.2117 Y-0.3861
N10210 X-1.2279 Y-0.2848
N10215 X-1.2413 Y-0.1832
N10220 X-1.2523 Y-0.0812
N10225 X-1.2566 Y0.0212
N10230 X-1.2597 Y0.1237
N10235 X-1.2589 Y0.2263
N10240 X-1.2498 Y0.3284
N10245 X-1.2296 Y0.429
N10250 X-1.1974 Y0.5263
N10255 X-1.153 Y0.6187
N10260 X-1.0975 Y0.705
N10265 X-1.0813 Y0.7248
N10270 X-1.0093 Y0.8066
N10275 X-0.9337 Y0.8759
N10280 X-0.8517 Y0.9374
N10285 X-0.7645 Y0.9914
N10290 X-0.6733 Y1.0383
N10295 X-0.5791 Y1.0787
N10300 X-0.4825 Y1.1131
N10305 X-0.3842 Y1.1423
N10310 X-0.2846 Y1.1668
N10315 X-0.1841 Y1.1874
N10320 X-0.083 Y1.2044
N10325 X0.0186 Y1.2184
N10330 X0.1206 Y1.229
N10335 X0.223 Y1.2338
N10340 X0.3254 Y1.2289
N10345 X0.4265 Y1.2117
N10350 X0.5245 Y1.1816
N10355 X0.6177 Y1.1387
N10360 X0.6231 Y1.1353
N10365 X0.7096 Y1.0802
N10370 X0.789 Y1.0152
N10375 X0.8605 Y0.9418
N10380 X0.9242 Y0.8614
N10385 X0.9802 Y0.7755
N10390 X1.0289 Y0.6853
N10395 X1.0708 Y0.5917
N10400 X1.1066 Y0.4956
N10405 X1.1369 Y0.3976
N10410 X1.1624 Y0.2983
N10415 X1.1837 Y0.198
N10420 X1.2014 Y0.097
N10425 X1.216 Y-0.0045
N10430 X1.2274 Y-0.1064
N10435 X1.2335 Y-0.2088
N10440 X1.2301 Y-0.3113
N10445 X1.2149 Y-0.4127
N10450 X1.1864 Y-0.5112
N10455 X1.1453 Y-0.6051
N10460 X1.142 Y-0.6106
N10465 X1.0885 Y-0.6981
N10470 X1.0247 Y-0.7784
N10475 X0.9523 Y-0.851
N10480 X0.8728 Y-0.9157
N10485 X0.7875 Y-0.9728
N10490 X0.6978 Y-1.0224
N10495 X0.6046 Y-1.0652
N10500 X0.5088 Y-1.1018
N10505 X0.4111 Y-1.1329
N10510 X0.312 Y-1.159
N10515 X0.2117 Y-1.1808
N10520 X0.1107 Y-1.198
N10525 X0.0087 Y-1.2086
N10530 X-0.0939 Y-1.2091
N10535 X-0.1957 Y-1.1968
N10540 X-0.2949 Y-1.171
N10545 X-0.3898 Y-1.132
N10550 X-0.4787 Y-1.081
N10555 X-0.5606 Y-1.0193
N10560 X-0.6348 Y-0.9485
N10565 X-0.668 Y-0.9094
N10570 X-0.6758 Y-0.8992
N10575 X-0.6835 Y-0.889
N10580 G3 X-0.6923 Y-0.8793 Z1.0207 I-0.0781 J-0.0625
N10585 G2 X-0.7218 Y-0.8231 Z1.024 I0.0692 J0.0721
N10590 G1 X-0.7344 Y-0.7448 Z1.028
N10595 X-0.8034 Y-0.316
N10600 X-0.8156 Y-0.2403 Z1.0241
N10605 G2 X-0.8137 Y-0.1996 Z1.022 I0.0987 J0.0159
N10610 G1 Y-0.1995
N10615 G3 X-0.8081 Y-0.1607 Z1.02 I-0.1766 J0.0451
N10620 G1 Y-0.1543
N10625 X-0.8565 Y-0.0639
N10630 X-0.8643 Y-0.0395
N10635 X-0.866 Y-0.0333
N10640 X-0.8677 Y-0.0291 Z1.0203
N10645 X-0.8694 Y-0.0249 Z1.0211
N10650 X-0.8711 Y-0.0208 Z1.0224
N10655 X-0.8727 Y-0.0169 Z1.0242
N10660 X-0.8747 Y-0.0138 Z1.0264
N10665 X-0.8765 Y-0.0108 Z1.0289
N10670 X-0.8782 Y-0.0082 Z1.0318
N10675 X-0.8798 Y-0.0058 Z1.0351
N10680 X-0.8811 Y-0.0037 Z1.0386
N10685 X-0.8822 Y-0.002 Z1.0424
N10690 X-0.8832 Y-0.0007 Z1.0464
N10695 X-0.8839 Y0.0003 Z1.0506
N10700 X-0.8844 Y0.0008 Z1.0549
N10705 X-0.8845 Y0.001 Z1.0593
N10710 G0 Z1.7
N10715 X-2.102 Y-3.1416
N10720 Z1.06
N10725 G1 Z0.96 F40.
N10730 X-2.1019 Y-3.1413 Z0.9522
N10735 X-2.1017 Y-3.1404 Z0.9444
N10740 X-2.1013 Y-3.1389 Z0.9367
N10745 X-2.1008 Y-3.1369 Z0.9291
N10750 X-2.1001 Y-3.1342 Z0.9217
N10755 X-2.0993 Y-3.131 Z0.9146
N10760 X-2.0984 Y-3.1273 Z0.9078
N10765 X-2.0973 Y-3.1231 Z0.9012
N10770 X-2.0961 Y-3.1184 Z0.8951
N10775 X-2.0947 Y-3.1132 Z0.8893
N10780 X-2.0933 Y-3.1076 Z0.884
N10785 X-2.0918 Y-3.1017 Z0.8791
N10790 X-2.0902 Y-3.0953 Z0.8747
N10795 X-2.0885 Y-3.0887 Z0.8709
N10800 X-2.0867 Y-3.0818 Z0.8676
N10805 X-2.0849 Y-3.0747 Z0.8649
N10810 X-2.083 Y-3.0673 Z0.8628
N10815 X-2.0811 Y-3.0599 Z0.8612
N10820 X-2.0791 Y-3.0523 Z0.8603
N10825 X-2.0772 Y-3.0447 Z0.86
N10830 G3 X-1.9989 Y-2.5003 I-2.4731 J0.6335
N10835 G1 Y-2.4894
N10840 X-2.0603 Y-2.4073
N10845 X-2.1111 Y-2.3182
N10850 X-2.1525 Y-2.2244
N10855 X-2.1857 Y-2.1273
N10860 X-2.2119 Y-2.0282
N10865 X-2.2324 Y-1.9278
N10870 X-2.2483 Y-1.8264
N10875 X-2.2606 Y-1.7246
N10880 X-2.2699 Y-1.6225
N10885 X-2.2769 Y-1.5202
N10890 X-2.2823 Y-1.4178
N10895 X-2.2863 Y-1.3153
N10900 X-2.2893 Y-1.2128
N10905 X-2.2916 Y-1.1103
N10910 X-2.2933 Y-1.0078
N10915 X-2.2946 Y-0.9053
N10920 X-2.2955 Y-0.8027
N10925 X-2.2963 Y-0.7002
N10930 X-2.2968 Y-0.5976
N10935 X-2.2972 Y-0.4951
N10940 X-2.2978 Y-0.29
N10945 X-2.2982 Y0.0176
N10950 X-2.2985 Y0.5303
N10955 X-2.2988 Y1.5558
N10960 Y1.6583
N10965 X-2.2804 Y1.7592
N10970 X-2.2377 Y1.8524
N10975 X-2.1772 Y1.9352
N10980 X-2.1035 Y2.0065
N10985 X-2.0204 Y2.0667
N10990 X-1.9307 Y2.1164
N10995 X-1.8365 Y2.1567
N11000 X-1.7392 Y2.1891
N11005 X-1.6399 Y2.2146
N11010 X-1.5393 Y2.2346
N11015 X-1.4379 Y2.25
N11020 X-1.336 Y2.2618
N11025 X-1.2339 Y2.2709
N11030 X-1.1316 Y2.2777
N11035 X-1.0292 Y2.2829
N11040 X-0.9267 Y2.2868
N11045 X-0.8242 Y2.2897
N11050 X-0.7217 Y2.2919
N11055 X-0.6191 Y2.2936
N11060 X-0.5166 Y2.2948
N11065 X-0.4141 Y2.2957
N11070 X-0.3115 Y2.2964
N11075 X-0.209 Y2.2969
N11080 X-0.1064 Y2.2973
N11085 X0.0986 Y2.2979
N11090 X0.4063 Y2.2983
N11095 X0.919 Y2.2986
N11100 X1.4317 Y2.2988
N11105 X1.6368
N11110 X1.7386 Y2.2865
N11115 X1.8338 Y2.2483
N11120 X1.9188 Y2.191
N11125 X1.9926 Y2.1198
N11130 X2.055 Y2.0384
N11135 X2.1068 Y1.9499
N11140 X2.149 Y1.8565
N11145 X2.1829 Y1.7597
N11150 X2.2098 Y1.6607
N11155 X2.2308 Y1.5604
N11160 X2.2471 Y1.4591
N11165 X2.2596 Y1.3574
N11170 X2.2692 Y1.2553
N11175 X2.2764 Y1.153
N11180 X2.2819 Y1.0506
N11185 X2.2861 Y0.9481
N11190 X2.2892 Y0.8456
N11195 X2.2915 Y0.7431
N11200 X2.2932 Y0.6406
N11205 X2.2946 Y0.538
N11210 X2.2955 Y0.4355
N11215 X2.2963 Y0.333
N11220 X2.2968 Y0.2304
N11225 X2.2973 Y0.1279
N11230 X2.2978 Y-0.0772
N11235 X2.2983 Y-0.3848
N11240 X2.2986 Y-0.8976
N11245 X2.2987 Y-1.3077
N11250 X2.2988 Y-1.6154
N11255 X2.2931 Y-1.7178
N11260 X2.2596 Y-1.8147
N11265 X2.2059 Y-1.902
N11270 X2.1372 Y-1.9781
N11275 X2.0576 Y-2.0429
N11280 X1.9704 Y-2.0968
N11285 X1.8779 Y-2.1409
N11290 X1.7817 Y-2.1765
N11295 X1.6831 Y-2.2047
N11300 X1.583 Y-2.2268
N11305 X1.4819 Y-2.244
N11310 X1.3802 Y-2.2573
N11315 X1.2781 Y-2.2674
N11320 X1.1759 Y-2.2751
N11325 X1.0735 Y-2.2809
N11330 X0.9711 Y-2.2853
N11335 X0.8686 Y-2.2886
N11340 X0.7661 Y-2.2911
N11345 X0.6635 Y-2.2929
N11350 X0.561 Y-2.2943
N11355 X0.4585 Y-2.2954
N11360 X0.3559 Y-2.2961
N11365 X0.2534 Y-2.2967
N11370 X0.1508 Y-2.2972
N11375 X0.0483 Y-2.2975
N11380 X-0.1568 Y-2.298
N11385 X-0.4644 Y-2.2983
N11390 X-1.0797 Y-2.2987
N11395 X-1.1822
N11400 X-1.3873
N11405 X-1.4879 Y-2.2789
N11410 X-1.5823 Y-2.2388
N11415 X-1.6679 Y-2.1823
N11420 X-1.7437 Y-2.1132
N11425 X-1.8092 Y-2.0343
N11430 X-1.8649 Y-1.9482
N11435 X-1.9116 Y-1.8569
N11440 X-1.95 Y-1.7619
N11445 X-1.9814 Y-1.6642
N11450 X-2.0067 Y-1.5649
N11455 X-2.0269 Y-1.4643
N11460 X-2.0429 Y-1.3631
N11465 X-2.0555 Y-1.2613
N11470 X-2.0653 Y-1.1592
N11475 X-2.073 Y-1.0569
N11480 X-2.0789 Y-0.9546
N11485 X-2.0835 Y-0.8521
N11490 X-2.087 Y-0.7497
N11495 X-2.0897 Y-0.6471
N11500 X-2.0918 Y-0.5446
N11505 X-2.0933 Y-0.4421
N11510 X-2.0946 Y-0.3396
N11515 X-2.0955 Y-0.237
N11520 X-2.0962 Y-0.1345
N11525 X-2.0968 Y-0.0319
N11530 X-2.0972 Y0.0706
N11535 X-2.0978 Y0.2757
N11540 X-2.0983 Y0.5833
N11545 X-2.0986 Y1.0961
N11550 X-2.0987 Y1.3011
N11555 X-2.0829 Y1.4025
N11560 X-2.0498 Y1.4995
N11565 X-2.0012 Y1.5898
N11570 X-1.9394 Y1.6717
N11575 X-1.867 Y1.7443
N11580 X-1.7863 Y1.8075
N11585 X-1.6992 Y1.8617
N11590 X-1.6074 Y1.9074
N11595 X-1.5122 Y1.9454
N11600 X-1.4145 Y1.9767
N11605 X-1.3152 Y2.0021
N11610 X-1.2148 Y2.0227
N11615 X-1.1135 Y2.0391
N11620 X-1.0118 Y2.0522
N11625 X-0.9098 Y2.0625
N11630 X-0.8076 Y2.0706
N11635 X-0.7052 Y2.0769
N11640 X-0.6028 Y2.0819
N11645 X-0.5003 Y2.0857
N11650 X-0.3978 Y2.0887
N11655 X-0.2953 Y2.0909
N11660 X-0.1928 Y2.0927
N11665 X-0.0902 Y2.0941
N11670 X0.0123 Y2.0951
N11675 X0.1148 Y2.0959
N11680 X0.2174 Y2.0966
N11685 X0.3199 Y2.097
N11690 X0.4225 Y2.0974
N11695 X0.6275 Y2.0979
N11700 X0.9352 Y2.0984
N11705 X1.2428 Y2.0986
N11710 X1.3452 Y2.0929
N11715 X1.4451 Y2.0696
N11720 X1.5395 Y2.0295
N11725 X1.6263 Y1.9749
N11730 X1.7042 Y1.9083
N11735 X1.7727 Y1.832
N11740 X1.832 Y1.7483
N11745 X1.8824 Y1.659
N11750 X1.9246 Y1.5656
N11755 X1.9596 Y1.4692
N11760 X1.9883 Y1.3708
N11765 X2.0116 Y1.2709
N11770 X2.0303 Y1.1701
N11775 X2.0452 Y1.0686
N11780 X2.057 Y0.9668
N11785 X2.0663 Y0.8646
N11790 X2.0736 Y0.7623
N11795 X2.0792 Y0.66
N11800 X2.0837 Y0.5575
N11805 X2.0871 Y0.455
N11810 X2.0897 Y0.3525
N11815 X2.0918 Y0.25
N11820 X2.0933 Y0.1475
N11825 X2.0946 Y0.0449
N11830 X2.0955 Y-0.0576
N11835 X2.0962 Y-0.1602
N11840 X2.0968 Y-0.2627
N11845 X2.0972 Y-0.3652
N11850 X2.0978 Y-0.5703
N11855 X2.0983 Y-0.878
N11860 X2.0986 Y-1.2881
N11865 X2.0853 Y-1.3898
N11870 X2.0545 Y-1.4876
N11875 X2.0078 Y-1.5789
N11880 X1.9476 Y-1.6619
N11885 X1.8764 Y-1.7357
N11890 X1.7966 Y-1.8001
N11895 X1.7102 Y-1.8554
N11900 X1.6189 Y-1.9021
N11905 X1.5241 Y-1.9411
N11910 X1.4267 Y-1.9732
N11915 X1.3275 Y-1.9993
N11920 X1.2272 Y-2.0205
N11925 X1.126 Y-2.0374
N11930 X1.0244 Y-2.0508
N11935 X0.9224 Y-2.0614
N11940 X0.8202 Y-2.0697
N11945 X0.7179 Y-2.0763
N11950 X0.6154 Y-2.0813
N11955 X0.513 Y-2.0853
N11960 X0.4105 Y-2.0883
N11965 X0.308 Y-2.0907
N11970 X0.2054 Y-2.0925
N11975 X0.1029 Y-2.0939
N11980 X0.0004 Y-2.095
N11985 X-0.1022 Y-2.0958
N11990 X-0.2047 Y-2.0965
N11995 X-0.3073 Y-2.097
N12000 X-0.4098 Y-2.0974
N12005 X-0.6149 Y-2.0979
N12010 X-0.9225 Y-2.0984
N12015 X-1.0251 Y-2.0985
N12020 X-1.127 Y-2.0873
N12025 X-1.2259 Y-2.0603
N12030 X-1.3194 Y-2.0181
N12035 X-1.4056 Y-1.9626
N12040 X-1.4834 Y-1.8958
N12045 X-1.5524 Y-1.8199
N12050 X-1.6124 Y-1.7368
N12055 X-1.664 Y-1.6481
N12060 X-1.7077 Y-1.5554
N12065 X-1.7443 Y-1.4596
N12070 X-1.7747 Y-1.3616
N12075 X-1.7996 Y-1.2622
N12080 X-1.8198 Y-1.1616
N12085 X-1.8362 Y-1.0604
N12090 X-1.8494 Y-0.9587
N12095 X-1.8599 Y-0.8567
N12100 X-1.8682 Y-0.7545
N12105 X-1.8748 Y-0.6522
N12110 X-1.88 Y-0.5498
N12115 X-1.8841 Y-0.4473
N12120 X-1.8873 Y-0.3448
N12125 X-1.8898 Y-0.2423
N12130 X-1.8918 Y-0.1398
N12135 X-1.8933 Y-0.0372
N12140 X-1.8945 Y0.0653
N12145 X-1.8954 Y0.1678
N12150 X-1.8961 Y0.2704
N12155 X-1.8967 Y0.3729
N12160 X-1.8971 Y0.4755
N12165 X-1.8978 Y0.6806
N12170 X-1.8982 Y0.8856
N12175 X-1.8974 Y0.9882
N12180 X-1.8856 Y1.09
N12185 X-1.8595 Y1.1892
N12190 X-1.8192 Y1.2835
N12195 X-1.766 Y1.3712
N12200 X-1.7016 Y1.451
N12205 X-1.628 Y1.5224
N12210 X-1.5469 Y1.5852
N12215 X-1.46 Y1.6396
N12220 X-1.3686 Y1.6861
N12225 X-1.2739 Y1.7255
N12230 X-1.1768 Y1.7584
N12235 X-1.078 Y1.7857
N12240 X-0.9779 Y1.8081
N12245 X-0.877 Y1.8264
N12250 X-0.7755 Y1.8412
N12255 X-0.6737 Y1.8531
N12260 X-0.5716 Y1.8627
N12265 X-0.4693 Y1.8703
N12270 X-0.3669 Y1.8763
N12275 X-0.2645 Y1.8811
N12280 X-0.162 Y1.8849
N12285 X-0.0595 Y1.8879
N12290 X0.043 Y1.8903
N12295 X0.1455 Y1.8921
N12300 X0.248 Y1.8935
N12305 X0.3506 Y1.8947
N12310 X0.4531 Y1.8956
N12315 X0.5557 Y1.8963
N12320 X0.6582 Y1.8968
N12325 X0.7607 Y1.8972
N12330 X0.8633 Y1.8976
N12335 X0.9658 Y1.8974
N12340 X1.068 Y1.8884
N12345 X1.1679 Y1.8654
N12350 X1.2635 Y1.8282
N12355 X1.3527 Y1.7776
N12360 X1.4343 Y1.7155
N12365 X1.5075 Y1.6437
N12370 X1.5721 Y1.5641
N12375 X1.6283 Y1.4783
N12380 X1.6765 Y1.3878
N12385 X1.7174 Y1.2938
N12390 X1.7517 Y1.1971
N12395 X1.7802 Y1.0986
N12400 X1.8036 Y0.9988
N12405 X1.8228 Y0.898
N12410 X1.8383 Y0.7967
N12415 X1.8508 Y0.6949
N12420 X1.8608 Y0.5928
N12425 X1.8688 Y0.4906
N12430 X1.8752 Y0.3883
N12435 X1.8802 Y0.2859
N12440 X1.8842 Y0.1834
N12445 X1.8873 Y0.0809
N12450 X1.8898 Y-0.0216
N12455 X1.8917 Y-0.1242
N12460 X1.8933 Y-0.2267
N12465 X1.8945 Y-0.3292
N12470 X1.8954 Y-0.4318
N12475 X1.8961 Y-0.5343
N12480 X1.8967 Y-0.6368
N12485 X1.8971 Y-0.7394
N12490 X1.8978 Y-0.9445
N12495 X1.8915 Y-1.0468
N12500 X1.8717 Y-1.1474
N12505 X1.8374 Y-1.2441
N12510 X1.7895 Y-1.3347
N12515 X1.7296 Y-1.418
N12520 X1.6597 Y-1.493
N12525 X1.5816 Y-1.5594
N12530 X1.4969 Y-1.6173
N12535 X1.4073 Y-1.6672
N12540 X1.3139 Y-1.7095
N12545 X1.2177 Y-1.7451
N12550 X1.1196 Y-1.7747
N12555 X1.02 Y-1.7991
N12560 X0.9194 Y-1.8191
N12565 X0.8181 Y-1.8353
N12570 X0.7164 Y-1.8484
N12575 X0.6144 Y-1.8589
N12580 X0.5122 Y-1.8673
N12585 X0.4099 Y-1.874
N12590 X0.3075 Y-1.8793
N12595 X0.205 Y-1.8835
N12600 X0.1025 Y-1.8868
N12605 X0. Y-1.8894
N12610 X-0.1025 Y-1.8914
N12615 X-0.205 Y-1.893
N12620 X-0.3076 Y-1.8942
N12625 X-0.4101 Y-1.8952
N12630 X-0.5126 Y-1.896
N12635 X-0.6152 Y-1.8966
N12640 X-0.7177
N12645 X-0.82 Y-1.8891
N12650 X-0.9205 Y-1.8688
N12655 X-1.0173 Y-1.8349
N12660 X-1.1084 Y-1.7879
N12665 X-1.1926 Y-1.7293
N12670 X-1.2688 Y-1.6607
N12675 X-1.3367 Y-1.5839
N12680 X-1.3964 Y-1.5005
N12685 X-1.4481 Y-1.4119
N12690 X-1.4923 Y-1.3194
N12695 X-1.5298 Y-1.224
N12700 X-1.5612 Y-1.1264
N12705 X-1.5874 Y-1.0272
N12710 X-1.6089 Y-0.9269
N12715 X-1.6266 Y-0.8259
N12720 X-1.641 Y-0.7244
N12725 X-1.6526 Y-0.6225
N12730 X-1.662 Y-0.5204
N12735 X-1.6696 Y-0.4181
N12740 X-1.6756 Y-0.3158
N12745 X-1.6805 Y-0.2134
N12750 X-1.6843 Y-0.1109
N12755 X-1.6873 Y-0.0084
N12760 X-1.6897 Y0.0941
N12765 X-1.6916 Y0.1967
N12770 X-1.6931 Y0.2992
N12775 X-1.6943 Y0.4017
N12780 X-1.6953 Y0.5043
N12785 X-1.696 Y0.6068
N12790 X-1.6948 Y0.7094
N12795 X-1.6851 Y0.8114
N12800 X-1.6631 Y0.9116
N12805 X-1.628 Y1.0079
N12810 X-1.5804 Y1.0988
N12815 X-1.5215 Y1.1827
N12820 X-1.453 Y1.259
N12825 X-1.3764 Y1.3272
N12830 X-1.2933 Y1.3873
N12835 X-1.205 Y1.4395
N12840 X-1.1128 Y1.4844
N12845 X-1.0177 Y1.5225
N12850 X-0.9203 Y1.5547
N12855 X-0.8213 Y1.5815
N12860 X-0.7212 Y1.6038
N12865 X-0.6203 Y1.6221
N12870 X-0.5189 Y1.6371
N12875 X-0.4171 Y1.6494
N12880 X-0.315 Y1.6593
N12885 X-0.2128 Y1.6672
N12890 X-0.1104 Y1.6737
N12895 X-0.008 Y1.6788
N12900 X0.0944 Y1.6829
N12905 X0.1969 Y1.6862
N12910 X0.2994 Y1.6888
N12915 X0.402 Y1.6909
N12920 X0.5045 Y1.6926
N12925 X0.607 Y1.6938
N12930 X0.7096 Y1.6928
N12935 X0.8117 Y1.6833
N12940 X0.9119 Y1.6614
N12945 X1.0082 Y1.6263
N12950 X1.099 Y1.5787
N12955 X1.183 Y1.5199
N12960 X1.2592 Y1.4513
N12965 X1.3274 Y1.3747
N12970 X1.3874 Y1.2915
N12975 X1.4396 Y1.2032
N12980 X1.4845 Y1.111
N12985 X1.5226 Y1.0159
N12990 X1.5548 Y0.9185
N12995 X1.5817 Y0.8195
N13000 X1.6039 Y0.7194
N13005 X1.6223 Y0.6185
N13010 X1.6373 Y0.5171
N13015 X1.6495 Y0.4153
N13020 X1.6594 Y0.3132
N13025 X1.6673 Y0.211
N13030 X1.6737 Y0.1086
N13035 X1.6789 Y0.0062
N13040 X1.683 Y-0.0962
N13045 X1.6863 Y-0.1987
N13050 X1.6889 Y-0.3012
N13055 X1.6909 Y-0.4038
N13060 X1.6926 Y-0.5063
N13065 X1.6939 Y-0.6088
N13070 X1.6929 Y-0.7114
N13075 X1.6831 Y-0.8134
N13080 X1.661 Y-0.9136
N13085 X1.6257 Y-1.0099
N13090 X1.5779 Y-1.1006
N13095 X1.5189 Y-1.1844
N13100 X1.4501 Y-1.2605
N13105 X1.3733 Y-1.3285
N13110 X1.2901 Y-1.3883
N13115 X1.2017 Y-1.4404
N13120 X1.1095 Y-1.4851
N13125 X1.0142 Y-1.5232
N13130 X0.9168 Y-1.5552
N13135 X0.8178 Y-1.582
N13140 X0.7177 Y-1.6042
N13145 X0.6168 Y-1.6225
N13150 X0.5154 Y-1.6375
N13155 X0.4136 Y-1.6497
N13160 X0.3115 Y-1.6595
N13165 X0.2093 Y-1.6675
N13170 X0.1069 Y-1.6739
N13175 X0.0045 Y-1.679
N13180 X-0.098 Y-1.6831
N13185 X-0.2005 Y-1.6863
N13190 X-0.303 Y-1.6889
N13195 X-0.4055 Y-1.6907
N13200 X-0.508 Y-1.6884
N13205 X-0.6099 Y-1.6765
N13210 X-0.7095 Y-1.6525
N13215 X-0.8053 Y-1.6158
N13220 X-0.8954 Y-1.5668
N13225 X-0.9787 Y-1.507
N13230 X-1.0544 Y-1.4378
N13235 X-1.1221 Y-1.3609
N13240 X-1.1819 Y-1.2776
N13245 X-1.2341 Y-1.1893
N13250 X-1.279 Y-1.0971
N13255 X-1.3174 Y-1.002
N13260 X-1.3498 Y-0.9047
N13265 X-1.377 Y-0.8058
N13270 X-1.3996 Y-0.7058
N13275 X-1.4184 Y-0.605
N13280 X-1.4338 Y-0.5036
N13285 X-1.4464 Y-0.4019
N13290 X-1.4567 Y-0.2998
N13295 X-1.465 Y-0.1976
N13300 X-1.4718 Y-0.0953
N13305 X-1.4772 Y0.0071
N13310 X-1.4816 Y0.1095
N13315 X-1.485 Y0.212
N13320 X-1.4878 Y0.3145
N13325 X-1.4888 Y0.4171
N13330 X-1.484 Y0.5195
N13335 X-1.4691 Y0.621
N13340 X-1.4419 Y0.7198
N13345 X-1.4024 Y0.8145
N13350 X-1.3512 Y0.9033
N13355 X-1.2895 Y0.9852
N13360 X-1.219 Y1.0596
N13365 X-1.1409 Y1.1262
N13370 X-1.0569 Y1.1849
N13375 X-0.9681 Y1.2361
N13380 X-0.8755 Y1.2803
N13385 X-0.7802 Y1.3181
N13390 X-0.6827 Y1.35
N13395 X-0.5838 Y1.3769
N13400 X-0.4837 Y1.3993
N13405 X-0.3829 Y1.4179
N13410 X-0.2815 Y1.4332
N13415 X-0.1797 Y1.4458
N13420 X-0.0777 Y1.4561
N13425 X0.0245 Y1.4644
N13430 X0.1268 Y1.4712
N13435 X0.2292 Y1.4767
N13440 X0.3317 Y1.4809
N13445 X0.4342 Y1.4827
N13450 X0.5366 Y1.4772
N13455 X0.6378 Y1.4607
N13460 X0.7363 Y1.4319
N13465 X0.8301 Y1.3906
N13470 X0.9179 Y1.3377
N13475 X0.9987 Y1.2745
N13480 X1.0719 Y1.2027
N13485 X1.1372 Y1.1236
N13490 X1.1946 Y1.0387
N13495 X1.2446 Y0.9491
N13500 X1.2877 Y0.8561
N13505 X1.3244 Y0.7603
N13510 X1.3554 Y0.6626
N13515 X1.3814 Y0.5634
N13520 X1.4031 Y0.4632
N13525 X1.421 Y0.3622
N13530 X1.4358 Y0.2607
N13535 X1.4479 Y0.1589
N13540 X1.4578 Y0.0568
N13545 X1.4658 Y-0.0454
N13550 X1.4723 Y-0.1477
N13555 X1.4776 Y-0.2501
N13560 X1.4816 Y-0.3526
N13565 X1.4822 Y-0.4552
N13570 X1.4748 Y-0.5574
N13575 X1.4559 Y-0.6582
N13580 X1.4244 Y-0.7558
N13585 X1.3806 Y-0.8485
N13590 X1.3255 Y-0.935
N13595 X1.2605 Y-1.0143
N13600 X1.1871 Y-1.0859
N13605 X1.1067 Y-1.1495
N13610 X1.0207 Y-1.2054
N13615 X0.9303 Y-1.2539
N13620 X0.8367 Y-1.2956
N13625 X0.7405 Y-1.3312
N13630 X0.6424 Y-1.3611
N13635 X0.543 Y-1.3862
N13640 X0.4426 Y-1.4071
N13645 X0.3415 Y-1.4244
N13650 X0.2399 Y-1.4385
N13655 X0.1381 Y-1.4502
N13660 X0.036 Y-1.4596
N13665 X-0.0663 Y-1.4673
N13670 X-0.1687 Y-1.4725
N13675 X-0.2713 Y-1.4722
N13680 X-0.3733 Y-1.4622
N13685 X-0.4735 Y-1.4403
N13690 X-0.57 Y-1.4058
N13695 X-0.6614 Y-1.3593
N13700 X-0.7464 Y-1.3018
N13705 X-0.824 Y-1.2348
N13710 X-0.8939 Y-1.1598
N13715 X-0.956 Y-1.0782
N13720 X-1.0105 Y-0.9913
N13725 X-1.0578 Y-0.9004
N13730 X-1.0985 Y-0.8062
N13735 X-1.1331 Y-0.7097
N13740 X-1.1624 Y-0.6114
N13745 X-1.167 Y-0.5928
N13750 X-1.1921 Y-0.4867
N13755 X-1.2117 Y-0.3861
N13760 X-1.2279 Y-0.2848
N13765 X-1.2413 Y-0.1832
N13770 X-1.2523 Y-0.0812
N13775 X-1.2566 Y0.0212
N13780 X-1.2597 Y0.1237
N13785 X-1.2589 Y0.2263
N13790 X-1.2498 Y0.3284
N13795 X-1.2296 Y0.429
N13800 X-1.1974 Y0.5263
N13805 X-1.153 Y0.6187
N13810 X-1.0975 Y0.705
N13815 X-1.0813 Y0.7248
N13820 X-1.0093 Y0.8066
N13825 X-0.9337 Y0.8759
N13830 X-0.8517 Y0.9374
N13835 X-0.7645 Y0.9914
N13840 X-0.6733 Y1.0383
N13845 X-0.5791 Y1.0787
N13850 X-0.4825 Y1.1131
N13855 X-0.3842 Y1.1423
N13860 X-0.2846 Y1.1668
N13865 X-0.1841 Y1.1874
N13870 X-0.083 Y1.2044
N13875 X0.0186 Y1.2184
N13880 X0.1206 Y1.229
N13885 X0.223 Y1.2338
N13890 X0.3254 Y1.2289
N13895 X0.4265 Y1.2117
N13900 X0.5245 Y1.1816
N13905 X0.6177 Y1.1387
N13910 X0.6231 Y1.1353
N13915 X0.7096 Y1.0802
N13920 X0.789 Y1.0152
N13925 X0.8605 Y0.9418
N13930 X0.9242 Y0.8614
N13935 X0.9802 Y0.7755
N13940 X1.0289 Y0.6853
N13945 X1.0708 Y0.5917
N13950 X1.1066 Y0.4956
N13955 X1.1369 Y0.3976
N13960 X1.1624 Y0.2983
N13965 X1.1837 Y0.198
N13970 X1.2014 Y0.097
N13975 X1.216 Y-0.0045
N13980 X1.2274 Y-0.1064
N13985 X1.2335 Y-0.2088
N13990 X1.2301 Y-0.3113
N13995 X1.2149 Y-0.4127
N14000 X1.1864 Y-0.5112
N14005 X1.1453 Y-0.6051
N14010 X1.142 Y-0.6106
N14015 X1.0885 Y-0.6981
N14020 X1.0247 Y-0.7784
N14025 X0.9523 Y-0.851
N14030 X0.8728 Y-0.9157
N14035 X0.7875 Y-0.9728
N14040 X0.6978 Y-1.0224
N14045 X0.6046 Y-1.0652
N14050 X0.5088 Y-1.1018
N14055 X0.4111 Y-1.1329
N14060 X0.312 Y-1.159
N14065 X0.2117 Y-1.1808
N14070 X0.1107 Y-1.198
N14075 X0.0087 Y-1.2086
N14080 X-0.0939 Y-1.2091
N14085 X-0.1957 Y-1.1968
N14090 X-0.2949 Y-1.171
N14095 X-0.3898 Y-1.132
N14100 X-0.4787 Y-1.081
N14105 X-0.5606 Y-1.0193
N14110 X-0.6348 Y-0.9485
N14115 X-0.668 Y-0.9094
N14120 X-0.6758 Y-0.8992
N14125 X-0.6835 Y-0.889
N14130 G3 X-0.6923 Y-0.8793 Z0.8607 I-0.0781 J-0.0625
N14135 G2 X-0.7218 Y-0.8231 Z0.864 I0.0692 J0.0721
N14140 G1 X-0.7344 Y-0.7448 Z0.868
N14145 X-0.8034 Y-0.316
N14150 X-0.8156 Y-0.2403 Z0.8641
N14155 G2 X-0.8137 Y-0.1996 Z0.862 I0.0987 J0.0159
N14160 G1 Y-0.1995
N14165 G3 X-0.8081 Y-0.1607 Z0.86 I-0.1766 J0.0451
N14170 G1 Y-0.1543
N14175 X-0.8565 Y-0.0639
N14180 X-0.8643 Y-0.0395
N14185 X-0.866 Y-0.0333
N14190 X-0.8677 Y-0.0291 Z0.8603
N14195 X-0.8694 Y-0.0249 Z0.8611
N14200 X-0.8711 Y-0.0208 Z0.8624
N14205 X-0.8727 Y-0.0169 Z0.8642
N14210 X-0.8747 Y-0.0138 Z0.8664
N14215 X-0.8765 Y-0.0108 Z0.8689
N14220 X-0.8782 Y-0.0082 Z0.8718
N14225 X-0.8798 Y-0.0058 Z0.8751
N14230 X-0.8811 Y-0.0037 Z0.8786
N14235 X-0.8822 Y-0.002 Z0.8824
N14240 X-0.8832 Y-0.0007 Z0.8864
N14245 X-0.8839 Y0.0003 Z0.8906
N14250 X-0.8844 Y0.0008 Z0.8949
N14255 X-0.8845 Y0.001 Z0.8993
N14260 G0 Z1.7
N14265 X-2.102 Y-3.1416
N14270 Z0.9137
N14275 G1 Z0.8137 F40.
N14280 X-2.1019 Y-3.1413 Z0.8059
N14285 X-2.1017 Y-3.1404 Z0.7981
N14290 X-2.1013 Y-3.1389 Z0.7904
N14295 X-2.1008 Y-3.1369 Z0.7828
N14300 X-2.1001 Y-3.1342 Z0.7754
N14305 X-2.0993 Y-3.131 Z0.7683
N14310 X-2.0984 Y-3.1273 Z0.7615
N14315 X-2.0973 Y-3.1231 Z0.7549
N14320 X-2.0961 Y-3.1184 Z0.7488
N14325 X-2.0947 Y-3.1132 Z0.743
N14330 X-2.0933 Y-3.1076 Z0.7377
N14335 X-2.0918 Y-3.1017 Z0.7328
N14340 X-2.0902 Y-3.0953 Z0.7284
N14345 X-2.0885 Y-3.0887 Z0.7246
N14350 X-2.0867 Y-3.0818 Z0.7213
N14355 X-2.0849 Y-3.0747 Z0.7186
N14360 X-2.083 Y-3.0673 Z0.7165
N14365 X-2.0811 Y-3.0599 Z0.7149
N14370 X-2.0791 Y-3.0523 Z0.714
N14375 X-2.0772 Y-3.0447 Z0.7137
N14380 G3 X-1.9989 Y-2.5003 I-2.4731 J0.6335
N14385 G1 Y-2.4894
N14390 X-2.0603 Y-2.4073
N14395 X-2.1111 Y-2.3182
N14400 X-2.1525 Y-2.2244
N14405 X-2.1857 Y-2.1273
N14410 X-2.2119 Y-2.0282
N14415 X-2.2324 Y-1.9278
N14420 X-2.2483 Y-1.8264
N14425 X-2.2606 Y-1.7246
N14430 X-2.2699 Y-1.6225
N14435 X-2.2769 Y-1.5202
N14440 X-2.2823 Y-1.4178
N14445 X-2.2863 Y-1.3153
N14450 X-2.2893 Y-1.2128
N14455 X-2.2916 Y-1.1103
N14460 X-2.2933 Y-1.0078
N14465 X-2.2946 Y-0.9053
N14470 X-2.2955 Y-0.8027
N14475 X-2.2963 Y-0.7002
N14480 X-2.2968 Y-0.5976
N14485 X-2.2972 Y-0.4951
N14490 X-2.2978 Y-0.29
N14495 X-2.2982 Y0.0176
N14500 X-2.2985 Y0.5303
N14505 X-2.2988 Y1.5558
N14510 Y1.6583
N14515 X-2.2804 Y1.7592
N14520 X-2.2377 Y1.8524
N14525 X-2.1772 Y1.9352
N14530 X-2.1035 Y2.0065
N14535 X-2.0204 Y2.0667
N14540 X-1.9307 Y2.1164
N14545 X-1.8365 Y2.1567
N14550 X-1.7392 Y2.1891
N14555 X-1.6399 Y2.2146
N14560 X-1.5393 Y2.2346
N14565 X-1.4379 Y2.25
N14570 X-1.336 Y2.2618
N14575 X-1.2339 Y2.2709
N14580 X-1.1316 Y2.2777
N14585 X-1.0292 Y2.2829
N14590 X-0.9267 Y2.2868
N14595 X-0.8242 Y2.2897
N14600 X-0.7217 Y2.2919
N14605 X-0.6191 Y2.2936
N14610 X-0.5166 Y2.2948
N14615 X-0.4141 Y2.2957
N14620 X-0.3115 Y2.2964
N14625 X-0.209 Y2.2969
N14630 X-0.1064 Y2.2973
N14635 X0.0986 Y2.2979
N14640 X0.4063 Y2.2983
N14645 X0.919 Y2.2986
N14650 X1.4317 Y2.2988
N14655 X1.6368
N14660 X1.7386 Y2.2865
N14665 X1.8338 Y2.2483
N14670 X1.9188 Y2.191
N14675 X1.9926 Y2.1198
N14680 X2.055 Y2.0384
N14685 X2.1068 Y1.9499
N14690 X2.149 Y1.8565
N14695 X2.1829 Y1.7597
N14700 X2.2098 Y1.6607
N14705 X2.2308 Y1.5604
N14710 X2.2471 Y1.4591
N14715 X2.2596 Y1.3574
N14720 X2.2692 Y1.2553
N14725 X2.2764 Y1.153
N14730 X2.2819 Y1.0506
N14735 X2.2861 Y0.9481
N14740 X2.2892 Y0.8456
N14745 X2.2915 Y0.7431
N14750 X2.2932 Y0.6406
N14755 X2.2946 Y0.538
N14760 X2.2955 Y0.4355
N14765 X2.2963 Y0.333
N14770 X2.2968 Y0.2304
N14775 X2.2973 Y0.1279
N14780 X2.2978 Y-0.0772
N14785 X2.2983 Y-0.3848
N14790 X2.2986 Y-0.8976
N14795 X2.2987 Y-1.3077
N14800 X2.2988 Y-1.6154
N14805 X2.2931 Y-1.7178
N14810 X2.2596 Y-1.8147
N14815 X2.2059 Y-1.902
N14820 X2.1372 Y-1.9781
N14825 X2.0576 Y-2.0429
N14830 X1.9704 Y-2.0968
N14835 X1.8779 Y-2.1409
N14840 X1.7817 Y-2.1765
N14845 X1.6831 Y-2.2047
N14850 X1.583 Y-2.2268
N14855 X1.4819 Y-2.244
N14860 X1.3802 Y-2.2573
N14865 X1.2781 Y-2.2674
N14870 X1.1759 Y-2.2751
N14875 X1.0735 Y-2.2809
N14880 X0.9711 Y-2.2853
N14885 X0.8686 Y-2.2886
N14890 X0.7661 Y-2.2911
N14895 X0.6635 Y-2.2929
N14900 X0.561 Y-2.2943
N14905 X0.4585 Y-2.2954
N14910 X0.3559 Y-2.2961
N14915 X0.2534 Y-2.2967
N14920 X0.1508 Y-2.2972
N14925 X0.0483 Y-2.2975
N14930 X-0.1568 Y-2.298
N14935 X-0.4644 Y-2.2983
N14940 X-1.0797 Y-2.2987
N14945 X-1.1822
N14950 X-1.3873
N14955 X-1.4879 Y-2.2789
N14960 X-1.5823 Y-2.2388
N14965 X-1.6679 Y-2.1823
N14970 X-1.7437 Y-2.1132
N14975 X-1.8092 Y-2.0343
N14980 X-1.8649 Y-1.9482
N14985 X-1.9116 Y-1.8569
N14990 X-1.95 Y-1.7619
N14995 X-1.9814 Y-1.6642
N15000 X-2.0067 Y-1.5649
N15005 X-2.0269 Y-1.4643
N15010 X-2.0429 Y-1.3631
N15015 X-2.0555 Y-1.2613
N15020 X-2.0653 Y-1.1592
N15025 X-2.073 Y-1.0569
N15030 X-2.0789 Y-0.9546
N15035 X-2.0835 Y-0.8521
N15040 X-2.087 Y-0.7497
N15045 X-2.0897 Y-0.6471
N15050 X-2.0918 Y-0.5446
N15055 X-2.0933 Y-0.4421
N15060 X-2.0946 Y-0.3396
N15065 X-2.0955 Y-0.237
N15070 X-2.0962 Y-0.1345
N15075 X-2.0968 Y-0.0319
N15080 X-2.0972 Y0.0706
N15085 X-2.0978 Y0.2757
N15090 X-2.0983 Y0.5833
N15095 X-2.0986 Y1.0961
N15100 X-2.0987 Y1.3011
N15105 X-2.0829 Y1.4025
N15110 X-2.0498 Y1.4995
N15115 X-2.0012 Y1.5898
N15120 X-1.9394 Y1.6717
N15125 X-1.867 Y1.7443
N15130 X-1.7863 Y1.8075
N15135 X-1.6992 Y1.8617
N15140 X-1.6074 Y1.9074
N15145 X-1.5122 Y1.9454
N15150 X-1.4145 Y1.9767
N15155 X-1.3152 Y2.0021
N15160 X-1.2148 Y2.0227
N15165 X-1.1135 Y2.0391
N15170 X-1.0118 Y2.0522
N15175 X-0.9098 Y2.0625
N15180 X-0.8076 Y2.0706
N15185 X-0.7052 Y2.0769
N15190 X-0.6028 Y2.0819
N15195 X-0.5003 Y2.0857
N15200 X-0.3978 Y2.0887
N15205 X-0.2953 Y2.0909
N15210 X-0.1928 Y2.0927
N15215 X-0.0902 Y2.0941
N15220 X0.0123 Y2.0951
N15225 X0.1148 Y2.0959
N15230 X0.2174 Y2.0966
N15235 X0.3199 Y2.097
N15240 X0.4225 Y2.0974
N15245 X0.6275 Y2.0979
N15250 X0.9352 Y2.0984
N15255 X1.2428 Y2.0986
N15260 X1.3452 Y2.0929
N15265 X1.4451 Y2.0696
N15270 X1.5395 Y2.0295
N15275 X1.6263 Y1.9749
N15280 X1.7042 Y1.9083
N15285 X1.7727 Y1.832
N15290 X1.832 Y1.7483
N15295 X1.8824 Y1.659
N15300 X1.9246 Y1.5656
N15305 X1.9596 Y1.4692
N15310 X1.9883 Y1.3708
N15315 X2.0116 Y1.2709
N15320 X2.0303 Y1.1701
N15325 X2.0452 Y1.0686
N15330 X2.057 Y0.9668
N15335 X2.0663 Y0.8646
N15340 X2.0736 Y0.7623
N15345 X2.0792 Y0.66
N15350 X2.0837 Y0.5575
N15355 X2.0871 Y0.455
N15360 X2.0897 Y0.3525
N15365 X2.0918 Y0.25
N15370 X2.0933 Y0.1475
N15375 X2.0946 Y0.0449
N15380 X2.0955 Y-0.0576
N15385 X2.0962 Y-0.1602
N15390 X2.0968 Y-0.2627
N15395 X2.0972 Y-0.3652
N15400 X2.0978 Y-0.5703
N15405 X2.0983 Y-0.878
N15410 X2.0986 Y-1.2881
N15415 X2.0853 Y-1.3898
N15420 X2.0545 Y-1.4876
N15425 X2.0078 Y-1.5789
N15430 X1.9476 Y-1.6619
N15435 X1.8764 Y-1.7357
N15440 X1.7966 Y-1.8001
N15445 X1.7102 Y-1.8554
N15450 X1.6189 Y-1.9021
N15455 X1.5241 Y-1.9411
N15460 X1.4267 Y-1.9732
N15465 X1.3275 Y-1.9993
N15470 X1.2272 Y-2.0205
N15475 X1.126 Y-2.0374
N15480 X1.0244 Y-2.0508
N15485 X0.9224 Y-2.0614
N15490 X0.8202 Y-2.0697
N15495 X0.7179 Y-2.0763
N15500 X0.6154 Y-2.0813
N15505 X0.513 Y-2.0853
N15510 X0.4105 Y-2.0883
N15515 X0.308 Y-2.0907
N15520 X0.2054 Y-2.0925
N15525 X0.1029 Y-2.0939
N15530 X0.0004 Y-2.095
N15535 X-0.1022 Y-2.0958
N15540 X-0.2047 Y-2.0965
N15545 X-0.3073 Y-2.097
N15550 X-0.4098 Y-2.0974
N15555 X-0.6149 Y-2.0979
N15560 X-0.9225 Y-2.0984
N15565 X-1.0251 Y-2.0985
N15570 X-1.127 Y-2.0873
N15575 X-1.2259 Y-2.0603
N15580 X-1.3194 Y-2.0181
N15585 X-1.4056 Y-1.9626
N15590 X-1.4834 Y-1.8958
N15595 X-1.5524 Y-1.8199
N15600 X-1.6124 Y-1.7368
N15605 X-1.664 Y-1.6481
N15610 X-1.7077 Y-1.5554
N15615 X-1.7443 Y-1.4596
N15620 X-1.7747 Y-1.3616
N15625 X-1.7996 Y-1.2622
N15630 X-1.8198 Y-1.1616
N15635 X-1.8362 Y-1.0604
N15640 X-1.8494 Y-0.9587
N15645 X-1.8599 Y-0.8567
N15650 X-1.8682 Y-0.7545
N15655 X-1.8748 Y-0.6522
N15660 X-1.88 Y-0.5498
N15665 X-1.8841 Y-0.4473
N15670 X-1.8873 Y-0.3448
N15675 X-1.8898 Y-0.2423
N15680 X-1.8918 Y-0.1398
N15685 X-1.8933 Y-0.0372
N15690 X-1.8945 Y0.0653
N15695 X-1.8954 Y0.1678
N15700 X-1.8961 Y0.2704
N15705 X-1.8967 Y0.3729
N15710 X-1.8971 Y0.4755
N15715 X-1.8978 Y0.6806
N15720 X-1.8982 Y0.8856
N15725 X-1.8974 Y0.9882
N15730 X-1.8856 Y1.09
N15735 X-1.8595 Y1.1892
N15740 X-1.8192 Y1.2835
N15745 X-1.766 Y1.3712
N15750 X-1.7016 Y1.451
N15755 X-1.628 Y1.5224
N15760 X-1.5469 Y1.5852
N15765 X-1.46 Y1.6396
N15770 X-1.3686 Y1.6861
N15775 X-1.2739 Y1.7255
N15780 X-1.1768 Y1.7584
N15785 X-1.078 Y1.7857
N15790 X-0.9779 Y1.8081
N15795 X-0.877 Y1.8264
N15800 X-0.7755 Y1.8412
N15805 X-0.6737 Y1.8531
N15810 X-0.5716 Y1.8627
N15815 X-0.4693 Y1.8703
N15820 X-0.3669 Y1.8763
N15825 X-0.2645 Y1.8811
N15830 X-0.162 Y1.8849
N15835 X-0.0595 Y1.8879
N15840 X0.043 Y1.8903
N15845 X0.1455 Y1.8921
N15850 X0.248 Y1.8935
N15855 X0.3506 Y1.8947
N15860 X0.4531 Y1.8956
N15865 X0.5557 Y1.8963
N15870 X0.6582 Y1.8968
N15875 X0.7607 Y1.8972
N15880 X0.8633 Y1.8976
N15885 X0.9658 Y1.8974
N15890 X1.068 Y1.8884
N15895 X1.1679 Y1.8654
N15900 X1.2635 Y1.8282
N15905 X1.3527 Y1.7776
N15910 X1.4343 Y1.7155
N15915 X1.5075 Y1.6437
N15920 X1.5721 Y1.5641
N15925 X1.6283 Y1.4783
N15930 X1.6765 Y1.3878
N15935 X1.7174 Y1.2938
N15940 X1.7517 Y1.1971
N15945 X1.7802 Y1.0986
N15950 X1.8036 Y0.9988
N15955 X1.8228 Y0.898
N15960 X1.8383 Y0.7967
N15965 X1.8508 Y0.6949
N15970 X1.8608 Y0.5928
N15975 X1.8688 Y0.4906
N15980 X1.8752 Y0.3883
N15985 X1.8802 Y0.2859
N15990 X1.8842 Y0.1834
N15995 X1.8873 Y0.0809
N16000 X1.8898 Y-0.0216
N16005 X1.8917 Y-0.1242
N16010 X1.8933 Y-0.2267
N16015 X1.8945 Y-0.3292
N16020 X1.8954 Y-0.4318
N16025 X1.8961 Y-0.5343
N16030 X1.8967 Y-0.6368
N16035 X1.8971 Y-0.7394
N16040 X1.8978 Y-0.9445
N16045 X1.8915 Y-1.0468
N16050 X1.8717 Y-1.1474
N16055 X1.8374 Y-1.2441
N16060 X1.7895 Y-1.3347
N16065 X1.7296 Y-1.418
N16070 X1.6597 Y-1.493
N16075 X1.5816 Y-1.5594
N16080 X1.4969 Y-1.6173
N16085 X1.4073 Y-1.6672
N16090 X1.3139 Y-1.7095
N16095 X1.2177 Y-1.7451
N16100 X1.1196 Y-1.7747
N16105 X1.02 Y-1.7991
N16110 X0.9194 Y-1.8191
N16115 X0.8181 Y-1.8353
N16120 X0.7164 Y-1.8484
N16125 X0.6144 Y-1.8589
N16130 X0.5122 Y-1.8673
N16135 X0.4099 Y-1.874
N16140 X0.3075 Y-1.8793
N16145 X0.205 Y-1.8835
N16150 X0.1025 Y-1.8868
N16155 X0. Y-1.8894
N16160 X-0.1025 Y-1.8914
N16165 X-0.205 Y-1.893
N16170 X-0.3076 Y-1.8942
N16175 X-0.4101 Y-1.8952
N16180 X-0.5126 Y-1.896
N16185 X-0.6152 Y-1.8966
N16190 X-0.7177
N16195 X-0.82 Y-1.8891
N16200 X-0.9205 Y-1.8688
N16205 X-1.0173 Y-1.8349
N16210 X-1.1084 Y-1.7879
N16215 X-1.1926 Y-1.7293
N16220 X-1.2688 Y-1.6607
N16225 X-1.3367 Y-1.5839
N16230 X-1.3964 Y-1.5005
N16235 X-1.4481 Y-1.4119
N16240 X-1.4923 Y-1.3194
N16245 X-1.5298 Y-1.224
N16250 X-1.5612 Y-1.1264
N16255 X-1.5874 Y-1.0272
N16260 X-1.6089 Y-0.9269
N16265 X-1.6266 Y-0.8259
N16270 X-1.641 Y-0.7244
N16275 X-1.6526 Y-0.6225
N16280 X-1.662 Y-0.5204
N16285 X-1.6696 Y-0.4181
N16290 X-1.6756 Y-0.3158
N16295 X-1.6805 Y-0.2134
N16300 X-1.6843 Y-0.1109
N16305 X-1.6873 Y-0.0084
N16310 X-1.6897 Y0.0941
N16315 X-1.6916 Y0.1967
N16320 X-1.6931 Y0.2992
N16325 X-1.6943 Y0.4017
N16330 X-1.6953 Y0.5043
N16335 X-1.696 Y0.6068
N16340 X-1.6948 Y0.7094
N16345 X-1.6851 Y0.8114
N16350 X-1.6631 Y0.9116
N16355 X-1.628 Y1.0079
N16360 X-1.5804 Y1.0988
N16365 X-1.5215 Y1.1827
N16370 X-1.453 Y1.259
N16375 X-1.3764 Y1.3272
N16380 X-1.2933 Y1.3873
N16385 X-1.205 Y1.4395
N16390 X-1.1128 Y1.4844
N16395 X-1.0177 Y1.5225
N16400 X-0.9203 Y1.5547
N16405 X-0.8213 Y1.5815
N16410 X-0.7212 Y1.6038
N16415 X-0.6203 Y1.6221
N16420 X-0.5189 Y1.6371
N16425 X-0.4171 Y1.6494
N16430 X-0.315 Y1.6593
N16435 X-0.2128 Y1.6672
N16440 X-0.1104 Y1.6737
N16445 X-0.008 Y1.6788
N16450 X0.0944 Y1.6829
N16455 X0.1969 Y1.6862
N16460 X0.2994 Y1.6888
N16465 X0.402 Y1.6909
N16470 X0.5045 Y1.6926
N16475 X0.607 Y1.6938
N16480 X0.7096 Y1.6928
N16485 X0.8117 Y1.6833
N16490 X0.9119 Y1.6614
N16495 X1.0082 Y1.6263
N16500 X1.099 Y1.5787
N16505 X1.183 Y1.5199
N16510 X1.2592 Y1.4513
N16515 X1.3274 Y1.3747
N16520 X1.3874 Y1.2915
N16525 X1.4396 Y1.2032
N16530 X1.4845 Y1.111
N16535 X1.5226 Y1.0159
N16540 X1.5548 Y0.9185
N16545 X1.5817 Y0.8195
N16550 X1.6039 Y0.7194
N16555 X1.6223 Y0.6185
N16560 X1.6373 Y0.5171
N16565 X1.6495 Y0.4153
N16570 X1.6594 Y0.3132
N16575 X1.6673 Y0.211
N16580 X1.6737 Y0.1086
N16585 X1.6789 Y0.0062
N16590 X1.683 Y-0.0962
N16595 X1.6863 Y-0.1987
N16600 X1.6889 Y-0.3012
N16605 X1.6909 Y-0.4038
N16610 X1.6926 Y-0.5063
N16615 X1.6939 Y-0.6088
N16620 X1.6929 Y-0.7114
N16625 X1.6831 Y-0.8134
N16630 X1.661 Y-0.9136
N16635 X1.6257 Y-1.0099
N16640 X1.5779 Y-1.1006
N16645 X1.5189 Y-1.1844
N16650 X1.4501 Y-1.2605
N16655 X1.3733 Y-1.3285
N16660 X1.2901 Y-1.3883
N16665 X1.2017 Y-1.4404
N16670 X1.1095 Y-1.4851
N16675 X1.0142 Y-1.5232
N16680 X0.9168 Y-1.5552
N16685 X0.8178 Y-1.582
N16690 X0.7177 Y-1.6042
N16695 X0.6168 Y-1.6225
N16700 X0.5154 Y-1.6375
N16705 X0.4136 Y-1.6497
N16710 X0.3115 Y-1.6595
N16715 X0.2093 Y-1.6675
N16720 X0.1069 Y-1.6739
N16725 X0.0045 Y-1.679
N16730 X-0.098 Y-1.6831
N16735 X-0.2005 Y-1.6863
N16740 X-0.303 Y-1.6889
N16745 X-0.4055 Y-1.6907
N16750 X-0.508 Y-1.6884
N16755 X-0.6099 Y-1.6765
N16760 X-0.7095 Y-1.6525
N16765 X-0.8053 Y-1.6158
N16770 X-0.8954 Y-1.5668
N16775 X-0.9787 Y-1.507
N16780 X-1.0544 Y-1.4378
N16785 X-1.1221 Y-1.3609
N16790 X-1.1819 Y-1.2776
N16795 X-1.2341 Y-1.1893
N16800 X-1.279 Y-1.0971
N16805 X-1.3174 Y-1.002
N16810 X-1.3498 Y-0.9047
N16815 X-1.377 Y-0.8058
N16820 X-1.4005 Y-0.7021
N16825 X-1.4017 Y-0.6986
N16830 X-1.4033 Y-0.6951
N16835 X-1.4224 Y-0.6577
N16840 X-1.4358 Y-0.6278
N16845 X-1.4489 Y-0.5979
N16850 X-1.46 Y-0.568
N16855 X-1.4805 Y-0.5082
N16860 X-1.5006 Y-0.4485
N16865 X-1.5098 Y-0.4186
N16870 X-1.5241 Y-0.3681
N16875 X-1.5263 Y-0.3588
N16880 X-1.5373 Y-0.299
N16885 X-1.542 Y-0.2692
N16890 X-1.5465 Y-0.2393
N16895 X-1.551 Y-0.2094
N16900 X-1.5593 Y-0.1496
N16905 X-1.5623 Y-0.1197
N16910 X-1.5649 Y-0.0898
N16915 X-1.5662 Y-0.0599
N16920 X-1.5653 Y-0.0002
N16925 X-1.5626 Y0.0895
N16930 X-1.5616 Y0.1194
N16935 X-1.5604 Y0.1493
N16940 X-1.5533 Y0.209
N16945 X-1.5481 Y0.2389
N16950 X-1.534 Y0.3405
N16955 X-1.523 Y0.4424
N16960 X-1.5093 Y0.5441
N16965 X-1.4872 Y0.6442
N16970 X-1.4542 Y0.7413
N16975 X-1.4101 Y0.8339
N16980 X-1.3552 Y0.9205
N16985 X-1.2907 Y1.0002
N16990 X-1.218 Y1.0725
N16995 X-1.1383 Y1.1371
N17000 X-1.0531 Y1.194
N17005 X-0.9633 Y1.2437
N17010 X-0.9399 Y1.2545
N17015 X-0.932 Y1.2585
N17020 X-0.9243 Y1.263
N17025 X-0.9169 Y1.2681
N17030 X-0.8667 Y1.3052
N17035 X-0.8522 Y1.3149
N17040 X-0.8056 Y1.3447
N17045 X-0.777 Y1.3603
N17050 X-0.7471 Y1.3757
N17055 X-0.7172 Y1.3907
N17060 X-0.6575 Y1.4206
N17065 X-0.6276 Y1.435
N17070 X-0.5977 Y1.4493
N17075 X-0.5678 Y1.4612
N17080 X-0.5379 Y1.4715
N17085 X-0.508 Y1.4817
N17090 X-0.4483 Y1.4995
N17095 X-0.3885 Y1.517
N17100 X-0.3645 Y1.5241
N17105 X-0.3586 Y1.5257
N17110 X-0.2988 Y1.5385
N17115 X-0.269 Y1.5435
N17120 X-0.2391 Y1.548
N17125 X-0.2092 Y1.552
N17130 X-0.1494 Y1.5583
N17135 X-0.0896 Y1.5642
N17140 X-0.0598 Y1.5662
N17145 X0. Y1.5675
N17150 X0.0598 Y1.5649
N17155 X0.0897 Y1.5631
N17160 X0.1494 Y1.5585
N17165 X0.2092 Y1.5528
N17170 X0.2391 Y1.5488
N17175 X0.269 Y1.5441
N17180 X0.3707 Y1.5308
N17185 X0.4726 Y1.5194
N17190 X0.5738 Y1.5033
N17195 X0.6732 Y1.4779
N17200 X0.7691 Y1.4416
N17205 X0.8599 Y1.3941
N17210 X0.9446 Y1.3362
N17215 X1.0222 Y1.2692
N17220 X1.0923 Y1.1943
N17225 X1.1546 Y1.1129
N17230 X1.2094 Y1.0262
N17235 X1.2551 Y0.9392
N17240 X1.2575 Y0.9347
N17245 X1.2602 Y0.9304
N17250 X1.263 Y0.9261
N17255 X1.3038 Y0.8665
N17260 X1.315 Y0.8498
N17265 X1.3449 Y0.8047
N17270 X1.3613 Y0.7769
N17275 X1.3782 Y0.747
N17280 X1.3934 Y0.7171
N17285 X1.4208 Y0.6573
N17290 X1.4475 Y0.5976
N17295 X1.4601 Y0.5677
N17300 X1.4831 Y0.5079
N17305 X1.5011 Y0.4481
N17310 X1.509 Y0.4182
N17315 X1.5242 Y0.3561
N17320 X1.5375 Y0.2987
N17325 X1.5435 Y0.2688
N17330 X1.5491 Y0.2389
N17335 X1.5537 Y0.209
N17340 X1.5585 Y0.1493
N17345 X1.5621 Y0.0895
N17350 X1.5638 Y0.0596
N17355 X1.5671 Y-0.0002
N17360 X1.5668 Y-0.0301
N17365 X1.5664 Y-0.0599
N17370 X1.5643 Y-0.0898
N17375 X1.5613 Y-0.1197
N17380 X1.5581 Y-0.1496
N17385 X1.5509 Y-0.2094
N17390 X1.5434 Y-0.2692
N17395 X1.5389 Y-0.299
N17400 X1.5236 Y-0.4004
N17405 X1.5124 Y-0.5024
N17410 X1.4945 Y-0.6033
N17415 X1.4664 Y-0.702
N17420 X1.4269 Y-0.7966
N17425 X1.3765 Y-0.8859
N17430 X1.3159 Y-0.9686
N17435 X1.2463 Y-1.044
N17440 X1.1694 Y-1.1117
N17445 X1.0862 Y-1.1718
N17450 X0.9982 Y-1.2244
N17455 X0.9526 Y-1.247
N17460 X0.9479 Y-1.2495
N17465 X0.9434 Y-1.2523
N17470 X0.9391 Y-1.2554
N17475 X0.8945 Y-1.2853
N17480 X0.8667 Y-1.3036
N17485 X0.7996 Y-1.3451
N17490 X0.7471 Y-1.3772
N17495 X0.7173 Y-1.3939
N17500 X0.6575 Y-1.4221
N17505 X0.6265 Y-1.4347
N17510 X0.5977 Y-1.4464
N17515 X0.5678 Y-1.4583
N17520 X0.5081 Y-1.4817
N17525 X0.4483 Y-1.5019
N17530 X0.4184 Y-1.5104
N17535 X0.3885 Y-1.5177
N17540 X0.3601 Y-1.5244
N17545 X0.2989 Y-1.5365
N17550 X0.2391 Y-1.5481
N17555 X0.2092 Y-1.5533
N17560 X0.1494 Y-1.5601
N17565 X0.1196 Y-1.562
N17570 X0.0897 Y-1.5636
N17575 X0.0598 Y-1.5647
N17580 X0. Y-1.5656
N17585 X-0.0598 Y-1.5657
N17590 X-0.0896 Y-1.5647
N17595 X-0.1195 Y-1.5628
N17600 X-0.1494 Y-1.5604
N17605 X-0.2092 Y-1.5518
N17610 X-0.2391 Y-1.547
N17615 X-0.269 Y-1.5421
N17620 X-0.2988 Y-1.5369
N17625 X-0.3586 Y-1.5254
N17630 X-0.3636 Y-1.5244
N17635 X-0.4184 Y-1.5105
N17640 X-0.4483 Y-1.5015
N17645 X-0.508 Y-1.4804
N17650 X-0.5678 Y-1.4589
N17655 X-0.5977 Y-1.4477
N17660 X-0.6302 Y-1.4347
N17665 X-0.6575 Y-1.4234
N17670 X-0.7172 Y-1.392
N17675 X-0.7474 Y-1.375
N17680 X-0.8667 Y-1.306
N17685 X-0.8965 Y-1.2849
N17690 X-0.9371 Y-1.2554
N17695 X-0.9563 Y-1.2404
N17700 X-0.9742 Y-1.2255
N17705 X-1.0161 Y-1.1903
N17710 X-1.046 Y-1.165
N17715 X-1.0797 Y-1.1359
N17720 X-1.1057 Y-1.1111
N17725 X-1.1108 Y-1.106
N17730 X-1.1356 Y-1.08
N17735 X-1.1655 Y-1.0467
N17740 X-1.1954 Y-1.0108
N17745 X-1.24 Y-0.9565
N17750 X-1.2552 Y-0.9373
N17755 X-1.2851 Y-0.896
N17760 X-1.3059 Y-0.8669
N17765 X-1.3448 Y-0.8023
N17770 X-1.3589 Y-0.7772
N17775 X-1.3756 Y-0.7473
N17780 X-1.3919 Y-0.7175
N17785 X-1.4033 Y-0.6951
N17790 X-1.4041 Y-0.694 Z0.7138
N17795 X-1.4053 Y-0.6933 Z0.7139
N17800 G2 X-1.5346 Y-0.6101 Z0.7217 I0.2384 J0.5131
N17805 X-1.5998 Y-0.5445 I0.3677 J0.43
N17810 X-1.6221 Y-0.4954 I0.0765 J0.0644
N17815 G1 X-1.6962 Y-0.0176
N17820 G2 X-1.6898 Y0.0359 I0.0988 J0.0153
N17825 X-1.6476 Y0.1182 I0.5229 J-0.2161
N17830 X-1.5494 Y0.2367 Z0.7138 I0.4807 J-0.2984
N17835 G1 X-1.5486 Y0.2377
N17840 X-1.5481 Y0.2389 Z0.7137
N17845 X-1.5424 Y0.2688
N17850 X-1.5365 Y0.2987
N17855 X-1.5238 Y0.3585
N17860 X-1.5171 Y0.3884
N17865 X-1.5102 Y0.4182
N17870 X-1.5022 Y0.4481
N17875 X-1.4824 Y0.5079
N17880 X-1.4588 Y0.5677
N17885 X-1.4468 Y0.5976
N17890 X-1.4345 Y0.6276
N17895 X-1.4221 Y0.6573
N17900 X-1.3934 Y0.7171
N17905 X-1.3778 Y0.747
N17910 X-1.3602 Y0.7769
N17915 X-1.3448 Y0.8026
N17920 X-1.304 Y0.8665
N17925 X-1.2837 Y0.8964
N17930 X-1.2552 Y0.938
N17935 X-1.2421 Y0.9562
N17940 X-1.2253 Y0.9773
N17945 X-1.1954 Y1.0127
N17950 X-1.1925 Y1.016
N17955 X-1.1356 Y1.0773
N17960 X-1.1057 Y1.1089
N17965 X-1.0797 Y1.1355
N17970 X-1.0489 Y1.1654
N17975 X-1.0161 Y1.1937
N17980 X-0.9563 Y1.2388
N17985 X-0.9189 Y1.2666
N17990 X-0.9169 Y1.2681
N17995 X-0.916 Y1.2691 Z0.7138
N18000 X-0.9154 Y1.2703 Z0.7139
N18005 G2 X-0.858 Y1.4131 Z0.7217 I0.6661 J-0.1849
N18010 X-0.7749 Y1.5345 I0.6087 J-0.3277
N18015 X-0.7215 Y1.5669 I0.076 J-0.065
N18020 G1 X-0.0383 Y1.726
N18025 G2 X0.0238 Y1.7205 I0.0227 J-0.0974
N18030 X0.152 Y1.6483 I-0.2732 J-0.6351
N18035 X0.2666 Y1.5455 Z0.7139 I-0.4014 J-0.5629
N18040 G1 X0.2677 Y1.5446 Z0.7138
N18045 X0.269 Y1.5441 Z0.7137
N18050 X0.2989 Y1.5387
N18055 X0.3287 Y1.5314
N18060 X0.3586 Y1.524
N18065 X0.4184 Y1.5084
N18070 X0.4483 Y1.5003
N18075 X0.5081 Y1.4829
N18080 X0.5577 Y1.4643
N18085 X0.5678 Y1.4605
N18090 X0.5977 Y1.4476
N18095 X0.6575 Y1.4199
N18100 X0.7173 Y1.3919
N18105 X0.7471 Y1.3775
N18110 X0.777 Y1.3613
N18115 X0.8056 Y1.3447
N18120 X0.8501 Y1.3149
N18125 X0.8667 Y1.3035
N18130 X0.9563 Y1.2404
N18135 X0.9767 Y1.2252
N18140 X1.0161 Y1.1943
N18145 X1.0473 Y1.1654
N18150 X1.078 Y1.1355
N18155 X1.1079 Y1.1056
N18160 X1.1655 Y1.047
N18165 X1.1943 Y1.016
N18170 X1.2253 Y0.9771
N18175 X1.2416 Y0.9562
N18180 X1.2552 Y0.9374
N18185 X1.263 Y0.9261
N18190 X1.264 Y0.9251 Z0.7138
N18195 X1.2652 Y0.9245 Z0.7139
N18200 G2 X1.4062 Y0.8627 Z0.7217 I-0.2187 J-0.6909
N18205 X1.5367 Y0.7673 I-0.3597 J-0.6291
N18210 X1.5666 Y0.7157 I-0.0676 J-0.0736
N18215 G1 X1.723 Y0.0209
N18220 G2 X1.7181 Y-0.0386 I-0.0976 J-0.022
N18225 X1.6412 Y-0.1805 I-0.6717 J0.2722
N18230 X1.5402 Y-0.2969 Z0.7138 I-0.5948 J0.4141
N18235 G1 X1.5394 Y-0.2979
N18240 X1.5389 Y-0.299 Z0.7137
N18245 X1.5255 Y-0.3588
N18250 X1.5242 Y-0.3637
N18255 X1.5085 Y-0.4186
N18260 X1.4997 Y-0.4485
N18265 X1.4812 Y-0.5082
N18270 X1.4607 Y-0.568
N18275 X1.4489 Y-0.5979
N18280 X1.4345 Y-0.6305
N18285 X1.4221 Y-0.6577
N18290 X1.3913 Y-0.7175
N18295 X1.3747 Y-0.7492
N18300 X1.3599 Y-0.7772
N18305 X1.3449 Y-0.805
N18310 X1.3064 Y-0.8669
N18315 X1.2842 Y-0.8968
N18320 X1.2552 Y-0.9354
N18325 X1.2391 Y-0.9565
N18330 X1.1925 Y-1.0163
N18335 X1.1655 Y-1.0478
N18340 X1.1357 Y-1.0808
N18345 X1.11 Y-1.106
N18350 X1.1058 Y-1.1099
N18355 X1.0759 Y-1.1373
N18360 X1.0161 Y-1.1911
N18365 X0.9761 Y-1.2255
N18370 X0.9563 Y-1.2422
N18375 X0.9391 Y-1.2554
N18380 X0.9358 Y-1.2586 Z0.714
N18385 X0.9326 Y-1.2618 Z0.7148
N18390 X0.9295 Y-1.2649 Z0.7161
N18395 X0.9265 Y-1.2678 Z0.7179
N18400 X0.9243 Y-1.2709 Z0.7201
N18405 X0.9223 Y-1.2737 Z0.7226
N18410 X0.9205 Y-1.2763 Z0.7256
N18415 X0.9188 Y-1.2786 Z0.7288
N18420 X0.9174 Y-1.2806 Z0.7323
N18425 X0.9162 Y-1.2823 Z0.7361
N18430 X0.9154 Y-1.2837 Z0.7401
N18435 X0.9148 Y-1.2848 Z0.7443
N18440 X0.9145 Y-1.2854 Z0.7486
N18445 X0.9144 Y-1.2856 Z0.753
N18450 G0 Z1.7
N18455 X-1.108 Y-1.8496
N18460 Z0.9537
N18465 G1 Z0.8537 F40.
N18470 X-1.1079 Y-1.8493 Z0.8459
N18475 X-1.1076 Y-1.8484 Z0.8381
N18480 X-1.1073 Y-1.847 Z0.8304
N18485 X-1.1067 Y-1.8449 Z0.8228
N18490 X-1.1061 Y-1.8423 Z0.8154
N18495 X-1.1052 Y-1.8391 Z0.8083
N18500 X-1.1043 Y-1.8354 Z0.8015
N18505 X-1.1032 Y-1.8311 Z0.7949
N18510 X-1.102 Y-1.8264 Z0.7888
N18515 X-1.1007 Y-1.8213 Z0.783
N18520 X-1.0993 Y-1.8157 Z0.7777
N18525 X-1.0977 Y-1.8097 Z0.7728
N18530 X-1.0961 Y-1.8034 Z0.7684
N18535 X-1.0944 Y-1.7967 Z0.7646
N18540 X-1.0926 Y-1.7898 Z0.7613
N18545 X-1.0908 Y-1.7827 Z0.7586
N18550 X-1.0889 Y-1.7754 Z0.7565
N18555 X-1.087 Y-1.7679 Z0.7549
N18560 X-1.0851 Y-1.7604 Z0.754
N18565 X-1.0831 Y-1.7528 Z0.7537
N18570 G3 X-1.0048 Y-1.2084 I-2.4731 J0.6335
N18575 G1 Y-1.1902
N18580 X-1.0081 Y-1.1724
N18585 X-1.0139 Y-1.1553
N18590 X-1.0223 Y-1.1392
N18595 X-1.0329 Y-1.1246
N18600 X-1.0456 Y-1.1117
N18605 X-1.0759 Y-1.0853
N18610 X-1.0851 Y-1.0761
N18615 X-1.1119 Y-1.0462
N18620 X-1.1385 Y-1.0163
N18625 X-1.2122 Y-0.9267
N18630 X-1.2253 Y-0.9106
N18635 X-1.2364 Y-0.8968
N18640 X-1.2552 Y-0.8714
N18645 X-1.2954 Y-0.8071
N18650 X-1.3126 Y-0.7772
N18655 X-1.3458 Y-0.7175
N18660 X-1.3787 Y-0.6577
N18665 X-1.3922 Y-0.6278
N18670 X-1.4053 Y-0.5979
N18675 X-1.4171 Y-0.568
N18680 X-1.4377 Y-0.5082
N18685 X-1.4581 Y-0.4485
N18690 X-1.4644 Y-0.4298
N18695 X-1.4767 Y-0.3887
N18700 X-1.4852 Y-0.3588
N18705 X-1.4966 Y-0.299
N18710 X-1.5013 Y-0.2692
N18715 X-1.5103 Y-0.2094
N18720 X-1.5191 Y-0.1496
N18725 X-1.523 Y-0.1197
N18730 X-1.5252 Y-0.0898
N18735 X-1.5261 Y-0.0599
N18740 X-1.5252 Y-0.0002
N18745 X-1.5225 Y0.0895
N18750 X-1.5215 Y0.1194
N18755 X-1.5202 Y0.1493
N18760 X-1.5129 Y0.209
N18765 X-1.5074 Y0.2389
N18770 X-1.5014 Y0.2688
N18775 X-1.4943 Y0.3037
N18780 X-1.4826 Y0.3585
N18785 X-1.4757 Y0.3884
N18790 X-1.4644 Y0.4369
N18795 X-1.4509 Y0.478
N18800 X-1.4398 Y0.5079
N18805 X-1.3785 Y0.6573
N18810 X-1.3747 Y0.6654
N18815 X-1.3489 Y0.7171
N18820 X-1.3448 Y0.7249
N18825 X-1.3129 Y0.7769
N18830 X-1.2941 Y0.8068
N18835 X-1.2552 Y0.8677
N18840 X-1.2364 Y0.8964
N18845 X-1.2253 Y0.9122
N18850 X-1.2148 Y0.9263
N18855 X-1.1954 Y0.951
N18860 X-1.1649 Y0.9861
N18865 X-1.1356 Y1.0179
N18870 X-1.0759 Y1.0823
N18875 X-1.0526 Y1.1056
N18880 X-1.0161 Y1.1414
N18885 X-0.9862 Y1.1659
N18890 X-0.9473 Y1.1953
N18895 X-0.8675 Y1.2551
N18900 X-0.8069 Y1.2971
N18905 X-0.7765 Y1.3149
N18910 X-0.7471 Y1.3304
N18915 X-0.7172 Y1.3459
N18920 X-0.6575 Y1.3758
N18925 X-0.5977 Y1.405
N18930 X-0.5678 Y1.4182
N18935 X-0.5232 Y1.4344
N18940 X-0.508 Y1.4399
N18945 X-0.4782 Y1.4488
N18950 X-0.3885 Y1.475
N18955 X-0.3586 Y1.4836
N18960 X-0.2988 Y1.4981
N18965 X-0.269 Y1.5032
N18970 X-0.2391 Y1.5074
N18975 X-0.2092 Y1.5113
N18980 X-0.0873 Y1.5241
N18985 X-0.0598 Y1.5261
N18990 X-0.0299 Y1.527
N18995 X0. Y1.5278
N19000 X0.0672 Y1.5241
N19005 X0.1196 Y1.5202
N19010 X0.1494 Y1.5179
N19015 X0.2092 Y1.5127
N19020 X0.2391 Y1.5085
N19025 X0.269 Y1.5035
N19030 X0.2989 Y1.4975
N19035 X0.3586 Y1.4822
N19040 X0.4277 Y1.4643
N19045 X0.4483 Y1.4587
N19050 X0.4782 Y1.4504
N19055 X0.5081 Y1.4411
N19060 X0.5678 Y1.4166
N19065 X0.5952 Y1.4045
N19070 X0.6596 Y1.3746
N19075 X0.7234 Y1.3447
N19080 X0.7471 Y1.3316
N19085 X0.777 Y1.3147
N19090 X0.8069 Y1.296
N19095 X0.8667 Y1.2543
N19100 X0.9265 Y1.2123
N19105 X0.95 Y1.1953
N19110 X0.9879 Y1.1654
N19115 X1.0161 Y1.1401
N19120 X1.0508 Y1.1056
N19125 X1.0759 Y1.0806
N19130 X1.1395 Y1.016
N19135 X1.1655 Y0.9877
N19140 X1.1954 Y0.9509
N19145 X1.2135 Y0.9263
N19150 X1.2253 Y0.9095
N19155 X1.2344 Y0.8964
N19160 X1.2955 Y0.8068
N19165 X1.315 Y0.7761
N19170 X1.3321 Y0.747
N19175 X1.3449 Y0.7251
N19180 X1.3765 Y0.6573
N19185 X1.4046 Y0.5942
N19190 X1.4161 Y0.5677
N19195 X1.4408 Y0.5079
N19200 X1.4513 Y0.478
N19205 X1.4598 Y0.4481
N19210 X1.4644 Y0.4307
N19215 X1.4966 Y0.2987
N19220 X1.5029 Y0.2688
N19225 X1.5086 Y0.2389
N19230 X1.5133 Y0.209
N19235 X1.5183 Y0.1493
N19240 X1.5219 Y0.0895
N19245 X1.5271 Y-0.0002
N19250 X1.5268 Y-0.0301
N19255 X1.5263 Y-0.0599
N19260 X1.5244 Y-0.0898
N19265 X1.5212 Y-0.1197
N19270 X1.514 Y-0.1795
N19275 X1.5104 Y-0.2094
N19280 X1.5067 Y-0.2393
N19285 X1.5028 Y-0.2692
N19290 X1.4982 Y-0.299
N19295 X1.4844 Y-0.3588
N19300 X1.4755 Y-0.3887
N19305 X1.4644 Y-0.4255
N19310 X1.4389 Y-0.5082
N19315 X1.4284 Y-0.5381
N19320 X1.4178 Y-0.568
N19325 X1.4052 Y-0.5979
N19330 X1.3911 Y-0.6278
N19335 X1.3767 Y-0.6577
N19340 X1.3449 Y-0.719
N19345 X1.3299 Y-0.7473
N19350 X1.314 Y-0.7772
N19355 X1.2968 Y-0.8071
N19360 X1.257 Y-0.8669
N19365 X1.2552 Y-0.8695
N19370 X1.1648 Y-0.9864
N19375 X1.1404 Y-1.0163
N19380 X1.1058 Y-1.0532
N19385 X1.0835 Y-1.0761
N19390 X1.046 Y-1.1099
N19395 X0.9862 Y-1.1637
N19400 X0.9497 Y-1.1956
N19405 X0.9265 Y-1.2146
N19410 X0.9125 Y-1.2255
N19415 X0.8966 Y-1.2371
N19420 X0.8685 Y-1.2554
N19425 X0.7471 Y-1.3303
N19430 X0.7231 Y-1.3451
N19435 X0.6657 Y-1.375
N19440 X0.6575 Y-1.379
N19445 X0.5934 Y-1.4049
N19450 X0.5678 Y-1.415
N19455 X0.4782 Y-1.4502
N19460 X0.4483 Y-1.4605
N19465 X0.4362 Y-1.4646
N19470 X0.3885 Y-1.4764
N19475 X0.3586 Y-1.4835
N19480 X0.2391 Y-1.507
N19485 X0.2092 Y-1.5125
N19490 X0.1494 Y-1.5203
N19495 X0.1196 Y-1.5229
N19500 X0.0897 Y-1.5236
N19505 X0.0598 Y-1.5242
N19510 X0. Y-1.5251
N19515 X-0.0598 Y-1.5256
N19520 X-0.0896 Y-1.5249
N19525 X-0.1195 Y-1.5233
N19530 X-0.1494 Y-1.5202
N19535 X-0.2092 Y-1.5109
N19540 X-0.269 Y-1.5011
N19545 X-0.2988 Y-1.496
N19550 X-0.3586 Y-1.4847
N19555 X-0.3885 Y-1.4768
N19560 X-0.4323 Y-1.4646
N19565 X-0.4483 Y-1.459
N19570 X-0.5678 Y-1.4162
N19575 X-0.5977 Y-1.4046
N19580 X-0.6276 Y-1.3922
N19585 X-0.6575 Y-1.3796
N19590 X-0.719 Y-1.3451
N19595 X-0.777 Y-1.3117
N19600 X-0.8069 Y-1.2942
N19605 X-0.8714 Y-1.2554
N19610 X-0.8965 Y-1.2371
N19615 X-0.9111 Y-1.2255
N19620 X-0.9264 Y-1.213
N19625 X-0.9475 Y-1.1956
N19630 X-1.0179 Y-1.1359
N19635 X-1.0456 Y-1.1117
N19640 X-1.0494 Y-1.1092 Z0.754
N19645 X-1.0532 Y-1.1067 Z0.7548
N19650 X-1.0568 Y-1.1042 Z0.7561
N19655 X-1.0603 Y-1.1018 Z0.7579
N19660 X-1.0637 Y-1.1003 Z0.7601
N19665 X-1.0669 Y-1.0989 Z0.7626
N19670 X-1.0698 Y-1.0977 Z0.7656
N19675 X-1.0724 Y-1.0965 Z0.7688
N19680 X-1.0746 Y-1.0955 Z0.7723
N19685 X-1.0765 Y-1.0947 Z0.7761
N19690 X-1.0781 Y-1.0942 Z0.7801
N19695 X-1.0792 Y-1.0938 Z0.7843
N19700 X-1.0799 Y-1.0936 Z0.7886
N19705 X-1.0801 Y-1.0935 Z0.793
N19710 G0 Z1.7
N19715 X-0.9112 Y-1.9418
N19720 Z0.9937
N19725 G1 Z0.8937 F40.
N19730 X-0.9111 Y-1.9415 Z0.8859
N19735 X-0.9109 Y-1.9406 Z0.8781
N19740 X-0.9105 Y-1.9391 Z0.8704
N19745 X-0.91 Y-1.937 Z0.8628
N19750 X-0.9093 Y-1.9344 Z0.8554
N19755 X-0.9085 Y-1.9312 Z0.8483
N19760 X-0.9076 Y-1.9275 Z0.8415
N19765 X-0.9065 Y-1.9233 Z0.8349
N19770 X-0.9053 Y-1.9186 Z0.8288
N19775 X-0.9039 Y-1.9134 Z0.823
N19780 X-0.9025 Y-1.9078 Z0.8177
N19785 X-0.901 Y-1.9018 Z0.8128
N19790 X-0.8994 Y-1.8955 Z0.8084
N19795 X-0.8977 Y-1.8889 Z0.8046
N19800 X-0.8959 Y-1.882 Z0.8013
N19805 X-0.8941 Y-1.8748 Z0.7986
N19810 X-0.8922 Y-1.8675 Z0.7965
N19815 X-0.8903 Y-1.8601 Z0.7949
N19820 X-0.8883 Y-1.8525 Z0.794
N19825 X-0.8864 Y-1.8449 Z0.7937
N19830 G3 X-0.8081 Y-1.3005 I-2.4731 J0.6335
N19835 G1 Y-1.2885
N19840 X-0.8102 Y-1.2767
N19845 X-0.8128 Y-1.265
N19850 X-0.816 Y-1.2534
N19855 X-0.8196 Y-1.242
N19860 X-0.8236 Y-1.2306
N19865 X-0.8278 Y-1.2194
N19870 X-0.8323 Y-1.2083
N19875 X-0.837 Y-1.1972
N19880 X-0.8419 Y-1.1863
N19885 X-0.8468 Y-1.1753
N19890 X-0.8519 Y-1.1645
N19895 X-0.8571 Y-1.1536
N19900 X-0.8624 Y-1.1429
N19905 X-0.8677 Y-1.1321
N19910 X-0.8732 Y-1.1214
N19915 X-0.8787 Y-1.1108
N19920 X-0.8843 Y-1.1002
N19925 X-0.89 Y-1.0896
N19930 X-0.9017 Y-1.0679
N19935 X-0.9318 Y-1.0134
N19940 X-0.9816 Y-0.9238
N19945 X-1.0312 Y-0.8341
N19950 X-1.0778 Y-0.7427
N19955 X-1.0994 Y-0.6962
N19960 X-1.1045 Y-0.6845
N19965 X-1.1447 Y-0.5901
N19970 X-1.1796 Y-0.4937
N19975 X-1.2085 Y-0.3953
N19980 X-1.2308 Y-0.2952
N19985 X-1.2462 Y-0.1939
N19990 X-1.2541 Y-0.0916
N19995 X-1.2548 Y0.0109
N20000 X-1.2472 Y0.1132
N20005 X-1.2323 Y0.2146
N20010 X-1.2089 Y0.3145
N20015 X-1.1782 Y0.4123
N20020 X-1.1392 Y0.5072
N20025 X-1.0932 Y0.5988
N20030 X-1.0395 Y0.6862
N20035 X-0.9792 Y0.7691
N20040 X-0.9122 Y0.8467
N20045 X-0.8391 Y0.9186
N20050 X-0.7605 Y0.9845
N20055 X-0.6766 Y1.0435
N20060 X-0.5884 Y1.0957
N20065 X-0.496 Y1.1402
N20070 X-0.4004 Y1.1774
N20075 X-0.302 Y1.2061
N20080 X-0.2016 Y1.2271
N20085 X-0.0998 Y1.2393
N20090 X0.0027 Y1.2434
N20095 X0.1051 Y1.2387
N20100 X0.2068 Y1.2258
N20105 X0.3071 Y1.2045
N20110 X0.4053 Y1.175
N20115 X0.5008 Y1.1377
N20120 X0.5928 Y1.0924
N20125 X0.681 Y1.04
N20130 X0.7643 Y0.9802
N20135 X0.8427 Y0.9141
N20140 X0.915 Y0.8414
N20145 X0.9814 Y0.7632
N20150 X1.0408 Y0.6796
N20155 X1.0934 Y0.5916
N20160 X1.1383 Y0.4994
N20165 X1.1755 Y0.4039
N20170 X1.2048 Y0.3056
N20175 X1.2258 Y0.2052
N20180 X1.2387 Y0.1035
N20185 X1.2429 Y0.001
N20190 X1.239 Y-0.1014
N20195 X1.2262 Y-0.2032
N20200 X1.2055 Y-0.3036
N20205 X1.1762 Y-0.4019
N20210 X1.1393 Y-0.4976
N20215 X1.0943 Y-0.5897
N20220 X1.042 Y-0.6779
N20225 X0.9825 Y-0.7614
N20230 X0.9163 Y-0.8398
N20235 X0.844 Y-0.9124
N20240 X0.7658 Y-0.9788
N20245 X0.6827 Y-1.0388
N20250 X0.5946 Y-1.0914
N20255 X0.5028 Y-1.137
N20260 X0.4073 Y-1.1744
N20265 X0.3092 Y-1.2043
N20270 X0.2089 Y-1.2255
N20275 X0.1072 Y-1.2386
N20280 X0.0047 Y-1.2431
N20285 X-0.0977 Y-1.2393
N20290 X-0.1978 Y-1.2167
N20295 X-0.2931 Y-1.1789
N20300 X-0.3826 Y-1.1289
N20305 X-0.4663 Y-1.0696
N20310 X-0.5441 Y-1.0028
N20315 X-0.5802 Y-0.9664
N20320 X-0.5975 Y-0.9475
N20325 X-0.606 Y-0.9379
N20330 X-0.6094 Y-0.9349 Z0.794
N20335 X-0.6128 Y-0.9319 Z0.7948
N20340 X-0.6161 Y-0.9289 Z0.7961
N20345 X-0.6192 Y-0.9261 Z0.7979
N20350 X-0.6224 Y-0.9242 Z0.8001
N20355 X-0.6254 Y-0.9224 Z0.8026
N20360 X-0.6281 Y-0.9207 Z0.8056
N20365 X-0.6305 Y-0.9193 Z0.8088
N20370 X-0.6326 Y-0.918 Z0.8123
N20375 X-0.6343 Y-0.9169 Z0.8161
N20380 X-0.6358 Y-0.9162 Z0.8201
N20385 X-0.6369 Y-0.9157 Z0.8243
N20390 X-0.6376 Y-0.9154 Z0.8286
N20395 X-0.6378 Y-0.9153 Z0.833
N20400 G0 Z1.7
N20405 X-2.102 Y-3.1416
N20410 Z0.7537
N20415 G1 Z0.6537 F40.
N20420 X-2.1019 Y-3.1413 Z0.6459
N20425 X-2.1017 Y-3.1404 Z0.6381
N20430 X-2.1013 Y-3.1389 Z0.6304
N20435 X-2.1008 Y-3.1369 Z0.6228
N20440 X-2.1001 Y-3.1342 Z0.6154
N20445 X-2.0993 Y-3.131 Z0.6083
N20450 X-2.0984 Y-3.1273 Z0.6015
N20455 X-2.0973 Y-3.1231 Z0.5949
N20460 X-2.0961 Y-3.1184 Z0.5888
N20465 X-2.0947 Y-3.1132 Z0.583
N20470 X-2.0933 Y-3.1076 Z0.5777
N20475 X-2.0918 Y-3.1017 Z0.5728
N20480 X-2.0902 Y-3.0953 Z0.5684
N20485 X-2.0885 Y-3.0887 Z0.5646
N20490 X-2.0867 Y-3.0818 Z0.5613
N20495 X-2.0849 Y-3.0747 Z0.5586
N20500 X-2.083 Y-3.0673 Z0.5565
N20505 X-2.0811 Y-3.0599 Z0.5549
N20510 X-2.0791 Y-3.0523 Z0.554
N20515 X-2.0772 Y-3.0447 Z0.5537
N20520 G3 X-1.9989 Y-2.5003 I-2.4731 J0.6335
N20525 G1 Y-2.4894
N20530 X-2.0603 Y-2.4073
N20535 X-2.1111 Y-2.3182
N20540 X-2.1525 Y-2.2244
N20545 X-2.1857 Y-2.1273
N20550 X-2.2119 Y-2.0282
N20555 X-2.2324 Y-1.9278
N20560 X-2.2483 Y-1.8264
N20565 X-2.2606 Y-1.7246
N20570 X-2.2699 Y-1.6225
N20575 X-2.2769 Y-1.5202
N20580 X-2.2823 Y-1.4178
N20585 X-2.2863 Y-1.3153
N20590 X-2.2893 Y-1.2128
N20595 X-2.2916 Y-1.1103
N20600 X-2.2933 Y-1.0078
N20605 X-2.2946 Y-0.9053
N20610 X-2.2955 Y-0.8027
N20615 X-2.2963 Y-0.7002
N20620 X-2.2968 Y-0.5976
N20625 X-2.2972 Y-0.4951
N20630 X-2.2978 Y-0.29
N20635 X-2.2982 Y0.0176
N20640 X-2.2985 Y0.5303
N20645 X-2.2988 Y1.5558
N20650 Y1.6583
N20655 X-2.2804 Y1.7592
N20660 X-2.2377 Y1.8524
N20665 X-2.1772 Y1.9352
N20670 X-2.1035 Y2.0065
N20675 X-2.0204 Y2.0667
N20680 X-1.9307 Y2.1164
N20685 X-1.8365 Y2.1567
N20690 X-1.7392 Y2.1891
N20695 X-1.6399 Y2.2146
N20700 X-1.5393 Y2.2346
N20705 X-1.4379 Y2.25
N20710 X-1.336 Y2.2618
N20715 X-1.2339 Y2.2709
N20720 X-1.1316 Y2.2777
N20725 X-1.0292 Y2.2829
N20730 X-0.9267 Y2.2868
N20735 X-0.8242 Y2.2897
N20740 X-0.7217 Y2.2919
N20745 X-0.6191 Y2.2936
N20750 X-0.5166 Y2.2948
N20755 X-0.4141 Y2.2957
N20760 X-0.3115 Y2.2964
N20765 X-0.209 Y2.2969
N20770 X-0.1064 Y2.2973
N20775 X0.0986 Y2.2979
N20780 X0.4063 Y2.2983
N20785 X0.919 Y2.2986
N20790 X1.4317 Y2.2988
N20795 X1.6368
N20800 X1.7386 Y2.2865
N20805 X1.8338 Y2.2483
N20810 X1.9188 Y2.191
N20815 X1.9926 Y2.1198
N20820 X2.055 Y2.0384
