%
O01001
(Using G0 which travels along dogleg path.)
(T8 D=0.1875 CR=0. - ZMIN=-0.8031 - flat end mill)
(T10 D=0.25 CR=0. - ZMIN=-1.08 - flat end mill)
N10 G90 G94 G17
N15 G20
N20 G53 G0 Z0.

(1/4" Outer Contour Finish)
N25 T10 M6
N30 S6000 M3
N35 G17 G90 G94
N40 G54
N45 M8
N50 G0 X10.0184 Y-5.4392
N55 G43 Z0.6 H10
N60 T8
N65 G0 Z0.2
N70 G1 Z0.0394 F13.333
N75 Z-0.075
N80 X10.0183 Y-5.4395 Z-0.0789 F360.
N85 X10.0181 Y-5.4404 Z-0.0827
N90 X10.0178 Y-5.4418 Z-0.0863
N95 X10.0174 Y-5.4438 Z-0.0897
N100 X10.0168 Y-5.4463 Z-0.0927
N105 X10.0162 Y-5.4493 Z-0.0952
N110 X10.0155 Y-5.4525 Z-0.0973
N115 X10.0147 Y-5.4561 Z-0.0988
N120 X10.0139 Y-5.4598 Z-0.0997
N125 X10.0131 Y-5.4636 Z-0.1
N130 X10.0078 Y-5.488
N135 G3 X10.027 Y-5.5178 I0.0244 J-0.0053
N140 G2 X9.592 Y-5.9151 I-0.0764 J-0.3531
N145 G3 X9.5563 Y-5.8421 I-0.124 J-0.0153
N150 X8.4993 Y-5.0743 I-2.9502 J-2.9502
N155 X2.5719 Y-3.1681 I-8.8757 J-17.4303
N160 G2 X2.6008 Y-2.1389 I0.0782 J0.5128
N165 G3 X5.1964 Y-0.5132 I-0.3245 J3.4029
N170 G2 X6.0879 Y-0.5221 I0.4431 J-0.2697
N175 G3 X9.0837 Y-4.2283 I13.5059 J7.853
N180 G2 X9.2048 Y-4.3929 I-0.3489 J-0.3838
N185 G3 X9.9355 Y-5.4759 I3.7814 J1.7631
N190 X10.0072 Y-5.5141 I0.0914 J0.0852
N195 G2 X10.027 Y-5.5178 I-0.0567 J-0.3568
N200 G3 X10.0567 Y-5.4986 I0.0053 J0.0244
N205 G1 X10.062 Y-5.4742
N210 X10.0628 Y-5.4704 Z-0.0997
N215 X10.0636 Y-5.4666 Z-0.0988
N220 X10.0644 Y-5.4631 Z-0.0973
N225 X10.0651 Y-5.4598 Z-0.0952
N230 X10.0657 Y-5.4569 Z-0.0927
N235 X10.0663 Y-5.4544 Z-0.0897
N240 X10.0667 Y-5.4524 Z-0.0863
N245 X10.067 Y-5.451 Z-0.0827
N250 X10.0672 Y-5.4501 Z-0.0789
N255 X10.0673 Y-5.4498 Z-0.075
N260 G0 Z0.2
N265 X7.5178 Y-0.9761
N270 G1 Z0.0394 F13.333
N275 Z-0.075
N280 X7.5181 Y-0.976 Z-0.0789 F360.
N285 X7.519 Y-0.9757 Z-0.0827
N290 X7.5204 Y-0.9752 Z-0.0863
N295 X7.5223 Y-0.9745 Z-0.0897
N300 X7.5247 Y-0.9737 Z-0.0927
N305 X7.5275 Y-0.9726 Z-0.0952
N310 X7.5307 Y-0.9715 Z-0.0973
N315 X7.5341 Y-0.9703 Z-0.0988
N320 X7.5377 Y-0.969 Z-0.0997
N325 X7.5414 Y-0.9676 Z-0.1
N330 X7.5649 Y-0.9591
N335 G3 X7.5799 Y-0.9271 I-0.0085 J0.0235
N340 G2 X8.4608 Y-0.4405 I0.4791 J0.1734
N345 G1 X8.474 Y-0.4569
N350 X8.4871 Y-0.4724
N355 X8.5009 Y-0.4876
N360 X8.5154 Y-0.5028
N365 X8.5305 Y-0.5178
N370 X8.5463 Y-0.5326
N375 X8.5627 Y-0.5473
N380 X8.5798 Y-0.5618
N385 X8.5976 Y-0.5761
N390 X8.6162 Y-0.5903
N395 X8.6353 Y-0.6043
N400 X8.655 Y-0.6181
N405 X8.6755 Y-0.6317
N410 X8.6966 Y-0.6452
N415 X8.7184 Y-0.6585
N420 X8.7408 Y-0.6715
N425 X8.7639 Y-0.6844
N430 X8.7877 Y-0.6971
N435 X8.812 Y-0.7095
N440 X8.837 Y-0.7218
N445 X8.8626 Y-0.7339
N450 X8.8889 Y-0.7457
N455 X8.9158 Y-0.7574
N460 X8.9432 Y-0.7688
N465 X8.9713 Y-0.78
N470 X9. Y-0.791
N475 X9.0293 Y-0.8018
N480 X9.0591 Y-0.8124
N485 X9.0896 Y-0.8227
N490 X9.1206 Y-0.8328
N495 X9.1522 Y-0.8427
N500 X9.1844 Y-0.8524
N505 X9.2171 Y-0.8619
N510 X9.2503 Y-0.8711
N515 X9.2842 Y-0.8801
N520 X9.3185 Y-0.8889
N525 X9.3534 Y-0.8975
N530 X9.3888 Y-0.9058
N535 X9.4247 Y-0.914
N540 X9.4611 Y-0.9219
N545 X9.4981 Y-0.9295
N550 X9.5355 Y-0.937
N555 X9.5733 Y-0.9443
N560 X9.6116 Y-0.9512
N565 X9.6501 Y-0.9579
N570 X9.6889 Y-0.9641
N575 X9.7278 Y-0.9699
N580 X9.7668 Y-0.9753
N585 X9.806 Y-0.9801
N590 X9.8451 Y-0.9843
N595 X9.8842 Y-0.9879
N600 X9.9233 Y-0.9908
N605 X9.9623 Y-0.993
N610 X10.0011 Y-0.9944
N615 X10.0396 Y-0.995
N620 X10.0779 Y-0.9948
N625 X10.1159 Y-0.9936
N630 X10.1535 Y-0.9915
N635 X10.1907 Y-0.9884
N640 X10.2274 Y-0.9843
N645 X10.2636 Y-0.9791
N650 X10.2993 Y-0.9728
N655 X10.3343 Y-0.9654
N660 X10.37 Y-0.9566
N665 G2 X10.7665 Y-1.5433 I0.0959 J-0.3625
N670 G3 X10.2477 Y-4.6024 I2.7305 J-2.0366
N675 G2 X9.4919 Y-4.9016 I-0.3887 J-0.1223
N680 G1 X7.5999 Y-0.9749
N685 G2 X7.5799 Y-0.9271 I0.459 J0.2212
N690 G3 X7.5478 Y-0.9121 I-0.0235 J-0.0085
N695 G1 X7.5243 Y-0.9206
N700 X7.5207 Y-0.922 Z-0.0997
N705 X7.5171 Y-0.9233 Z-0.0988
N710 X7.5137 Y-0.9245 Z-0.0973
N715 X7.5105 Y-0.9256 Z-0.0952
N720 X7.5077 Y-0.9266 Z-0.0927
N725 X7.5053 Y-0.9275 Z-0.0897
N730 X7.5034 Y-0.9282 Z-0.0863
N735 X7.502 Y-0.9287 Z-0.0827
N740 X7.5011 Y-0.929 Z-0.0789
N745 X7.5008 Y-0.9291 Z-0.075
N750 G0 Z0.2
N755 X7.5178 Y-0.9761
N760 G1 Z-0.0606 F13.333
N765 Z-0.175
N770 X7.5181 Y-0.976 Z-0.1789 F360.
N775 X7.519 Y-0.9757 Z-0.1827
N780 X7.5204 Y-0.9752 Z-0.1863
N785 X7.5223 Y-0.9745 Z-0.1897
N790 X7.5247 Y-0.9737 Z-0.1927
N795 X7.5275 Y-0.9726 Z-0.1952
N800 X7.5307 Y-0.9715 Z-0.1973
N805 X7.5341 Y-0.9703 Z-0.1988
N810 X7.5377 Y-0.969 Z-0.1997
N815 X7.5414 Y-0.9676 Z-0.2
N820 X7.5649 Y-0.9591
N825 G3 X7.5799 Y-0.9271 I-0.0085 J0.0235
N830 G2 X8.4608 Y-0.4405 I0.4791 J0.1734
N835 G1 X8.474 Y-0.4569
N840 X8.4871 Y-0.4724
N845 X8.5009 Y-0.4876
N850 X8.5154 Y-0.5028
N855 X8.5305 Y-0.5178
N860 X8.5463 Y-0.5326
N865 X8.5627 Y-0.5473
N870 X8.5798 Y-0.5618
N875 X8.5976 Y-0.5761
N880 X8.6162 Y-0.5903
N885 X8.6353 Y-0.6043
N890 X8.655 Y-0.6181
N895 X8.6755 Y-0.6317
N900 X8.6966 Y-0.6452
N905 X8.7184 Y-0.6585
N910 X8.7408 Y-0.6715
N915 X8.7639 Y-0.6844
N920 X8.7877 Y-0.6971
N925 X8.812 Y-0.7095
N930 X8.837 Y-0.7218
N935 X8.8626 Y-0.7339
N940 X8.8889 Y-0.7457
N945 X8.9158 Y-0.7574
N950 X8.9432 Y-0.7688
N955 X8.9713 Y-0.78
N960 X9. Y-0.791
N965 X9.0293 Y-0.8018
N970 X9.0591 Y-0.8124
N975 X9.0896 Y-0.8227
N980 X9.1206 Y-0.8328
N985 X9.1522 Y-0.8427
N990 X9.1844 Y-0.8524
N995 X9.2171 Y-0.8619
N1000 X9.2503 Y-0.8711
N1005 X9.2842 Y-0.8801
N1010 X9.3185 Y-0.8889
N1015 X9.3534 Y-0.8975
N1020 X9.3888 Y-0.9058
N1025 X9.4247 Y-0.914
N1030 X9.4611 Y-0.9219
N1035 X9.4981 Y-0.9295
N1040 X9.5355 Y-0.937
N1045 X9.5733 Y-0.9443
N1050 X9.6116 Y-0.9512
N1055 X9.6501 Y-0.9579
N1060 X9.6889 Y-0.9641
N1065 X9.7278 Y-0.9699
N1070 X9.7668 Y-0.9753
N1075 X9.806 Y-0.9801
N1080 X9.8451 Y-0.9843
N1085 X9.8842 Y-0.9879
N1090 X9.9233 Y-0.9908
N1095 X9.9623 Y-0.993
N1100 X10.0011 Y-0.9944
N1105 X10.0396 Y-0.995
N1110 X10.0779 Y-0.9948
N1115 X10.1159 Y-0.9936
N1120 X10.1535 Y-0.9915
N1125 X10.1907 Y-0.9884
N1130 X10.2274 Y-0.9843
N1135 X10.2636 Y-0.9791
N1140 X10.2993 Y-0.9728
N1145 X10.3343 Y-0.9654
N1150 X10.37 Y-0.9566
N1155 G2 X10.7665 Y-1.5433 I0.0959 J-0.3625
N1160 G3 X10.2477 Y-4.6024 I2.7305 J-2.0366
N1165 G2 X9.4919 Y-4.9016 I-0.3887 J-0.1223
N1170 G1 X7.5999 Y-0.9749
N1175 G2 X7.5799 Y-0.9271 I0.459 J0.2212
N1180 G3 X7.5478 Y-0.9121 I-0.0235 J-0.0085
N1185 G1 X7.5243 Y-0.9206
N1190 X7.5207 Y-0.922 Z-0.1997
N1195 X7.5171 Y-0.9233 Z-0.1988
N1200 X7.5137 Y-0.9245 Z-0.1973
N1205 X7.5105 Y-0.9256 Z-0.1952
N1210 X7.5077 Y-0.9266 Z-0.1927
N1215 X7.5053 Y-0.9275 Z-0.1897
N1220 X7.5034 Y-0.9282 Z-0.1863
N1225 X7.502 Y-0.9287 Z-0.1827
N1230 X7.5011 Y-0.929 Z-0.1789
N1235 X7.5008 Y-0.9291 Z-0.175
N1240 G0 Z0.2
N1245 X8.0585 Y-5.6776
N1250 G1 Z0.0394 F13.333
N1255 Z-0.075
N1260 X8.0582 Z-0.0789 F360.
N1265 X8.0573 Y-5.6775 Z-0.0827
N1270 X8.0558 Y-5.6774 Z-0.0863
N1275 X8.0537 Y-5.6773 Z-0.0897
N1280 X8.0512 Y-5.6772 Z-0.0927
N1285 X8.0482 Y-5.677 Z-0.0952
N1290 X8.0448 Y-5.6768 Z-0.0973
N1295 X8.0412 Y-5.6766 Z-0.0988
N1300 X8.0374 Y-5.6764 Z-0.0997
N1305 X8.0335 Y-5.6762 Z-0.1
N1310 X8.0086 Y-5.6748
N1315 G3 X7.9822 Y-5.6983 I-0.0014 J-0.025
N1320 G2 X7.3885 Y-5.954 I-0.3606 J0.0203
N1325 G3 X7.3127 Y-5.9246 I-0.0807 J-0.0955
N1330 X6.0154 Y-6.0788 I-0.1624 J-4.1691
N1335 G2 X5.8116 Y-6.0945 I-0.1411 J0.4991
N1340 G3 X1.0485 Y-6.2469 I-1.8878 J-15.5086
N1345 G2 X0.4595 Y-5.5777 I-0.0955 J0.5098
N1350 G3 X-0.0049 Y-2.5504 I-3.2529 J1.0503
N1355 G2 X0.7555 Y-1.8563 I0.4231 J0.3
N1360 G3 X6.0706 Y-5.0995 I12.716 J14.8627
N1365 X7.3423 Y-5.3983 I1.5786 J3.8621
N1370 X7.4209 Y-5.3776 I0.0092 J0.1246
N1375 G2 X7.9822 Y-5.6983 I0.2006 J-0.3004
N1380 G3 X8.0057 Y-5.7247 I0.025 J-0.0014
N1385 G1 X8.0307 Y-5.7261
N1390 X8.0346 Y-5.7263 Z-0.0997
N1395 X8.0384 Y-5.7265 Z-0.0988
N1400 X8.042 Y-5.7267 Z-0.0973
N1405 X8.0454 Y-5.7269 Z-0.0952
N1410 X8.0484 Y-5.7271 Z-0.0927
N1415 X8.0509 Y-5.7272 Z-0.0897
N1420 X8.0529 Y-5.7273 Z-0.0863
N1425 X8.0544 Y-5.7274 Z-0.0827
N1430 X8.0554 Y-5.7275 Z-0.0789
N1435 X8.0557 Z-0.075
N1440 G0 Z0.2
N1445 X8.0585 Y-5.6776
N1450 G1 Z-0.0606 F13.333
N1455 Z-0.175
N1460 X8.0582 Z-0.1789 F360.
N1465 X8.0573 Y-5.6775 Z-0.1827
N1470 X8.0558 Y-5.6774 Z-0.1863
N1475 X8.0537 Y-5.6773 Z-0.1897
N1480 X8.0512 Y-5.6772 Z-0.1927
N1485 X8.0482 Y-5.677 Z-0.1952
N1490 X8.0448 Y-5.6768 Z-0.1973
N1495 X8.0412 Y-5.6766 Z-0.1988
N1500 X8.0374 Y-5.6764 Z-0.1997
N1505 X8.0335 Y-5.6762 Z-0.2
N1510 X8.0086 Y-5.6748
N1515 G3 X7.9822 Y-5.6983 I-0.0014 J-0.025
N1520 G2 X7.3885 Y-5.954 I-0.3606 J0.0203
N1525 G3 X7.3127 Y-5.9246 I-0.0807 J-0.0955
N1530 X6.0154 Y-6.0788 I-0.1624 J-4.1691
N1535 G2 X5.8116 Y-6.0945 I-0.1411 J0.4991
N1540 G3 X1.0485 Y-6.2469 I-1.8878 J-15.5086
N1545 G2 X0.4595 Y-5.5777 I-0.0955 J0.5098
N1550 G3 X-0.0049 Y-2.5504 I-3.2529 J1.0503
N1555 G2 X0.7555 Y-1.8563 I0.4231 J0.3
N1560 G3 X6.0706 Y-5.0995 I12.716 J14.8627
N1565 X7.3423 Y-5.3983 I1.5786 J3.8621
N1570 X7.4209 Y-5.3776 I0.0092 J0.1246
N1575 G2 X7.9822 Y-5.6983 I0.2006 J-0.3004
N1580 G3 X8.0057 Y-5.7247 I0.025 J-0.0014
N1585 G1 X8.0307 Y-5.7261
N1590 X8.0346 Y-5.7263 Z-0.1997
N1595 X8.0384 Y-5.7265 Z-0.1988
N1600 X8.042 Y-5.7267 Z-0.1973
N1605 X8.0454 Y-5.7269 Z-0.1952
N1610 X8.0484 Y-5.7271 Z-0.1927
N1615 X8.0509 Y-5.7272 Z-0.1897
N1620 X8.0529 Y-5.7273 Z-0.1863
N1625 X8.0544 Y-5.7274 Z-0.1827
N1630 X8.0554 Y-5.7275 Z-0.1789
N1635 X8.0557 Z-0.175
N1640 G0 Z0.2
N1645 X10.0184 Y-5.4392
N1650 G1 Z-0.0606 F13.333
N1655 Z-0.175
N1660 X10.0183 Y-5.4395 Z-0.1789 F360.
N1665 X10.0181 Y-5.4404 Z-0.1827
N1670 X10.0178 Y-5.4418 Z-0.1863
N1675 X10.0174 Y-5.4438 Z-0.1897
N1680 X10.0168 Y-5.4463 Z-0.1927
N1685 X10.0162 Y-5.4493 Z-0.1952
N1690 X10.0155 Y-5.4525 Z-0.1973
N1695 X10.0147 Y-5.4561 Z-0.1988
N1700 X10.0139 Y-5.4598 Z-0.1997
N1705 X10.0131 Y-5.4636 Z-0.2
N1710 X10.0078 Y-5.488
N1715 G3 X10.027 Y-5.5178 I0.0244 J-0.0053
N1720 G2 X9.592 Y-5.9151 I-0.0764 J-0.3531
N1725 G3 X9.5563 Y-5.8421 I-0.124 J-0.0153
N1730 X8.4993 Y-5.0743 I-2.9502 J-2.9502
N1735 X2.5719 Y-3.1681 I-8.8757 J-17.4303
N1740 G2 X2.6008 Y-2.1389 I0.0782 J0.5128
N1745 G3 X5.1964 Y-0.5132 I-0.3245 J3.4029
N1750 G2 X6.0879 Y-0.5221 I0.4431 J-0.2697
N1755 G3 X9.0837 Y-4.2283 I13.5059 J7.853
N1760 G2 X9.2048 Y-4.3929 I-0.3489 J-0.3838
N1765 G3 X9.9355 Y-5.4759 I3.7814 J1.7631
N1770 X10.0072 Y-5.5141 I0.0914 J0.0852
N1775 G2 X10.027 Y-5.5178 I-0.0567 J-0.3568
N1780 G3 X10.0567 Y-5.4986 I0.0053 J0.0244
N1785 G1 X10.062 Y-5.4742
N1790 X10.0628 Y-5.4704 Z-0.1997
N1795 X10.0636 Y-5.4666 Z-0.1988
N1800 X10.0644 Y-5.4631 Z-0.1973
N1805 X10.0651 Y-5.4598 Z-0.1952
N1810 X10.0657 Y-5.4569 Z-0.1927
N1815 X10.0663 Y-5.4544 Z-0.1897
N1820 X10.0667 Y-5.4524 Z-0.1863
N1825 X10.067 Y-5.451 Z-0.1827
N1830 X10.0672 Y-5.4501 Z-0.1789
N1835 X10.0673 Y-5.4498 Z-0.175
N1840 G0 Z0.2
N1845 X10.0184 Y-5.4392
N1850 G1 Z-0.1606 F13.333
N1855 Z-0.275
N1860 X10.0183 Y-5.4395 Z-0.2789 F360.
N1865 X10.0181 Y-5.4404 Z-0.2827
N1870 X10.0178 Y-5.4418 Z-0.2863
N1875 X10.0174 Y-5.4438 Z-0.2897
N1880 X10.0168 Y-5.4463 Z-0.2927
N1885 X10.0162 Y-5.4493 Z-0.2952
N1890 X10.0155 Y-5.4525 Z-0.2973
N1895 X10.0147 Y-5.4561 Z-0.2988
N1900 X10.0139 Y-5.4598 Z-0.2997
N1905 X10.0131 Y-5.4636 Z-0.3
N1910 X10.0078 Y-5.488
N1915 G3 X10.027 Y-5.5178 I0.0244 J-0.0053
N1920 G2 X9.592 Y-5.9151 I-0.0764 J-0.3531
N1925 G3 X9.5563 Y-5.8421 I-0.124 J-0.0153
N1930 X8.4993 Y-5.0743 I-2.9502 J-2.9502
N1935 X2.5719 Y-3.1681 I-8.8757 J-17.4303
N1940 G2 X2.6008 Y-2.1389 I0.0782 J0.5128
N1945 G3 X5.1964 Y-0.5132 I-0.3245 J3.4029
N1950 G2 X6.0879 Y-0.5221 I0.4431 J-0.2697
N1955 G3 X9.0837 Y-4.2283 I13.5059 J7.853
N1960 G2 X9.2048 Y-4.3929 I-0.3489 J-0.3838
N1965 G3 X9.9355 Y-5.4759 I3.7814 J1.7631
N1970 X10.0072 Y-5.5141 I0.0914 J0.0852
N1975 G2 X10.027 Y-5.5178 I-0.0567 J-0.3568
N1980 G3 X10.0567 Y-5.4986 I0.0053 J0.0244
N1985 G1 X10.062 Y-5.4742
N1990 X10.0628 Y-5.4704 Z-0.2997
N1995 X10.0636 Y-5.4666 Z-0.2988
N2000 X10.0644 Y-5.4631 Z-0.2973
N2005 X10.0651 Y-5.4598 Z-0.2952
N2010 X10.0657 Y-5.4569 Z-0.2927
N2015 X10.0663 Y-5.4544 Z-0.2897
N2020 X10.0667 Y-5.4524 Z-0.2863
N2025 X10.067 Y-5.451 Z-0.2827
N2030 X10.0672 Y-5.4501 Z-0.2789
N2035 X10.0673 Y-5.4498 Z-0.275
N2040 G0 Z0.2
N2045 X7.5178 Y-0.9761
N2050 G1 Z-0.1606 F13.333
N2055 Z-0.275
N2060 X7.5181 Y-0.976 Z-0.2789 F360.
N2065 X7.519 Y-0.9757 Z-0.2827
N2070 X7.5204 Y-0.9752 Z-0.2863
N2075 X7.5223 Y-0.9745 Z-0.2897
N2080 X7.5247 Y-0.9737 Z-0.2927
N2085 X7.5275 Y-0.9726 Z-0.2952
N2090 X7.5307 Y-0.9715 Z-0.2973
N2095 X7.5341 Y-0.9703 Z-0.2988
N2100 X7.5377 Y-0.969 Z-0.2997
N2105 X7.5414 Y-0.9676 Z-0.3
N2110 X7.5649 Y-0.9591
N2115 G3 X7.5799 Y-0.9271 I-0.0085 J0.0235
N2120 G2 X8.4608 Y-0.4405 I0.4791 J0.1734
N2125 G1 X8.474 Y-0.4569
N2130 X8.4871 Y-0.4724
N2135 X8.5009 Y-0.4876
N2140 X8.5154 Y-0.5028
N2145 X8.5305 Y-0.5178
N2150 X8.5463 Y-0.5326
N2155 X8.5627 Y-0.5473
N2160 X8.5798 Y-0.5618
N2165 X8.5976 Y-0.5761
N2170 X8.6162 Y-0.5903
N2175 X8.6353 Y-0.6043
N2180 X8.655 Y-0.6181
N2185 X8.6755 Y-0.6317
N2190 X8.6966 Y-0.6452
N2195 X8.7184 Y-0.6585
N2200 X8.7408 Y-0.6715
N2205 X8.7639 Y-0.6844
N2210 X8.7877 Y-0.6971
N2215 X8.812 Y-0.7095
N2220 X8.837 Y-0.7218
N2225 X8.8626 Y-0.7339
N2230 X8.8889 Y-0.7457
N2235 X8.9158 Y-0.7574
N2240 X8.9432 Y-0.7688
N2245 X8.9713 Y-0.78
N2250 X9. Y-0.791
N2255 X9.0293 Y-0.8018
N2260 X9.0591 Y-0.8124
N2265 X9.0896 Y-0.8227
N2270 X9.1206 Y-0.8328
N2275 X9.1522 Y-0.8427
N2280 X9.1844 Y-0.8524
N2285 X9.2171 Y-0.8619
N2290 X9.2503 Y-0.8711
N2295 X9.2842 Y-0.8801
N2300 X9.3185 Y-0.8889
N2305 X9.3534 Y-0.8975
N2310 X9.3888 Y-0.9058
N2315 X9.4247 Y-0.914
N2320 X9.4611 Y-0.9219
N2325 X9.4981 Y-0.9295
N2330 X9.5355 Y-0.937
N2335 X9.5733 Y-0.9443
N2340 X9.6116 Y-0.9512
N2345 X9.6501 Y-0.9579
N2350 X9.6889 Y-0.9641
N2355 X9.7278 Y-0.9699
N2360 X9.7668 Y-0.9753
N2365 X9.806 Y-0.9801
N2370 X9.8451 Y-0.9843
N2375 X9.8842 Y-0.9879
N2380 X9.9233 Y-0.9908
N2385 X9.9623 Y-0.993
N2390 X10.0011 Y-0.9944
N2395 X10.0396 Y-0.995
N2400 X10.0779 Y-0.9948
N2405 X10.1159 Y-0.9936
N2410 X10.1535 Y-0.9915
N2415 X10.1907 Y-0.9884
N2420 X10.2274 Y-0.9843
N2425 X10.2636 Y-0.9791
N2430 X10.2993 Y-0.9728
N2435 X10.3343 Y-0.9654
N2440 X10.37 Y-0.9566
N2445 G2 X10.7665 Y-1.5433 I0.0959 J-0.3625
N2450 G3 X10.2477 Y-4.6024 I2.7305 J-2.0366
N2455 G2 X9.4919 Y-4.9016 I-0.3887 J-0.1223
N2460 G1 X7.5999 Y-0.9749
N2465 G2 X7.5799 Y-0.9271 I0.459 J0.2212
N2470 G3 X7.5478 Y-0.9121 I-0.0235 J-0.0085
N2475 G1 X7.5243 Y-0.9206
N2480 X7.5207 Y-0.922 Z-0.2997
N2485 X7.5171 Y-0.9233 Z-0.2988
N2490 X7.5137 Y-0.9245 Z-0.2973
N2495 X7.5105 Y-0.9256 Z-0.2952
N2500 X7.5077 Y-0.9266 Z-0.2927
N2505 X7.5053 Y-0.9275 Z-0.2897
N2510 X7.5034 Y-0.9282 Z-0.2863
N2515 X7.502 Y-0.9287 Z-0.2827
N2520 X7.5011 Y-0.929 Z-0.2789
N2525 X7.5008 Y-0.9291 Z-0.275
N2530 G0 Z0.2
N2535 X7.5178 Y-0.9761
N2540 G1 Z-0.2606 F13.333
N2545 Z-0.375
N2550 X7.5181 Y-0.976 Z-0.3789 F360.
N2555 X7.519 Y-0.9757 Z-0.3827
N2560 X7.5204 Y-0.9752 Z-0.3863
N2565 X7.5223 Y-0.9745 Z-0.3897
N2570 X7.5247 Y-0.9737 Z-0.3927
N2575 X7.5275 Y-0.9726 Z-0.3952
N2580 X7.5307 Y-0.9715 Z-0.3973
N2585 X7.5341 Y-0.9703 Z-0.3988
N2590 X7.5377 Y-0.969 Z-0.3997
N2595 X7.5414 Y-0.9676 Z-0.4
N2600 X7.5649 Y-0.9591
N2605 G3 X7.5799 Y-0.9271 I-0.0085 J0.0235
N2610 G2 X8.4608 Y-0.4405 I0.4791 J0.1734
N2615 G1 X8.474 Y-0.4569
N2620 X8.4871 Y-0.4724
N2625 X8.5009 Y-0.4876
N2630 X8.5154 Y-0.5028
N2635 X8.5305 Y-0.5178
N2640 X8.5463 Y-0.5326
N2645 X8.5627 Y-0.5473
N2650 X8.5798 Y-0.5618
N2655 X8.5976 Y-0.5761
N2660 X8.6162 Y-0.5903
N2665 X8.6353 Y-0.6043
N2670 X8.655 Y-0.6181
N2675 X8.6755 Y-0.6317
N2680 X8.6966 Y-0.6452
N2685 X8.7184 Y-0.6585
N2690 X8.7408 Y-0.6715
N2695 X8.7639 Y-0.6844
N2700 X8.7877 Y-0.6971
N2705 X8.812 Y-0.7095
N2710 X8.837 Y-0.7218
N2715 X8.8626 Y-0.7339
N2720 X8.8889 Y-0.7457
N2725 X8.9158 Y-0.7574
N2730 X8.9432 Y-0.7688
N2735 X8.9713 Y-0.78
N2740 X9. Y-0.791
N2745 X9.0293 Y-0.8018
N2750 X9.0591 Y-0.8124
N2755 X9.0896 Y-0.8227
N2760 X9.1206 Y-0.8328
N2765 X9.1522 Y-0.8427
N2770 X9.1844 Y-0.8524
N2775 X9.2171 Y-0.8619
N2780 X9.2503 Y-0.8711
N2785 X9.2842 Y-0.8801
N2790 X9.3185 Y-0.8889
N2795 X9.3534 Y-0.8975
N2800 X9.3888 Y-0.9058
N2805 X9.4247 Y-0.914
N2810 X9.4611 Y-0.9219
N2815 X9.4981 Y-0.9295
N2820 X9.5355 Y-0.937
N2825 X9.5733 Y-0.9443
N2830 X9.6116 Y-0.9512
N2835 X9.6501 Y-0.9579
N2840 X9.6889 Y-0.9641
N2845 X9.7278 Y-0.9699
N2850 X9.7668 Y-0.9753
N2855 X9.806 Y-0.9801
N2860 X9.8451 Y-0.9843
N2865 X9.8842 Y-0.9879
N2870 X9.9233 Y-0.9908
N2875 X9.9623 Y-0.993
N2880 X10.0011 Y-0.9944
N2885 X10.0396 Y-0.995
N2890 X10.0779 Y-0.9948
N2895 X10.1159 Y-0.9936
N2900 X10.1535 Y-0.9915
N2905 X10.1907 Y-0.9884
N2910 X10.2274 Y-0.9843
N2915 X10.2636 Y-0.9791
N2920 X10.2993 Y-0.9728
N2925 X10.3343 Y-0.9654
N2930 X10.37 Y-0.9566
N2935 G2 X10.7665 Y-1.5433 I0.0959 J-0.3625
N2940 G3 X10.2477 Y-4.6024 I2.7305 J-2.0366
N2945 G2 X9.4919 Y-4.9016 I-0.3887 J-0.1223
N2950 G1 X7.5999 Y-0.9749
N2955 G2 X7.5799 Y-0.9271 I0.459 J0.2212
N2960 G3 X7.5478 Y-0.9121 I-0.0235 J-0.0085
N2965 G1 X7.5243 Y-0.9206
N2970 X7.5207 Y-0.922 Z-0.3997
N2975 X7.5171 Y-0.9233 Z-0.3988
N2980 X7.5137 Y-0.9245 Z-0.3973
N2985 X7.5105 Y-0.9256 Z-0.3952
N2990 X7.5077 Y-0.9266 Z-0.3927
N2995 X7.5053 Y-0.9275 Z-0.3897
N3000 X7.5034 Y-0.9282 Z-0.3863
N3005 X7.502 Y-0.9287 Z-0.3827
N3010 X7.5011 Y-0.929 Z-0.3789
N3015 X7.5008 Y-0.9291 Z-0.375
N3020 G0 Z0.2
N3025 X8.0585 Y-5.6776
N3030 G1 Z-0.1606 F13.333
N3035 Z-0.275
N3040 X8.0582 Z-0.2789 F360.
N3045 X8.0573 Y-5.6775 Z-0.2827
N3050 X8.0558 Y-5.6774 Z-0.2863
N3055 X8.0537 Y-5.6773 Z-0.2897
N3060 X8.0512 Y-5.6772 Z-0.2927
N3065 X8.0482 Y-5.677 Z-0.2952
N3070 X8.0448 Y-5.6768 Z-0.2973
N3075 X8.0412 Y-5.6766 Z-0.2988
N3080 X8.0374 Y-5.6764 Z-0.2997
N3085 X8.0335 Y-5.6762 Z-0.3
N3090 X8.0086 Y-5.6748
N3095 G3 X7.9822 Y-5.6983 I-0.0014 J-0.025
N3100 G2 X7.3885 Y-5.954 I-0.3606 J0.0203
N3105 G3 X7.3127 Y-5.9246 I-0.0807 J-0.0955
N3110 X6.0154 Y-6.0788 I-0.1624 J-4.1691
N3115 G2 X5.8116 Y-6.0945 I-0.1411 J0.4991
N3120 G3 X1.0485 Y-6.2469 I-1.8878 J-15.5086
N3125 G2 X0.4595 Y-5.5777 I-0.0955 J0.5098
N3130 G3 X-0.0049 Y-2.5504 I-3.2529 J1.0503
N3135 G2 X0.7555 Y-1.8563 I0.4231 J0.3
N3140 G3 X6.0706 Y-5.0995 I12.716 J14.8627
N3145 X7.3423 Y-5.3983 I1.5786 J3.8621
N3150 X7.4209 Y-5.3776 I0.0092 J0.1246
N3155 G2 X7.9822 Y-5.6983 I0.2006 J-0.3004
N3160 G3 X8.0057 Y-5.7247 I0.025 J-0.0014
N3165 G1 X8.0307 Y-5.7261
N3170 X8.0346 Y-5.7263 Z-0.2997
N3175 X8.0384 Y-5.7265 Z-0.2988
N3180 X8.042 Y-5.7267 Z-0.2973
N3185 X8.0454 Y-5.7269 Z-0.2952
N3190 X8.0484 Y-5.7271 Z-0.2927
N3195 X8.0509 Y-5.7272 Z-0.2897
N3200 X8.0529 Y-5.7273 Z-0.2863
N3205 X8.0544 Y-5.7274 Z-0.2827
N3210 X8.0554 Y-5.7275 Z-0.2789
N3215 X8.0557 Z-0.275
N3220 G0 Z0.2
N3225 X8.0585 Y-5.6776
N3230 G1 Z-0.2606 F13.333
N3235 Z-0.375
N3240 X8.0582 Z-0.3789 F360.
N3245 X8.0573 Y-5.6775 Z-0.3827
N3250 X8.0558 Y-5.6774 Z-0.3863
N3255 X8.0537 Y-5.6773 Z-0.3897
N3260 X8.0512 Y-5.6772 Z-0.3927
N3265 X8.0482 Y-5.677 Z-0.3952
N3270 X8.0448 Y-5.6768 Z-0.3973
N3275 X8.0412 Y-5.6766 Z-0.3988
N3280 X8.0374 Y-5.6764 Z-0.3997
N3285 X8.0335 Y-5.6762 Z-0.4
N3290 X8.0086 Y-5.6748
N3295 G3 X7.9822 Y-5.6983 I-0.0014 J-0.025
N3300 G2 X7.3885 Y-5.954 I-0.3606 J0.0203
N3305 G3 X7.3127 Y-5.9246 I-0.0807 J-0.0955
N3310 X6.0154 Y-6.0788 I-0.1624 J-4.1691
N3315 G2 X5.8116 Y-6.0945 I-0.1411 J0.4991
N3320 G3 X1.0485 Y-6.2469 I-1.8878 J-15.5086
N3325 G2 X0.4595 Y-5.5777 I-0.0955 J0.5098
N3330 G3 X-0.0049 Y-2.5504 I-3.2529 J1.0503
N3335 G2 X0.7555 Y-1.8563 I0.4231 J0.3
N3340 G3 X6.0706 Y-5.0995 I12.716 J14.8627
N3345 X7.3423 Y-5.3983 I1.5786 J3.8621
N3350 X7.4209 Y-5.3776 I0.0092 J0.1246
N3355 G2 X7.9822 Y-5.6983 I0.2006 J-0.3004
N3360 G3 X8.0057 Y-5.7247 I0.025 J-0.0014
N3365 G1 X8.0307 Y-5.7261
N3370 X8.0346 Y-5.7263 Z-0.3997
N3375 X8.0384 Y-5.7265 Z-0.3988
N3380 X8.042 Y-5.7267 Z-0.3973
N3385 X8.0454 Y-5.7269 Z-0.3952
N3390 X8.0484 Y-5.7271 Z-0.3927
N3395 X8.0509 Y-5.7272 Z-0.3897
N3400 X8.0529 Y-5.7273 Z-0.3863
N3405 X8.0544 Y-5.7274 Z-0.3827
N3410 X8.0554 Y-5.7275 Z-0.3789
N3415 X8.0557 Z-0.375
N3420 G0 Z0.2
N3425 X10.0184 Y-5.4392
N3430 G1 Z-0.2606 F13.333
N3435 Z-0.375
N3440 X10.0183 Y-5.4395 Z-0.3789 F360.
N3445 X10.0181 Y-5.4404 Z-0.3827
N3450 X10.0178 Y-5.4418 Z-0.3863
N3455 X10.0174 Y-5.4438 Z-0.3897
N3460 X10.0168 Y-5.4463 Z-0.3927
N3465 X10.0162 Y-5.4493 Z-0.3952
N3470 X10.0155 Y-5.4525 Z-0.3973
N3475 X10.0147 Y-5.4561 Z-0.3988
N3480 X10.0139 Y-5.4598 Z-0.3997
N3485 X10.0131 Y-5.4636 Z-0.4
N3490 X10.0078 Y-5.488
N3495 G3 X10.027 Y-5.5178 I0.0244 J-0.0053
N3500 G2 X9.592 Y-5.9151 I-0.0764 J-0.3531
N3505 G3 X9.5563 Y-5.8421 I-0.124 J-0.0153
N3510 X8.4993 Y-5.0743 I-2.9502 J-2.9502
N3515 X2.5719 Y-3.1681 I-8.8757 J-17.4303
N3520 G2 X2.6008 Y-2.1389 I0.0782 J0.5128
N3525 G3 X5.1964 Y-0.5132 I-0.3245 J3.4029
N3530 G2 X6.0879 Y-0.5221 I0.4431 J-0.2697
N3535 G3 X9.0837 Y-4.2283 I13.5059 J7.853
N3540 G2 X9.2048 Y-4.3929 I-0.3489 J-0.3838
N3545 G3 X9.9355 Y-5.4759 I3.7814 J1.7631
N3550 X10.0072 Y-5.5141 I0.0914 J0.0852
N3555 G2 X10.027 Y-5.5178 I-0.0567 J-0.3568
N3560 G3 X10.0567 Y-5.4986 I0.0053 J0.0244
N3565 G1 X10.062 Y-5.4742
N3570 X10.0628 Y-5.4704 Z-0.3997
N3575 X10.0636 Y-5.4666 Z-0.3988
N3580 X10.0644 Y-5.4631 Z-0.3973
N3585 X10.0651 Y-5.4598 Z-0.3952
N3590 X10.0657 Y-5.4569 Z-0.3927
N3595 X10.0663 Y-5.4544 Z-0.3897
N3600 X10.0667 Y-5.4524 Z-0.3863
N3605 X10.067 Y-5.451 Z-0.3827
N3610 X10.0672 Y-5.4501 Z-0.3789
N3615 X10.0673 Y-5.4498 Z-0.375
N3620 G0 Z0.2
N3625 X10.0184 Y-5.4392
N3630 G1 Z-0.3606 F13.333
N3635 Z-0.475
N3640 X10.0183 Y-5.4395 Z-0.4789 F360.
N3645 X10.0181 Y-5.4404 Z-0.4827
N3650 X10.0178 Y-5.4418 Z-0.4863
N3655 X10.0174 Y-5.4438 Z-0.4897
N3660 X10.0168 Y-5.4463 Z-0.4927
N3665 X10.0162 Y-5.4493 Z-0.4952
N3670 X10.0155 Y-5.4525 Z-0.4973
N3675 X10.0147 Y-5.4561 Z-0.4988
N3680 X10.0139 Y-5.4598 Z-0.4997
N3685 X10.0131 Y-5.4636 Z-0.5
N3690 X10.0078 Y-5.488
N3695 G3 X10.027 Y-5.5178 I0.0244 J-0.0053
N3700 G2 X9.592 Y-5.9151 I-0.0764 J-0.3531
N3705 G3 X9.5563 Y-5.8421 I-0.124 J-0.0153
N3710 X8.4993 Y-5.0743 I-2.9502 J-2.9502
N3715 X2.5719 Y-3.1681 I-8.8757 J-17.4303
N3720 G2 X2.6008 Y-2.1389 I0.0782 J0.5128
N3725 G3 X5.1964 Y-0.5132 I-0.3245 J3.4029
N3730 G2 X6.0879 Y-0.5221 I0.4431 J-0.2697
N3735 G3 X9.0837 Y-4.2283 I13.5059 J7.853
N3740 G2 X9.2048 Y-4.3929 I-0.3489 J-0.3838
N3745 G3 X9.9355 Y-5.4759 I3.7814 J1.7631
N3750 X10.0072 Y-5.5141 I0.0914 J0.0852
N3755 G2 X10.027 Y-5.5178 I-0.0567 J-0.3568
N3760 G3 X10.0567 Y-5.4986 I0.0053 J0.0244
N3765 G1 X10.062 Y-5.4742
N3770 X10.0628 Y-5.4704 Z-0.4997
N3775 X10.0636 Y-5.4666 Z-0.4988
N3780 X10.0644 Y-5.4631 Z-0.4973
N3785 X10.0651 Y-5.4598 Z-0.4952
N3790 X10.0657 Y-5.4569 Z-0.4927
N3795 X10.0663 Y-5.4544 Z-0.4897
N3800 X10.0667 Y-5.4524 Z-0.4863
N3805 X10.067 Y-5.451 Z-0.4827
N3810 X10.0672 Y-5.4501 Z-0.4789
N3815 X10.0673 Y-5.4498 Z-0.475
N3820 G0 Z0.2
N3825 X7.5178 Y-0.9761
N3830 G1 Z-0.3606 F13.333
N3835 Z-0.475
N3840 X7.5181 Y-0.976 Z-0.4789 F360.
N3845 X7.519 Y-0.9757 Z-0.4827
N3850 X7.5204 Y-0.9752 Z-0.4863
N3855 X7.5223 Y-0.9745 Z-0.4897
N3860 X7.5247 Y-0.9737 Z-0.4927
N3865 X7.5275 Y-0.9726 Z-0.4952
N3870 X7.5307 Y-0.9715 Z-0.4973
N3875 X7.5341 Y-0.9703 Z-0.4988
N3880 X7.5377 Y-0.969 Z-0.4997
N3885 X7.5414 Y-0.9676 Z-0.5
N3890 X7.5649 Y-0.9591
N3895 G3 X7.5799 Y-0.9271 I-0.0085 J0.0235
N3900 G2 X8.4608 Y-0.4405 I0.4791 J0.1734
N3905 G1 X8.474 Y-0.4569
N3910 X8.4871 Y-0.4724
N3915 X8.5009 Y-0.4876
N3920 X8.5154 Y-0.5028
N3925 X8.5305 Y-0.5178
N3930 X8.5463 Y-0.5326
N3935 X8.5627 Y-0.5473
N3940 X8.5798 Y-0.5618
N3945 X8.5976 Y-0.5761
N3950 X8.6162 Y-0.5903
N3955 X8.6353 Y-0.6043
N3960 X8.655 Y-0.6181
N3965 X8.6755 Y-0.6317
N3970 X8.6966 Y-0.6452
N3975 X8.7184 Y-0.6585
N3980 X8.7408 Y-0.6715
N3985 X8.7639 Y-0.6844
N3990 X8.7877 Y-0.6971
N3995 X8.812 Y-0.7095
N4000 X8.837 Y-0.7218
N4005 X8.8626 Y-0.7339
N4010 X8.8889 Y-0.7457
N4015 X8.9158 Y-0.7574
N4020 X8.9432 Y-0.7688
N4025 X8.9713 Y-0.78
N4030 X9. Y-0.791
N4035 X9.0293 Y-0.8018
N4040 X9.0591 Y-0.8124
N4045 X9.0896 Y-0.8227
N4050 X9.1206 Y-0.8328
N4055 X9.1522 Y-0.8427
N4060 X9.1844 Y-0.8524
N4065 X9.2171 Y-0.8619
N4070 X9.2503 Y-0.8711
N4075 X9.2842 Y-0.8801
N4080 X9.3185 Y-0.8889
N4085 X9.3534 Y-0.8975
N4090 X9.3888 Y-0.9058
N4095 X9.4247 Y-0.914
N4100 X9.4611 Y-0.9219
N4105 X9.4981 Y-0.9295
N4110 X9.5355 Y-0.937
N4115 X9.5733 Y-0.9443
N4120 X9.6116 Y-0.9512
N4125 X9.6501 Y-0.9579
N4130 X9.6889 Y-0.9641
N4135 X9.7278 Y-0.9699
N4140 X9.7668 Y-0.9753
N4145 X9.806 Y-0.9801
N4150 X9.8451 Y-0.9843
N4155 X9.8842 Y-0.9879
N4160 X9.9233 Y-0.9908
N4165 X9.9623 Y-0.993
N4170 X10.0011 Y-0.9944
N4175 X10.0396 Y-0.995
N4180 X10.0779 Y-0.9948
N4185 X10.1159 Y-0.9936
N4190 X10.1535 Y-0.9915
N4195 X10.1907 Y-0.9884
N4200 X10.2274 Y-0.9843
N4205 X10.2636 Y-0.9791
N4210 X10.2993 Y-0.9728
N4215 X10.3343 Y-0.9654
N4220 X10.37 Y-0.9566
N4225 G2 X10.7665 Y-1.5433 I0.0959 J-0.3625
N4230 G3 X10.2477 Y-4.6024 I2.7305 J-2.0366
N4235 G2 X9.4919 Y-4.9016 I-0.3887 J-0.1223
N4240 G1 X7.5999 Y-0.9749
N4245 G2 X7.5799 Y-0.9271 I0.459 J0.2212
N4250 G3 X7.5478 Y-0.9121 I-0.0235 J-0.0085
N4255 G1 X7.5243 Y-0.9206
N4260 X7.5207 Y-0.922 Z-0.4997
N4265 X7.5171 Y-0.9233 Z-0.4988
N4270 X7.5137 Y-0.9245 Z-0.4973
N4275 X7.5105 Y-0.9256 Z-0.4952
N4280 X7.5077 Y-0.9266 Z-0.4927
N4285 X7.5053 Y-0.9275 Z-0.4897
N4290 X7.5034 Y-0.9282 Z-0.4863
N4295 X7.502 Y-0.9287 Z-0.4827
N4300 X7.5011 Y-0.929 Z-0.4789
N4305 X7.5008 Y-0.9291 Z-0.475
N4310 G0 Z0.2
N4315 X7.5178 Y-0.9761
N4320 G1 Z-0.4606 F13.333
N4325 Z-0.575
N4330 X7.5181 Y-0.976 Z-0.5789 F360.
N4335 X7.519 Y-0.9757 Z-0.5827
N4340 X7.5204 Y-0.9752 Z-0.5863
N4345 X7.5223 Y-0.9745 Z-0.5897
N4350 X7.5247 Y-0.9737 Z-0.5927
N4355 X7.5275 Y-0.9726 Z-0.5952
N4360 X7.5307 Y-0.9715 Z-0.5973
N4365 X7.5341 Y-0.9703 Z-0.5988
N4370 X7.5377 Y-0.969 Z-0.5997
N4375 X7.5414 Y-0.9676 Z-0.6
N4380 X7.5649 Y-0.9591
N4385 G3 X7.5799 Y-0.9271 I-0.0085 J0.0235
N4390 G2 X8.4608 Y-0.4405 I0.4791 J0.1734
N4395 G1 X8.474 Y-0.4569
N4400 X8.4871 Y-0.4724
N4405 X8.5009 Y-0.4876
N4410 X8.5154 Y-0.5028
N4415 X8.5305 Y-0.5178
N4420 X8.5463 Y-0.5326
N4425 X8.5627 Y-0.5473
N4430 X8.5798 Y-0.5618
N4435 X8.5976 Y-0.5761
N4440 X8.6162 Y-0.5903
N4445 X8.6353 Y-0.6043
N4450 X8.655 Y-0.6181
N4455 X8.6755 Y-0.6317
N4460 X8.6966 Y-0.6452
N4465 X8.7184 Y-0.6585
N4470 X8.7408 Y-0.6715
N4475 X8.7639 Y-0.6844
N4480 X8.7877 Y-0.6971
N4485 X8.812 Y-0.7095
N4490 X8.837 Y-0.7218
N4495 X8.8626 Y-0.7339
N4500 X8.8889 Y-0.7457
N4505 X8.9158 Y-0.7574
N4510 X8.9432 Y-0.7688
N4515 X8.9713 Y-0.78
N4520 X9. Y-0.791
N4525 X9.0293 Y-0.8018
N4530 X9.0591 Y-0.8124
N4535 X9.0896 Y-0.8227
N4540 X9.1206 Y-0.8328
N4545 X9.1522 Y-0.8427
N4550 X9.1844 Y-0.8524
N4555 X9.2171 Y-0.8619
N4560 X9.2503 Y-0.8711
N4565 X9.2842 Y-0.8801
N4570 X9.3185 Y-0.8889
N4575 X9.3534 Y-0.8975
N4580 X9.3888 Y-0.9058
N4585 X9.4247 Y-0.914
N4590 X9.4611 Y-0.9219
N4595 X9.4981 Y-0.9295
N4600 X9.5355 Y-0.937
N4605 X9.5733 Y-0.9443
N4610 X9.6116 Y-0.9512
N4615 X9.6501 Y-0.9579
N4620 X9.6889 Y-0.9641
N4625 X9.7278 Y-0.9699
N4630 X9.7668 Y-0.9753
N4635 X9.806 Y-0.9801
N4640 X9.8451 Y-0.9843
N4645 X9.8842 Y-0.9879
N4650 X9.9233 Y-0.9908
N4655 X9.9623 Y-0.993
N4660 X10.0011 Y-0.9944
N4665 X10.0396 Y-0.995
N4670 X10.0779 Y-0.9948
N4675 X10.1159 Y-0.9936
N4680 X10.1535 Y-0.9915
N4685 X10.1907 Y-0.9884
N4690 X10.2274 Y-0.9843
N4695 X10.2636 Y-0.9791
N4700 X10.2993 Y-0.9728
N4705 X10.3343 Y-0.9654
N4710 X10.37 Y-0.9566
N4715 G2 X10.7665 Y-1.5433 I0.0959 J-0.3625
N4720 G3 X10.2477 Y-4.6024 I2.7305 J-2.0366
N4725 G2 X9.4919 Y-4.9016 I-0.3887 J-0.1223
N4730 G1 X7.5999 Y-0.9749
N4735 G2 X7.5799 Y-0.9271 I0.459 J0.2212
N4740 G3 X7.5478 Y-0.9121 I-0.0235 J-0.0085
N4745 G1 X7.5243 Y-0.9206
N4750 X7.5207 Y-0.922 Z-0.5997
N4755 X7.5171 Y-0.9233 Z-0.5988
N4760 X7.5137 Y-0.9245 Z-0.5973
N4765 X7.5105 Y-0.9256 Z-0.5952
N4770 X7.5077 Y-0.9266 Z-0.5927
N4775 X7.5053 Y-0.9275 Z-0.5897
N4780 X7.5034 Y-0.9282 Z-0.5863
N4785 X7.502 Y-0.9287 Z-0.5827
N4790 X7.5011 Y-0.929 Z-0.5789
N4795 X7.5008 Y-0.9291 Z-0.575
N4800 G0 Z0.2
N4805 X8.0585 Y-5.6776
N4810 G1 Z-0.3606 F13.333
N4815 Z-0.475
N4820 X8.0582 Z-0.4789 F360.
N4825 X8.0573 Y-5.6775 Z-0.4827
N4830 X8.0558 Y-5.6774 Z-0.4863
N4835 X8.0537 Y-5.6773 Z-0.4897
N4840 X8.0512 Y-5.6772 Z-0.4927
N4845 X8.0482 Y-5.677 Z-0.4952
N4850 X8.0448 Y-5.6768 Z-0.4973
N4855 X8.0412 Y-5.6766 Z-0.4988
N4860 X8.0374 Y-5.6764 Z-0.4997
N4865 X8.0335 Y-5.6762 Z-0.5
N4870 X8.0086 Y-5.6748
N4875 G3 X7.9822 Y-5.6983 I-0.0014 J-0.025
N4880 G2 X7.3885 Y-5.954 I-0.3606 J0.0203
N4885 G3 X7.3127 Y-5.9246 I-0.0807 J-0.0955
N4890 X6.0154 Y-6.0788 I-0.1624 J-4.1691
N4895 G2 X5.8116 Y-6.0945 I-0.1411 J0.4991
N4900 G3 X1.0485 Y-6.2469 I-1.8878 J-15.5086
N4905 G2 X0.4595 Y-5.5777 I-0.0955 J0.5098
N4910 G3 X-0.0049 Y-2.5504 I-3.2529 J1.0503
N4915 G2 X0.7555 Y-1.8563 I0.4231 J0.3
N4920 G3 X6.0706 Y-5.0995 I12.716 J14.8627
N4925 X7.3423 Y-5.3983 I1.5786 J3.8621
N4930 X7.4209 Y-5.3776 I0.0092 J0.1246
N4935 G2 X7.9822 Y-5.6983 I0.2006 J-0.3004
N4940 G3 X8.0057 Y-5.7247 I0.025 J-0.0014
N4945 G1 X8.0307 Y-5.7261
N4950 X8.0346 Y-5.7263 Z-0.4997
N4955 X8.0384 Y-5.7265 Z-0.4988
N4960 X8.042 Y-5.7267 Z-0.4973
N4965 X8.0454 Y-5.7269 Z-0.4952
N4970 X8.0484 Y-5.7271 Z-0.4927
N4975 X8.0509 Y-5.7272 Z-0.4897
N4980 X8.0529 Y-5.7273 Z-0.4863
N4985 X8.0544 Y-5.7274 Z-0.4827
N4990 X8.0554 Y-5.7275 Z-0.4789
N4995 X8.0557 Z-0.475
N5000 G0 Z0.2
N5005 X8.0585 Y-5.6776
N5010 G1 Z-0.4606 F13.333
N5015 Z-0.575
N5020 X8.0582 Z-0.5789 F360.
N5025 X8.0573 Y-5.6775 Z-0.5827
N5030 X8.0558 Y-5.6774 Z-0.5863
N5035 X8.0537 Y-5.6773 Z-0.5897
N5040 X8.0512 Y-5.6772 Z-0.5927
N5045 X8.0482 Y-5.677 Z-0.5952
N5050 X8.0448 Y-5.6768 Z-0.5973
N5055 X8.0412 Y-5.6766 Z-0.5988
N5060 X8.0374 Y-5.6764 Z-0.5997
N5065 X8.0335 Y-5.6762 Z-0.6
N5070 X8.0086 Y-5.6748
N5075 G3 X7.9822 Y-5.6983 I-0.0014 J-0.025
N5080 G2 X7.3885 Y-5.954 I-0.3606 J0.0203
N5085 G3 X7.3127 Y-5.9246 I-0.0807 J-0.0955
N5090 X6.0154 Y-6.0788 I-0.1624 J-4.1691
N5095 G2 X5.8116 Y-6.0945 I-0.1411 J0.4991
N5100 G3 X1.0485 Y-6.2469 I-1.8878 J-15.5086
N5105 G2 X0.4595 Y-5.5777 I-0.0955 J0.5098
N5110 G3 X-0.0049 Y-2.5504 I-3.2529 J1.0503
N5115 G2 X0.7555 Y-1.8563 I0.4231 J0.3
N5120 G3 X6.0706 Y-5.0995 I12.716 J14.8627
N5125 X7.3423 Y-5.3983 I1.5786 J3.8621
N5130 X7.4209 Y-5.3776 I0.0092 J0.1246
N5135 G2 X7.9822 Y-5.6983 I0.2006 J-0.3004
N5140 G3 X8.0057 Y-5.7247 I0.025 J-0.0014
N5145 G1 X8.0307 Y-5.7261
N5150 X8.0346 Y-5.7263 Z-0.5997
N5155 X8.0384 Y-5.7265 Z-0.5988
N5160 X8.042 Y-5.7267 Z-0.5973
N5165 X8.0454 Y-5.7269 Z-0.5952
N5170 X8.0484 Y-5.7271 Z-0.5927
N5175 X8.0509 Y-5.7272 Z-0.5897
N5180 X8.0529 Y-5.7273 Z-0.5863
N5185 X8.0544 Y-5.7274 Z-0.5827
N5190 X8.0554 Y-5.7275 Z-0.5789
N5195 X8.0557 Z-0.575
N5200 G0 Z0.2
N5205 X10.0184 Y-5.4392
N5210 G1 Z-0.4606 F13.333
N5215 Z-0.575
N5220 X10.0183 Y-5.4395 Z-0.5789 F360.
N5225 X10.0181 Y-5.4404 Z-0.5827
N5230 X10.0178 Y-5.4418 Z-0.5863
N5235 X10.0174 Y-5.4438 Z-0.5897
N5240 X10.0168 Y-5.4463 Z-0.5927
N5245 X10.0162 Y-5.4493 Z-0.5952
N5250 X10.0155 Y-5.4525 Z-0.5973
N5255 X10.0147 Y-5.4561 Z-0.5988
N5260 X10.0139 Y-5.4598 Z-0.5997
N5265 X10.0131 Y-5.4636 Z-0.6
N5270 X10.0078 Y-5.488
N5275 G3 X10.027 Y-5.5178 I0.0244 J-0.0053
N5280 G2 X9.592 Y-5.9151 I-0.0764 J-0.3531
N5285 G3 X9.5563 Y-5.8421 I-0.124 J-0.0153
N5290 X8.4993 Y-5.0743 I-2.9502 J-2.9502
N5295 X2.5719 Y-3.1681 I-8.8757 J-17.4303
N5300 G2 X2.6008 Y-2.1389 I0.0782 J0.5128
N5305 G3 X5.1964 Y-0.5132 I-0.3245 J3.4029
N5310 G2 X6.0879 Y-0.5221 I0.4431 J-0.2697
N5315 G3 X9.0837 Y-4.2283 I13.5059 J7.853
N5320 G2 X9.2048 Y-4.3929 I-0.3489 J-0.3838
N5325 G3 X9.9355 Y-5.4759 I3.7814 J1.7631
N5330 X10.0072 Y-5.5141 I0.0914 J0.0852
N5335 G2 X10.027 Y-5.5178 I-0.0567 J-0.3568
N5340 G3 X10.0567 Y-5.4986 I0.0053 J0.0244
N5345 G1 X10.062 Y-5.4742
N5350 X10.0628 Y-5.4704 Z-0.5997
N5355 X10.0636 Y-5.4666 Z-0.5988
N5360 X10.0644 Y-5.4631 Z-0.5973
N5365 X10.0651 Y-5.4598 Z-0.5952
N5370 X10.0657 Y-5.4569 Z-0.5927
N5375 X10.0663 Y-5.4544 Z-0.5897
N5380 X10.0667 Y-5.4524 Z-0.5863
N5385 X10.067 Y-5.451 Z-0.5827
N5390 X10.0672 Y-5.4501 Z-0.5789
N5395 X10.0673 Y-5.4498 Z-0.575
N5400 G0 Z0.2
N5405 X10.0184 Y-5.4392
N5410 G1 Z-0.5606 F13.333
N5415 Z-0.675
N5420 X10.0183 Y-5.4395 Z-0.6789 F360.
N5425 X10.0181 Y-5.4404 Z-0.6827
N5430 X10.0178 Y-5.4418 Z-0.6863
N5435 X10.0174 Y-5.4438 Z-0.6897
N5440 X10.0168 Y-5.4463 Z-0.6927
N5445 X10.0162 Y-5.4493 Z-0.6952
N5450 X10.0155 Y-5.4525 Z-0.6973
N5455 X10.0147 Y-5.4561 Z-0.6988
N5460 X10.0139 Y-5.4598 Z-0.6997
N5465 X10.0131 Y-5.4636 Z-0.7
N5470 X10.0078 Y-5.488
N5475 G3 X10.027 Y-5.5178 I0.0244 J-0.0053
N5480 G2 X9.592 Y-5.9151 I-0.0764 J-0.3531
N5485 G3 X9.5563 Y-5.8421 I-0.124 J-0.0153
N5490 X8.4993 Y-5.0743 I-2.9502 J-2.9502
N5495 X2.5719 Y-3.1681 I-8.8757 J-17.4303
N5500 G2 X2.6008 Y-2.1389 I0.0782 J0.5128
N5505 G3 X5.1964 Y-0.5132 I-0.3245 J3.4029
N5510 G2 X6.0879 Y-0.5221 I0.4431 J-0.2697
N5515 G3 X9.0837 Y-4.2283 I13.5059 J7.853
N5520 G2 X9.2048 Y-4.3929 I-0.3489 J-0.3838
N5525 G3 X9.9355 Y-5.4759 I3.7814 J1.7631
N5530 X10.0072 Y-5.5141 I0.0914 J0.0852
N5535 G2 X10.027 Y-5.5178 I-0.0567 J-0.3568
N5540 G3 X10.0567 Y-5.4986 I0.0053 J0.0244
N5545 G1 X10.062 Y-5.4742
N5550 X10.0628 Y-5.4704 Z-0.6997
N5555 X10.0636 Y-5.4666 Z-0.6988
N5560 X10.0644 Y-5.4631 Z-0.6973
N5565 X10.0651 Y-5.4598 Z-0.6952
N5570 X10.0657 Y-5.4569 Z-0.6927
N5575 X10.0663 Y-5.4544 Z-0.6897
N5580 X10.0667 Y-5.4524 Z-0.6863
N5585 X10.067 Y-5.451 Z-0.6827
N5590 X10.0672 Y-5.4501 Z-0.6789
N5595 X10.0673 Y-5.4498 Z-0.675
N5600 G0 Z0.2
N5605 X7.5178 Y-0.9761
N5610 G1 Z-0.5606 F13.333
N5615 Z-0.675
N5620 X7.5181 Y-0.976 Z-0.6789 F360.
N5625 X7.519 Y-0.9757 Z-0.6827
N5630 X7.5204 Y-0.9752 Z-0.6863
N5635 X7.5223 Y-0.9745 Z-0.6897
N5640 X7.5247 Y-0.9737 Z-0.6927
N5645 X7.5275 Y-0.9726 Z-0.6952
N5650 X7.5307 Y-0.9715 Z-0.6973
N5655 X7.5341 Y-0.9703 Z-0.6988
N5660 X7.5377 Y-0.969 Z-0.6997
N5665 X7.5414 Y-0.9676 Z-0.7
N5670 X7.5649 Y-0.9591
N5675 G3 X7.5799 Y-0.9271 I-0.0085 J0.0235
N5680 G2 X8.4608 Y-0.4405 I0.4791 J0.1734
N5685 G1 X8.474 Y-0.4569
N5690 X8.4871 Y-0.4724
N5695 X8.5009 Y-0.4876
N5700 X8.5154 Y-0.5028
N5705 X8.5305 Y-0.5178
N5710 X8.5463 Y-0.5326
N5715 X8.5627 Y-0.5473
N5720 X8.5798 Y-0.5618
N5725 X8.5976 Y-0.5761
N5730 X8.6162 Y-0.5903
N5735 X8.6353 Y-0.6043
N5740 X8.655 Y-0.6181
N5745 X8.6755 Y-0.6317
N5750 X8.6966 Y-0.6452
N5755 X8.7184 Y-0.6585
N5760 X8.7408 Y-0.6715
N5765 X8.7639 Y-0.6844
N5770 X8.7877 Y-0.6971
N5775 X8.812 Y-0.7095
N5780 X8.837 Y-0.7218
N5785 X8.8626 Y-0.7339
N5790 X8.8889 Y-0.7457
N5795 X8.9158 Y-0.7574
N5800 X8.9432 Y-0.7688
N5805 X8.9713 Y-0.78
N5810 X9. Y-0.791
N5815 X9.0293 Y-0.8018
N5820 X9.0591 Y-0.8124
N5825 X9.0896 Y-0.8227
N5830 X9.1206 Y-0.8328
N5835 X9.1522 Y-0.8427
N5840 X9.1844 Y-0.8524
N5845 X9.2171 Y-0.8619
N5850 X9.2503 Y-0.8711
N5855 X9.2842 Y-0.8801
N5860 X9.3185 Y-0.8889
N5865 X9.3534 Y-0.8975
N5870 X9.3888 Y-0.9058
N5875 X9.4247 Y-0.914
N5880 X9.4611 Y-0.9219
N5885 X9.4981 Y-0.9295
N5890 X9.5355 Y-0.937
N5895 X9.5733 Y-0.9443
N5900 X9.6116 Y-0.9512
N5905 X9.6501 Y-0.9579
N5910 X9.6889 Y-0.9641
N5915 X9.7278 Y-0.9699
N5920 X9.7668 Y-0.9753
N5925 X9.806 Y-0.9801
N5930 X9.8451 Y-0.9843
N5935 X9.8842 Y-0.9879
N5940 X9.9233 Y-0.9908
N5945 X9.9623 Y-0.993
N5950 X10.0011 Y-0.9944
N5955 X10.0396 Y-0.995
N5960 X10.0779 Y-0.9948
N5965 X10.1159 Y-0.9936
N5970 X10.1535 Y-0.9915
N5975 X10.1907 Y-0.9884
N5980 X10.2274 Y-0.9843
N5985 X10.2636 Y-0.9791
N5990 X10.2993 Y-0.9728
N5995 X10.3343 Y-0.9654
N6000 X10.37 Y-0.9566
N6005 G2 X10.7665 Y-1.5433 I0.0959 J-0.3625
N6010 G3 X10.2477 Y-4.6024 I2.7305 J-2.0366
N6015 G2 X9.4919 Y-4.9016 I-0.3887 J-0.1223
N6020 G1 X7.5999 Y-0.9749
N6025 G2 X7.5799 Y-0.9271 I0.459 J0.2212
N6030 G3 X7.5478 Y-0.9121 I-0.0235 J-0.0085
N6035 G1 X7.5243 Y-0.9206
N6040 X7.5207 Y-0.922 Z-0.6997
N6045 X7.5171 Y-0.9233 Z-0.6988
N6050 X7.5137 Y-0.9245 Z-0.6973
N6055 X7.5105 Y-0.9256 Z-0.6952
N6060 X7.5077 Y-0.9266 Z-0.6927
N6065 X7.5053 Y-0.9275 Z-0.6897
N6070 X7.5034 Y-0.9282 Z-0.6863
N6075 X7.502 Y-0.9287 Z-0.6827
N6080 X7.5011 Y-0.929 Z-0.6789
N6085 X7.5008 Y-0.9291 Z-0.675
N6090 G0 Z0.2
N6095 X7.5178 Y-0.9761
N6100 G1 Z-0.6606 F13.333
N6105 Z-0.775
N6110 X7.5181 Y-0.976 Z-0.7789 F360.
N6115 X7.519 Y-0.9757 Z-0.7827
N6120 X7.5204 Y-0.9752 Z-0.7863
N6125 X7.5223 Y-0.9745 Z-0.7897
N6130 X7.5247 Y-0.9737 Z-0.7927
N6135 X7.5275 Y-0.9726 Z-0.7952
N6140 X7.5307 Y-0.9715 Z-0.7973
N6145 X7.5341 Y-0.9703 Z-0.7988
N6150 X7.5377 Y-0.969 Z-0.7997
N6155 X7.5414 Y-0.9676 Z-0.8
N6160 X7.5649 Y-0.9591
N6165 G3 X7.5799 Y-0.9271 I-0.0085 J0.0235
N6170 G2 X8.4608 Y-0.4405 I0.4791 J0.1734
N6175 G1 X8.474 Y-0.4569
N6180 X8.4871 Y-0.4724
N6185 X8.5009 Y-0.4876
N6190 X8.5154 Y-0.5028
N6195 X8.5305 Y-0.5178
N6200 X8.5463 Y-0.5326
N6205 X8.5627 Y-0.5473
N6210 X8.5798 Y-0.5618
N6215 X8.5976 Y-0.5761
N6220 X8.6162 Y-0.5903
N6225 X8.6353 Y-0.6043
N6230 X8.655 Y-0.6181
N6235 X8.6755 Y-0.6317
N6240 X8.6966 Y-0.6452
N6245 X8.7184 Y-0.6585
N6250 X8.7408 Y-0.6715
N6255 X8.7639 Y-0.6844
N6260 X8.7877 Y-0.6971
N6265 X8.812 Y-0.7095
N6270 X8.837 Y-0.7218
N6275 X8.8626 Y-0.7339
N6280 X8.8889 Y-0.7457
N6285 X8.9158 Y-0.7574
N6290 X8.9432 Y-0.7688
N6295 X8.9713 Y-0.78
N6300 X9. Y-0.791
N6305 X9.0293 Y-0.8018
N6310 X9.0591 Y-0.8124
N6315 X9.0896 Y-0.8227
N6320 X9.1206 Y-0.8328
N6325 X9.1522 Y-0.8427
N6330 X9.1844 Y-0.8524
N6335 X9.2171 Y-0.8619
N6340 X9.2503 Y-0.8711
N6345 X9.2842 Y-0.8801
N6350 X9.3185 Y-0.8889
N6355 X9.3534 Y-0.8975
N6360 X9.3888 Y-0.9058
N6365 X9.4247 Y-0.914
N6370 X9.4611 Y-0.9219
N6375 X9.4981 Y-0.9295
N6380 X9.5355 Y-0.937
N6385 X9.5733 Y-0.9443
N6390 X9.6116 Y-0.9512
N6395 X9.6501 Y-0.9579
N6400 X9.6889 Y-0.9641
N6405 X9.7278 Y-0.9699
N6410 X9.7668 Y-0.9753
N6415 X9.806 Y-0.9801
N6420 X9.8451 Y-0.9843
N6425 X9.8842 Y-0.9879
N6430 X9.9233 Y-0.9908
N6435 X9.9623 Y-0.993
N6440 X10.0011 Y-0.9944
N6445 X10.0396 Y-0.995
N6450 X10.0779 Y-0.9948
N6455 X10.1159 Y-0.9936
N6460 X10.1535 Y-0.9915
N6465 X10.1907 Y-0.9884
N6470 X10.2274 Y-0.9843
N6475 X10.2636 Y-0.9791
N6480 X10.2993 Y-0.9728
N6485 X10.3343 Y-0.9654
N6490 X10.37 Y-0.9566
N6495 G2 X10.7665 Y-1.5433 I0.0959 J-0.3625
N6500 G3 X10.2477 Y-4.6024 I2.7305 J-2.0366
N6505 G2 X9.4919 Y-4.9016 I-0.3887 J-0.1223
N6510 G1 X7.5999 Y-0.9749
N6515 G2 X7.5799 Y-0.9271 I0.459 J0.2212
N6520 G3 X7.5478 Y-0.9121 I-0.0235 J-0.0085
N6525 G1 X7.5243 Y-0.9206
N6530 X7.5207 Y-0.922 Z-0.7997
N6535 X7.5171 Y-0.9233 Z-0.7988
N6540 X7.5137 Y-0.9245 Z-0.7973
N6545 X7.5105 Y-0.9256 Z-0.7952
N6550 X7.5077 Y-0.9266 Z-0.7927
N6555 X7.5053 Y-0.9275 Z-0.7897
N6560 X7.5034 Y-0.9282 Z-0.7863
N6565 X7.502 Y-0.9287 Z-0.7827
N6570 X7.5011 Y-0.929 Z-0.7789
N6575 X7.5008 Y-0.9291 Z-0.775
N6580 G0 Z0.2
N6585 X8.0585 Y-5.6776
N6590 G1 Z-0.5606 F13.333
N6595 Z-0.675
N6600 X8.0582 Z-0.6789 F360.
N6605 X8.0573 Y-5.6775 Z-0.6827
N6610 X8.0558 Y-5.6774 Z-0.6863
N6615 X8.0537 Y-5.6773 Z-0.6897
N6620 X8.0512 Y-5.6772 Z-0.6927
N6625 X8.0482 Y-5.677 Z-0.6952
N6630 X8.0448 Y-5.6768 Z-0.6973
N6635 X8.0412 Y-5.6766 Z-0.6988
N6640 X8.0374 Y-5.6764 Z-0.6997
N6645 X8.0335 Y-5.6762 Z-0.7
N6650 X8.0086 Y-5.6748
N6655 G3 X7.9822 Y-5.6983 I-0.0014 J-0.025
N6660 G2 X7.3885 Y-5.954 I-0.3606 J0.0203
N6665 G3 X7.3127 Y-5.9246 I-0.0807 J-0.0955
N6670 X6.0154 Y-6.0788 I-0.1624 J-4.1691
N6675 G2 X5.8116 Y-6.0945 I-0.1411 J0.4991
N6680 G3 X1.0485 Y-6.2469 I-1.8878 J-15.5086
N6685 G2 X0.4595 Y-5.5777 I-0.0955 J0.5098
N6690 G3 X-0.0049 Y-2.5504 I-3.2529 J1.0503
N6695 G2 X0.7555 Y-1.8563 I0.4231 J0.3
N6700 G3 X6.0706 Y-5.0995 I12.716 J14.8627
N6705 X7.3423 Y-5.3983 I1.5786 J3.8621
N6710 X7.4209 Y-5.3776 I0.0092 J0.1246
N6715 G2 X7.9822 Y-5.6983 I0.2006 J-0.3004
N6720 G3 X8.0057 Y-5.7247 I0.025 J-0.0014
N6725 G1 X8.0307 Y-5.7261
N6730 X8.0346 Y-5.7263 Z-0.6997
N6735 X8.0384 Y-5.7265 Z-0.6988
N6740 X8.042 Y-5.7267 Z-0.6973
N6745 X8.0454 Y-5.7269 Z-0.6952
N6750 X8.0484 Y-5.7271 Z-0.6927
N6755 X8.0509 Y-5.7272 Z-0.6897
N6760 X8.0529 Y-5.7273 Z-0.6863
N6765 X8.0544 Y-5.7274 Z-0.6827
N6770 X8.0554 Y-5.7275 Z-0.6789
N6775 X8.0557 Z-0.675
N6780 G0 Z0.2
N6785 X8.0585 Y-5.6776
N6790 G1 Z-0.6606 F13.333
N6795 Z-0.775
N6800 X8.0582 Z-0.7789 F360.
N6805 X8.0573 Y-5.6775 Z-0.7827
N6810 X8.0558 Y-5.6774 Z-0.7863
N6815 X8.0537 Y-5.6773 Z-0.7897
N6820 X8.0512 Y-5.6772 Z-0.7927
N6825 X8.0482 Y-5.677 Z-0.7952
N6830 X8.0448 Y-5.6768 Z-0.7973
N6835 X8.0412 Y-5.6766 Z-0.7988
N6840 X8.0374 Y-5.6764 Z-0.7997
N6845 X8.0335 Y-5.6762 Z-0.8
N6850 X8.0086 Y-5.6748
N6855 G3 X7.9822 Y-5.6983 I-0.0014 J-0.025
N6860 G2 X7.3885 Y-5.954 I-0.3606 J0.0203
N6865 G3 X7.3127 Y-5.9246 I-0.0807 J-0.0955
N6870 X6.0154 Y-6.0788 I-0.1624 J-4.1691
N6875 G2 X5.8116 Y-6.0945 I-0.1411 J0.4991
N6880 G3 X1.0485 Y-6.2469 I-1.8878 J-15.5086
N6885 G2 X0.4595 Y-5.5777 I-0.0955 J0.5098
N6890 G3 X-0.0049 Y-2.5504 I-3.2529 J1.0503
N6895 G2 X0.7555 Y-1.8563 I0.4231 J0.3
N6900 G3 X6.0706 Y-5.0995 I12.716 J14.8627
N6905 X7.3423 Y-5.3983 I1.5786 J3.8621
N6910 X7.4209 Y-5.3776 I0.0092 J0.1246
N6915 G2 X7.9822 Y-5.6983 I0.2006 J-0.3004
N6920 G3 X8.0057 Y-5.7247 I0.025 J-0.0014
N6925 G1 X8.0307 Y-5.7261
N6930 X8.0346 Y-5.7263 Z-0.7997
N6935 X8.0384 Y-5.7265 Z-0.7988
N6940 X8.042 Y-5.7267 Z-0.7973
N6945 X8.0454 Y-5.7269 Z-0.7952
N6950 X8.0484 Y-5.7271 Z-0.7927
N6955 X8.0509 Y-5.7272 Z-0.7897
N6960 X8.0529 Y-5.7273 Z-0.7863
N6965 X8.0544 Y-5.7274 Z-0.7827
N6970 X8.0554 Y-5.7275 Z-0.7789
N6975 X8.0557 Z-0.775
N6980 G0 Z0.2
N6985 X10.0184 Y-5.4392
N6990 G1 Z-0.6606 F13.333
N6995 Z-0.775
N7000 X10.0183 Y-5.4395 Z-0.7789 F360.
N7005 X10.0181 Y-5.4404 Z-0.7827
N7010 X10.0178 Y-5.4418 Z-0.7863
N7015 X10.0174 Y-5.4438 Z-0.7897
N7020 X10.0168 Y-5.4463 Z-0.7927
N7025 X10.0162 Y-5.4493 Z-0.7952
N7030 X10.0155 Y-5.4525 Z-0.7973
N7035 X10.0147 Y-5.4561 Z-0.7988
N7040 X10.0139 Y-5.4598 Z-0.7997
N7045 X10.0131 Y-5.4636 Z-0.8
N7050 X10.0078 Y-5.488
N7055 G3 X10.027 Y-5.5178 I0.0244 J-0.0053
N7060 G2 X9.592 Y-5.9151 I-0.0764 J-0.3531
N7065 G3 X9.5563 Y-5.8421 I-0.124 J-0.0153
N7070 X8.4993 Y-5.0743 I-2.9502 J-2.9502
N7075 X2.5719 Y-3.1681 I-8.8757 J-17.4303
N7080 G2 X2.6008 Y-2.1389 I0.0782 J0.5128
N7085 G3 X5.1964 Y-0.5132 I-0.3245 J3.4029
N7090 G2 X6.0879 Y-0.5221 I0.4431 J-0.2697
N7095 G3 X9.0837 Y-4.2283 I13.5059 J7.853
N7100 G2 X9.2048 Y-4.3929 I-0.3489 J-0.3838
N7105 G3 X9.9355 Y-5.4759 I3.7814 J1.7631
N7110 X10.0072 Y-5.5141 I0.0914 J0.0852
N7115 G2 X10.027 Y-5.5178 I-0.0567 J-0.3568
N7120 G3 X10.0567 Y-5.4986 I0.0053 J0.0244
N7125 G1 X10.062 Y-5.4742
N7130 X10.0628 Y-5.4704 Z-0.7997
N7135 X10.0636 Y-5.4666 Z-0.7988
N7140 X10.0644 Y-5.4631 Z-0.7973
N7145 X10.0651 Y-5.4598 Z-0.7952
N7150 X10.0657 Y-5.4569 Z-0.7927
N7155 X10.0663 Y-5.4544 Z-0.7897
N7160 X10.0667 Y-5.4524 Z-0.7863
N7165 X10.067 Y-5.451 Z-0.7827
N7170 X10.0672 Y-5.4501 Z-0.7789
N7175 X10.0673 Y-5.4498 Z-0.775
N7180 G0 Z0.2
N7185 X10.0184 Y-5.4392
N7190 G1 Z-0.7606 F13.333
N7195 Z-0.875
N7200 X10.0183 Y-5.4395 Z-0.8789 F360.
N7205 X10.0181 Y-5.4404 Z-0.8827
N7210 X10.0178 Y-5.4418 Z-0.8863
N7215 X10.0174 Y-5.4438 Z-0.8897
N7220 X10.0168 Y-5.4463 Z-0.8927
N7225 X10.0162 Y-5.4493 Z-0.8952
N7230 X10.0155 Y-5.4525 Z-0.8973
N7235 X10.0147 Y-5.4561 Z-0.8988
N7240 X10.0139 Y-5.4598 Z-0.8997
N7245 X10.0131 Y-5.4636 Z-0.9
N7250 X10.0078 Y-5.488
N7255 G3 X10.027 Y-5.5178 I0.0244 J-0.0053
N7260 G2 X9.592 Y-5.9151 I-0.0764 J-0.3531
N7265 G3 X9.5563 Y-5.8421 I-0.124 J-0.0153
N7270 X8.4993 Y-5.0743 I-2.9502 J-2.9502
N7275 X2.5719 Y-3.1681 I-8.8757 J-17.4303
N7280 G2 X2.6008 Y-2.1389 I0.0782 J0.5128
N7285 G3 X5.1964 Y-0.5132 I-0.3245 J3.4029
N7290 G2 X6.0879 Y-0.5221 I0.4431 J-0.2697
N7295 G3 X9.0837 Y-4.2283 I13.5059 J7.853
N7300 G2 X9.2048 Y-4.3929 I-0.3489 J-0.3838
N7305 G3 X9.9355 Y-5.4759 I3.7814 J1.7631
N7310 X10.0072 Y-5.5141 I0.0914 J0.0852
N7315 G2 X10.027 Y-5.5178 I-0.0567 J-0.3568
N7320 G3 X10.0567 Y-5.4986 I0.0053 J0.0244
N7325 G1 X10.062 Y-5.4742
N7330 X10.0628 Y-5.4704 Z-0.8997
N7335 X10.0636 Y-5.4666 Z-0.8988
N7340 X10.0644 Y-5.4631 Z-0.8973
N7345 X10.0651 Y-5.4598 Z-0.8952
N7350 X10.0657 Y-5.4569 Z-0.8927
N7355 X10.0663 Y-5.4544 Z-0.8897
N7360 X10.0667 Y-5.4524 Z-0.8863
N7365 X10.067 Y-5.451 Z-0.8827
N7370 X10.0672 Y-5.4501 Z-0.8789
N7375 X10.0673 Y-5.4498 Z-0.875
N7380 G0 Z0.2
N7385 X7.5178 Y-0.9761
N7390 G1 Z-0.7606 F13.333
N7395 Z-0.875
N7400 X7.5181 Y-0.976 Z-0.8789 F360.
N7405 X7.519 Y-0.9757 Z-0.8827
N7410 X7.5204 Y-0.9752 Z-0.8863
N7415 X7.5223 Y-0.9745 Z-0.8897
N7420 X7.5247 Y-0.9737 Z-0.8927
N7425 X7.5275 Y-0.9726 Z-0.8952
N7430 X7.5307 Y-0.9715 Z-0.8973
N7435 X7.5341 Y-0.9703 Z-0.8988
N7440 X7.5377 Y-0.969 Z-0.8997
N7445 X7.5414 Y-0.9676 Z-0.9
N7450 X7.5649 Y-0.9591
N7455 G3 X7.5799 Y-0.9271 I-0.0085 J0.0235
N7460 G2 X8.4608 Y-0.4405 I0.4791 J0.1734
N7465 G1 X8.474 Y-0.4569
N7470 X8.4871 Y-0.4724
N7475 X8.5009 Y-0.4876
N7480 X8.5154 Y-0.5028
N7485 X8.5305 Y-0.5178
N7490 X8.5463 Y-0.5326
N7495 X8.5627 Y-0.5473
N7500 X8.5798 Y-0.5618
N7505 X8.5976 Y-0.5761
N7510 X8.6162 Y-0.5903
N7515 X8.6353 Y-0.6043
N7520 X8.655 Y-0.6181
N7525 X8.6755 Y-0.6317
N7530 X8.6966 Y-0.6452
N7535 X8.7184 Y-0.6585
N7540 X8.7408 Y-0.6715
N7545 X8.7639 Y-0.6844
N7550 X8.7877 Y-0.6971
N7555 X8.812 Y-0.7095
N7560 X8.837 Y-0.7218
N7565 X8.8626 Y-0.7339
N7570 X8.8889 Y-0.7457
N7575 X8.9158 Y-0.7574
N7580 X8.9432 Y-0.7688
N7585 X8.9713 Y-0.78
N7590 X9. Y-0.791
N7595 X9.0293 Y-0.8018
N7600 X9.0591 Y-0.8124
N7605 X9.0896 Y-0.8227
N7610 X9.1206 Y-0.8328
N7615 X9.1522 Y-0.8427
N7620 X9.1844 Y-0.8524
N7625 X9.2171 Y-0.8619
N7630 X9.2503 Y-0.8711
N7635 X9.2842 Y-0.8801
N7640 X9.3185 Y-0.8889
N7645 X9.3534 Y-0.8975
N7650 X9.3888 Y-0.9058
N7655 X9.4247 Y-0.914
N7660 X9.4611 Y-0.9219
N7665 X9.4981 Y-0.9295
N7670 X9.5355 Y-0.937
N7675 X9.5733 Y-0.9443
N7680 X9.6116 Y-0.9512
N7685 X9.6501 Y-0.9579
N7690 X9.6889 Y-0.9641
N7695 X9.7278 Y-0.9699
N7700 X9.7668 Y-0.9753
N7705 X9.806 Y-0.9801
N7710 X9.8451 Y-0.9843
N7715 X9.8842 Y-0.9879
N7720 X9.9233 Y-0.9908
N7725 X9.9623 Y-0.993
N7730 X10.0011 Y-0.9944
N7735 X10.0396 Y-0.995
N7740 X10.0779 Y-0.9948
N7745 X10.1159 Y-0.9936
N7750 X10.1535 Y-0.9915
N7755 X10.1907 Y-0.9884
N7760 X10.2274 Y-0.9843
N7765 X10.2636 Y-0.9791
N7770 X10.2993 Y-0.9728
N7775 X10.3343 Y-0.9654
N7780 X10.37 Y-0.9566
N7785 G2 X10.7665 Y-1.5433 I0.0959 J-0.3625
N7790 G3 X10.2477 Y-4.6024 I2.7305 J-2.0366
N7795 G2 X9.4919 Y-4.9016 I-0.3887 J-0.1223
N7800 G1 X7.5999 Y-0.9749
N7805 G2 X7.5799 Y-0.9271 I0.459 J0.2212
N7810 G3 X7.5478 Y-0.9121 I-0.0235 J-0.0085
N7815 G1 X7.5243 Y-0.9206
N7820 X7.5207 Y-0.922 Z-0.8997
N7825 X7.5171 Y-0.9233 Z-0.8988
N7830 X7.5137 Y-0.9245 Z-0.8973
N7835 X7.5105 Y-0.9256 Z-0.8952
N7840 X7.5077 Y-0.9266 Z-0.8927
N7845 X7.5053 Y-0.9275 Z-0.8897
N7850 X7.5034 Y-0.9282 Z-0.8863
N7855 X7.502 Y-0.9287 Z-0.8827
N7860 X7.5011 Y-0.929 Z-0.8789
N7865 X7.5008 Y-0.9291 Z-0.875
N7870 G0 Z0.2
N7875 X7.5178 Y-0.9761
N7880 G1 Z-0.8606 F13.333
N7885 Z-0.975
N7890 X7.5181 Y-0.976 Z-0.9789 F360.
N7895 X7.519 Y-0.9757 Z-0.9827
N7900 X7.5204 Y-0.9752 Z-0.9863
N7905 X7.5223 Y-0.9745 Z-0.9897
N7910 X7.5247 Y-0.9737 Z-0.9927
N7915 X7.5275 Y-0.9726 Z-0.9952
N7920 X7.5307 Y-0.9715 Z-0.9973
N7925 X7.5341 Y-0.9703 Z-0.9988
N7930 X7.5377 Y-0.969 Z-0.9997
N7935 X7.5414 Y-0.9676 Z-1.
N7940 X7.5649 Y-0.9591
N7945 G3 X7.5799 Y-0.9271 I-0.0085 J0.0235
N7950 G2 X8.4608 Y-0.4405 I0.4791 J0.1734
N7955 G1 X8.474 Y-0.4569
N7960 X8.4871 Y-0.4724
N7965 X8.5009 Y-0.4876
N7970 X8.5154 Y-0.5028
N7975 X8.5305 Y-0.5178
N7980 X8.5463 Y-0.5326
N7985 X8.5627 Y-0.5473
N7990 X8.5798 Y-0.5618
N7995 X8.5976 Y-0.5761
N8000 X8.6162 Y-0.5903
N8005 X8.6353 Y-0.6043
N8010 X8.655 Y-0.6181
N8015 X8.6755 Y-0.6317
N8020 X8.6966 Y-0.6452
N8025 X8.7184 Y-0.6585
N8030 X8.7408 Y-0.6715
N8035 X8.7438 Y-0.6732
N8040 Z-0.93
N8045 X8.7639 Y-0.6844
N8050 X8.7877 Y-0.6971
N8055 X8.812 Y-0.7095
N8060 X8.837 Y-0.7218
N8065 X8.8626 Y-0.7339
N8070 X8.8889 Y-0.7457
N8075 X8.9158 Y-0.7574
N8080 X8.9432 Y-0.7688
N8085 X8.9713 Y-0.78
N8090 X9. Y-0.791
N8095 X9.0293 Y-0.8018
N8100 X9.0591 Y-0.8124
N8105 X9.0896 Y-0.8227
N8110 X9.1118 Y-0.83
N8115 Z-1. F13.333
N8120 X9.1206 Y-0.8328 F360.
N8125 X9.1522 Y-0.8427
N8130 X9.1844 Y-0.8524
N8135 X9.2171 Y-0.8619
N8140 X9.2503 Y-0.8711
N8145 X9.2842 Y-0.8801
N8150 X9.3185 Y-0.8889
N8155 X9.3534 Y-0.8975
N8160 X9.3888 Y-0.9058
N8165 X9.4247 Y-0.914
N8170 X9.4611 Y-0.9219
N8175 X9.4981 Y-0.9295
N8180 X9.5355 Y-0.937
N8185 X9.5733 Y-0.9443
N8190 X9.6116 Y-0.9512
N8195 X9.6501 Y-0.9579
N8200 X9.6889 Y-0.9641
N8205 X9.7278 Y-0.9699
N8210 X9.7668 Y-0.9753
N8215 X9.806 Y-0.9801
N8220 X9.8451 Y-0.9843
N8225 X9.8842 Y-0.9879
N8230 X9.9233 Y-0.9908
N8235 X9.9623 Y-0.993
N8240 X10.0011 Y-0.9944
N8245 X10.0396 Y-0.995
N8250 X10.0779 Y-0.9948
N8255 X10.1159 Y-0.9936
N8260 X10.1535 Y-0.9915
N8265 X10.1907 Y-0.9884
N8270 X10.2274 Y-0.9843
N8275 X10.2636 Y-0.9791
N8280 X10.2993 Y-0.9728
N8285 X10.3343 Y-0.9654
N8290 X10.37 Y-0.9566
N8295 G2 X10.7665 Y-1.5433 I0.0959 J-0.3625
N8300 G3 X10.4048 Y-2.1511 I2.7305 J-2.0366
N8305 G1 Z-0.93
N8310 G3 X10.2586 Y-2.5234 I3.0922 J-1.4288
N8315 G1 Z-1. F13.333
N8320 G3 X10.2477 Y-4.6024 I3.2384 J-1.0565 F360.
N8325 G2 X9.7897 Y-5.1263 I-0.3887 J-0.1223
N8330 G1 Z-0.93
N8335 G2 X9.4919 Y-4.9016 I0.0693 J0.4016
N8340 G1 X9.4789 Y-4.8745
N8345 Z-1. F13.333
N8350 X9.306 Y-4.5157 F360.
N8355 Z-0.93
N8360 X9.1319 Y-4.1545
N8365 Z-1. F13.333
N8370 X8.2778 Y-2.3817 F360.
N8375 Z-0.93
N8380 X8.1042 Y-2.0214
N8385 Z-1. F13.333
N8390 X7.5999 Y-0.9749 F360.
N8395 G2 X7.5799 Y-0.9271 I0.459 J0.2212
N8400 G3 X7.5478 Y-0.9121 I-0.0235 J-0.0085
N8405 G1 X7.5243 Y-0.9206
N8410 X7.5207 Y-0.922 Z-0.9997
N8415 X7.5171 Y-0.9233 Z-0.9988
N8420 X7.5137 Y-0.9245 Z-0.9973
N8425 X7.5105 Y-0.9256 Z-0.9952
N8430 X7.5077 Y-0.9266 Z-0.9927
N8435 X7.5053 Y-0.9275 Z-0.9897
N8440 X7.5034 Y-0.9282 Z-0.9863
N8445 X7.502 Y-0.9287 Z-0.9827
N8450 X7.5011 Y-0.929 Z-0.9789
N8455 X7.5008 Y-0.9291 Z-0.975
N8460 G0 Z0.2
N8465 X8.0585 Y-5.6776
N8470 G1 Z-0.7606 F13.333
N8475 Z-0.875
N8480 X8.0582 Z-0.8789 F360.
N8485 X8.0573 Y-5.6775 Z-0.8827
N8490 X8.0558 Y-5.6774 Z-0.8863
N8495 X8.0537 Y-5.6773 Z-0.8897
N8500 X8.0512 Y-5.6772 Z-0.8927
N8505 X8.0482 Y-5.677 Z-0.8952
N8510 X8.0448 Y-5.6768 Z-0.8973
N8515 X8.0412 Y-5.6766 Z-0.8988
N8520 X8.0374 Y-5.6764 Z-0.8997
N8525 X8.0335 Y-5.6762 Z-0.9
N8530 X8.0086 Y-5.6748
N8535 G3 X7.9822 Y-5.6983 I-0.0014 J-0.025
N8540 G2 X7.3885 Y-5.954 I-0.3606 J0.0203
N8545 G3 X7.3127 Y-5.9246 I-0.0807 J-0.0955
N8550 X6.0154 Y-6.0788 I-0.1624 J-4.1691
N8555 G2 X5.8116 Y-6.0945 I-0.1411 J0.4991
N8560 G3 X1.0485 Y-6.2469 I-1.8878 J-15.5086
N8565 G2 X0.4595 Y-5.5777 I-0.0955 J0.5098
N8570 G3 X-0.0049 Y-2.5504 I-3.2529 J1.0503
N8575 G2 X0.7555 Y-1.8563 I0.4231 J0.3
N8580 G3 X6.0706 Y-5.0995 I12.716 J14.8627
N8585 X7.3423 Y-5.3983 I1.5786 J3.8621
N8590 X7.4209 Y-5.3776 I0.0092 J0.1246
N8595 G2 X7.9822 Y-5.6983 I0.2006 J-0.3004
N8600 G3 X8.0057 Y-5.7247 I0.025 J-0.0014
N8605 G1 X8.0307 Y-5.7261
N8610 X8.0346 Y-5.7263 Z-0.8997
N8615 X8.0384 Y-5.7265 Z-0.8988
N8620 X8.042 Y-5.7267 Z-0.8973
N8625 X8.0454 Y-5.7269 Z-0.8952
N8630 X8.0484 Y-5.7271 Z-0.8927
N8635 X8.0509 Y-5.7272 Z-0.8897
N8640 X8.0529 Y-5.7273 Z-0.8863
N8645 X8.0544 Y-5.7274 Z-0.8827
N8650 X8.0554 Y-5.7275 Z-0.8789
N8655 X8.0557 Z-0.875
N8660 G0 Z0.2
N8665 X8.0585 Y-5.6776
N8670 G1 Z-0.8606 F13.333
N8675 Z-0.975
N8680 X8.0582 Z-0.9789 F360.
N8685 X8.0573 Y-5.6775 Z-0.9827
N8690 X8.0558 Y-5.6774 Z-0.9863
N8695 X8.0537 Y-5.6773 Z-0.9897
N8700 X8.0512 Y-5.6772 Z-0.9927
N8705 X8.0482 Y-5.677 Z-0.9952
N8710 X8.0448 Y-5.6768 Z-0.9973
N8715 X8.0412 Y-5.6766 Z-0.9988
N8720 X8.0374 Y-5.6764 Z-0.9997
N8725 X8.0335 Y-5.6762 Z-1.
N8730 X8.0086 Y-5.6748
N8735 G3 X7.9822 Y-5.6983 I-0.0014 J-0.025
N8740 G2 X7.3885 Y-5.954 I-0.3606 J0.0203
N8745 G3 X7.3127 Y-5.9246 I-0.0807 J-0.0955
N8750 X6.1695 Y-6.0383 I-0.1624 J-4.1691
N8755 G1 Z-0.93
N8760 G3 X6.0154 Y-6.0788 I0.9808 J-4.0553
N8765 G2 X5.8116 Y-6.0945 I-0.1411 J0.4991
N8770 G3 X5.7719 Y-6.0897 I-1.8878 J-15.5086
N8775 G1 Z-1. F13.333
N8780 G3 X2.8689 Y-6.0157 I-1.8481 J-15.5133 F360.
N8785 G1 Z-0.93
N8790 G3 X2.4702 Y-6.0478 I1.0549 J-15.5874
N8795 G1 Z-1. F13.333
N8800 G3 X1.0485 Y-6.2469 I1.4536 J-15.5553 F360.
N8805 G2 X0.4595 Y-5.5777 I-0.0955 J0.5098
N8810 G3 X0.6098 Y-4.2077 I-3.2529 J1.0503
N8815 G1 Z-0.93
N8820 G3 X0.5492 Y-3.8123 I-3.4033 J-0.3197
N8825 G1 Z-1. F13.333
N8830 G3 X-0.0049 Y-2.5504 I-3.3427 J-0.715 F360.
N8835 G2 X0.7555 Y-1.8563 I0.4231 J0.3
N8840 G3 X0.9896 Y-2.0534 I12.716 J14.8627
N8845 G1 Z-0.93
N8850 G3 X1.3002 Y-2.3055 I12.4818 J15.0598
N8855 G1 Z-1. F13.333
N8860 G3 X3.676 Y-3.9242 I12.1713 J15.3119 F360.
N8865 G1 Z-0.93
N8870 G3 X4.0242 Y-4.1209 I9.7955 J16.9305
N8875 G1 Z-1. F13.333
N8880 G3 X6.0706 Y-5.0995 I9.4472 J17.1273 F360.
N8885 X6.63 Y-5.2832 I1.5786 J3.8621
N8890 G1 Z-0.93
N8895 G3 X7.0221 Y-5.3622 I1.0192 J4.0458
N8900 G1 Z-1. F13.333
N8905 G3 X7.3423 Y-5.3983 I0.6271 J4.1248 F360.
N8910 X7.4209 Y-5.3776 I0.0092 J0.1246
N8915 G2 X7.9822 Y-5.6983 I0.2006 J-0.3004
N8920 G3 X8.0057 Y-5.7247 I0.025 J-0.0014
N8925 G1 X8.0307 Y-5.7261
N8930 X8.0346 Y-5.7263 Z-0.9997
N8935 X8.0384 Y-5.7265 Z-0.9988
N8940 X8.042 Y-5.7267 Z-0.9973
N8945 X8.0454 Y-5.7269 Z-0.9952
N8950 X8.0484 Y-5.7271 Z-0.9927
N8955 X8.0509 Y-5.7272 Z-0.9897
N8960 X8.0529 Y-5.7273 Z-0.9863
N8965 X8.0544 Y-5.7274 Z-0.9827
N8970 X8.0554 Y-5.7275 Z-0.9789
N8975 X8.0557 Z-0.975
N8980 G0 Z0.2
N8985 X10.0184 Y-5.4392
N8990 G1 Z-0.8606 F13.333
N8995 Z-0.975
N9000 X10.0183 Y-5.4395 Z-0.9789 F360.
N9005 X10.0181 Y-5.4404 Z-0.9827
N9010 X10.0178 Y-5.4418 Z-0.9863
N9015 X10.0174 Y-5.4438 Z-0.9897
N9020 X10.0168 Y-5.4463 Z-0.9927
N9025 X10.0162 Y-5.4493 Z-0.9952
N9030 X10.0155 Y-5.4525 Z-0.9973
N9035 X10.0147 Y-5.4561 Z-0.9988
N9040 X10.0139 Y-5.4598 Z-0.9997
N9045 X10.0131 Y-5.4636 Z-1.
N9050 X10.0078 Y-5.488
N9055 G3 X10.027 Y-5.5178 I0.0244 J-0.0053
N9060 G2 X9.592 Y-5.9151 I-0.0764 J-0.3531
N9065 G3 X9.5563 Y-5.8421 I-0.124 J-0.0153
N9070 X9.3219 Y-5.6249 I-2.9502 J-2.9502
N9075 G1 Z-0.93
N9080 G3 X9.0061 Y-5.3794 I-2.7157 J-3.1674
N9085 G1 Z-1. F13.333
N9090 G3 X8.4993 Y-5.0743 I-2.3999 J-3.4129 F360.
N9095 X6.4253 Y-4.1653 I-8.8757 J-17.4303
N9100 G1 Z-0.93
N9105 G3 X6.0489 Y-4.03 I-6.8017 J-18.3394
N9110 G1 Z-1. F13.333
N9115 G3 X3.2726 Y-3.288 I-6.4253 J-18.4746 F360.
N9120 G1 Z-0.93
N9125 G3 X2.8789 Y-3.2174 I-3.649 J-19.2167
N9130 G1 Z-1. F13.333
N9135 G3 X2.5719 Y-3.1681 I-3.2553 J-19.2873 F360.
N9140 G2 X2.6008 Y-2.1389 I0.0782 J0.5128
N9145 G3 X3.916 Y-1.7355 I-0.3245 J3.4029
N9150 G1 Z-0.93
N9155 G3 X4.2551 Y-1.5234 I-1.6396 J2.9994
N9160 G1 Z-1. F13.333
N9165 G3 X5.1964 Y-0.5132 I-1.9788 J2.7873 F360.
N9170 G2 X6.0879 Y-0.5221 I0.4431 J-0.2697
N9175 G3 X6.8655 Y-1.7282 I13.5059 J7.853
N9180 G1 Z-0.93
N9185 G3 X7.1016 Y-2.0511 I12.7284 J9.0591
N9190 G1 Z-1. F13.333
N9195 G3 X9.0525 Y-4.1999 I12.4923 J9.382 F360.
N9200 G1 Z-0.93
N9205 G3 X9.0837 Y-4.2283 I10.5413 J11.5308
N9210 G2 X9.2048 Y-4.3929 I-0.3489 J-0.3838
N9215 G3 X9.2739 Y-4.5341 I3.7814 J1.7631
N9220 G1 Z-1. F13.333
N9225 G3 X9.4735 Y-4.8811 I3.7123 J1.9044 F360.
N9230 G1 Z-0.93
N9235 G3 X9.7143 Y-5.2187 I3.5127 J2.2513
N9240 G1 Z-1. F13.333
N9245 G3 X9.9355 Y-5.4759 I3.2719 J2.5889 F360.
N9250 X10.0072 Y-5.5141 I0.0914 J0.0852
N9255 G2 X10.027 Y-5.5178 I-0.0567 J-0.3568
N9260 G3 X10.0567 Y-5.4986 I0.0053 J0.0244
N9265 G1 X10.062 Y-5.4742
N9270 X10.0628 Y-5.4704 Z-0.9997
N9275 X10.0636 Y-5.4666 Z-0.9988
N9280 X10.0644 Y-5.4631 Z-0.9973
N9285 X10.0651 Y-5.4598 Z-0.9952
N9290 X10.0657 Y-5.4569 Z-0.9927
N9295 X10.0663 Y-5.4544 Z-0.9897
N9300 X10.0667 Y-5.4524 Z-0.9863
N9305 X10.067 Y-5.451 Z-0.9827
N9310 X10.0672 Y-5.4501 Z-0.9789
N9315 X10.0673 Y-5.4498 Z-0.975
N9320 G0 Z0.2
N9325 X10.0184 Y-5.4392
N9330 G1 Z-0.9606 F13.333
N9335 Z-1.055
N9340 X10.0183 Y-5.4395 Z-1.0589 F360.
N9345 X10.0181 Y-5.4404 Z-1.0627
N9350 X10.0178 Y-5.4418 Z-1.0663
N9355 X10.0174 Y-5.4438 Z-1.0697
N9360 X10.0168 Y-5.4463 Z-1.0727
N9365 X10.0162 Y-5.4493 Z-1.0752
N9370 X10.0155 Y-5.4525 Z-1.0773
N9375 X10.0147 Y-5.4561 Z-1.0788
N9380 X10.0139 Y-5.4598 Z-1.0797
N9385 X10.0131 Y-5.4636 Z-1.08
N9390 X10.0078 Y-5.488
N9395 G3 X10.027 Y-5.5178 I0.0244 J-0.0053
N9400 G2 X9.592 Y-5.9151 I-0.0764 J-0.3531
N9405 G3 X9.5563 Y-5.8421 I-0.124 J-0.0153
N9410 X9.3219 Y-5.6249 I-2.9502 J-2.9502
N9415 G1 Z-0.93
N9420 G3 X9.0061 Y-5.3794 I-2.7157 J-3.1674
N9425 G1 Z-1.08 F13.333
N9430 G3 X8.4993 Y-5.0743 I-2.3999 J-3.4129 F360.
N9435 X6.4253 Y-4.1653 I-8.8757 J-17.4303
N9440 G1 Z-0.93
N9445 G3 X6.0489 Y-4.03 I-6.8017 J-18.3394
N9450 G1 Z-1.08 F13.333
N9455 G3 X3.2726 Y-3.288 I-6.4253 J-18.4746 F360.
N9460 G1 Z-0.93
N9465 G3 X2.8789 Y-3.2174 I-3.649 J-19.2167
N9470 G1 Z-1.08 F13.333
N9475 G3 X2.5719 Y-3.1681 I-3.2553 J-19.2873 F360.
N9480 G2 X2.6008 Y-2.1389 I0.0782 J0.5128
N9485 G3 X3.916 Y-1.7355 I-0.3245 J3.4029
N9490 G1 Z-0.93
N9495 G3 X4.2551 Y-1.5234 I-1.6396 J2.9994
N9500 G1 Z-1.08 F13.333
N9505 G3 X5.1964 Y-0.5132 I-1.9788 J2.7873 F360.
N9510 G2 X6.0879 Y-0.5221 I0.4431 J-0.2697
N9515 G3 X6.8655 Y-1.7282 I13.5059 J7.853
N9520 G1 Z-0.93
N9525 G3 X7.1016 Y-2.0511 I12.7284 J9.0591
N9530 G1 Z-1.08 F13.333
N9535 G3 X9.0525 Y-4.1999 I12.4923 J9.382 F360.
N9540 G1 Z-0.93
N9545 G3 X9.0837 Y-4.2283 I10.5413 J11.5308
N9550 G2 X9.2048 Y-4.3929 I-0.3489 J-0.3838
N9555 G3 X9.2739 Y-4.5341 I3.7814 J1.7631
N9560 G1 Z-1.08 F13.333
N9565 G3 X9.4735 Y-4.8811 I3.7123 J1.9044 F360.
N9570 G1 Z-0.93
N9575 G3 X9.7143 Y-5.2187 I3.5127 J2.2513
N9580 G1 Z-1.08 F13.333
N9585 G3 X9.9355 Y-5.4759 I3.2719 J2.5889 F360.
N9590 X10.0072 Y-5.5141 I0.0914 J0.0852
N9595 G2 X10.027 Y-5.5178 I-0.0567 J-0.3568
N9600 G3 X10.0567 Y-5.4986 I0.0053 J0.0244
N9605 G1 X10.062 Y-5.4742
N9610 X10.0628 Y-5.4704 Z-1.0797
N9615 X10.0636 Y-5.4666 Z-1.0788
N9620 X10.0644 Y-5.4631 Z-1.0773
N9625 X10.0651 Y-5.4598 Z-1.0752
N9630 X10.0657 Y-5.4569 Z-1.0727
N9635 X10.0663 Y-5.4544 Z-1.0697
N9640 X10.0667 Y-5.4524 Z-1.0663
N9645 X10.067 Y-5.451 Z-1.0627
N9650 X10.0672 Y-5.4501 Z-1.0589
N9655 X10.0673 Y-5.4498 Z-1.055
N9660 G0 Z0.2
N9665 X7.5178 Y-0.9761
N9670 G1 Z-0.9606 F13.333
N9675 Z-1.055
N9680 X7.5181 Y-0.976 Z-1.0589 F360.
N9685 X7.519 Y-0.9757 Z-1.0627
N9690 X7.5204 Y-0.9752 Z-1.0663
N9695 X7.5223 Y-0.9745 Z-1.0697
N9700 X7.5247 Y-0.9737 Z-1.0727
N9705 X7.5275 Y-0.9726 Z-1.0752
N9710 X7.5307 Y-0.9715 Z-1.0773
N9715 X7.5341 Y-0.9703 Z-1.0788
N9720 X7.5377 Y-0.969 Z-1.0797
N9725 X7.5414 Y-0.9676 Z-1.08
N9730 X7.5649 Y-0.9591
N9735 G3 X7.5799 Y-0.9271 I-0.0085 J0.0235
N9740 G2 X8.4608 Y-0.4405 I0.4791 J0.1734
N9745 G1 X8.474 Y-0.4569
N9750 X8.4871 Y-0.4724
N9755 X8.5009 Y-0.4876
N9760 X8.5154 Y-0.5028
N9765 X8.5305 Y-0.5178
N9770 X8.5463 Y-0.5326
N9775 X8.5627 Y-0.5473
N9780 X8.5798 Y-0.5618
N9785 X8.5976 Y-0.5761
N9790 X8.6162 Y-0.5903
N9795 X8.6353 Y-0.6043
N9800 X8.655 Y-0.6181
N9805 X8.6755 Y-0.6317
N9810 X8.6966 Y-0.6452
N9815 X8.7184 Y-0.6585
N9820 X8.7408 Y-0.6715
N9825 X8.7438 Y-0.6732
N9830 Z-0.93
N9835 X8.7639 Y-0.6844
N9840 X8.7877 Y-0.6971
N9845 X8.812 Y-0.7095
N9850 X8.837 Y-0.7218
N9855 X8.8626 Y-0.7339
N9860 X8.8889 Y-0.7457
N9865 X8.9158 Y-0.7574
N9870 X8.9432 Y-0.7688
N9875 X8.9713 Y-0.78
N9880 X9. Y-0.791
N9885 X9.0293 Y-0.8018
N9890 X9.0591 Y-0.8124
N9895 X9.0896 Y-0.8227
N9900 X9.1118 Y-0.83
N9905 Z-1.08 F13.333
N9910 X9.1206 Y-0.8328 F360.
N9915 X9.1522 Y-0.8427
N9920 X9.1844 Y-0.8524
N9925 X9.2171 Y-0.8619
N9930 X9.2503 Y-0.8711
N9935 X9.2842 Y-0.8801
N9940 X9.3185 Y-0.8889
N9945 X9.3534 Y-0.8975
N9950 X9.3888 Y-0.9058
N9955 X9.4247 Y-0.914
N9960 X9.4611 Y-0.9219
N9965 X9.4981 Y-0.9295
N9970 X9.5355 Y-0.937
N9975 X9.5733 Y-0.9443
N9980 X9.6116 Y-0.9512
N9985 X9.6501 Y-0.9579
N9990 X9.6889 Y-0.9641
N9995 X9.7278 Y-0.9699
N10000 X9.7668 Y-0.9753
N10005 X9.806 Y-0.9801
N10010 X9.8451 Y-0.9843
N10015 X9.8842 Y-0.9879
N10020 X9.9233 Y-0.9908
N10025 X9.9623 Y-0.993
N10030 X10.0011 Y-0.9944
N10035 X10.0396 Y-0.995
N10040 X10.0779 Y-0.9948
N10045 X10.1159 Y-0.9936
N10050 X10.1535 Y-0.9915
N10055 X10.1907 Y-0.9884
N10060 X10.2274 Y-0.9843
N10065 X10.2636 Y-0.9791
N10070 X10.2993 Y-0.9728
N10075 X10.3343 Y-0.9654
N10080 X10.37 Y-0.9566
N10085 G2 X10.7665 Y-1.5433 I0.0959 J-0.3625
N10090 G3 X10.4048 Y-2.1511 I2.7305 J-2.0366
N10095 G1 Z-0.93
N10100 G3 X10.2586 Y-2.5234 I3.0922 J-1.4288
N10105 G1 Z-1.08 F13.333
N10110 G3 X10.2477 Y-4.6024 I3.2384 J-1.0565 F360.
N10115 G2 X9.7897 Y-5.1263 I-0.3887 J-0.1223
N10120 G1 Z-0.93
N10125 G2 X9.4919 Y-4.9016 I0.0693 J0.4016
N10130 G1 X9.4789 Y-4.8745
N10135 Z-1.08 F13.333
N10140 X9.306 Y-4.5157 F360.
N10145 Z-0.93
N10150 X9.1319 Y-4.1545
N10155 Z-1.08 F13.333
N10160 X8.2778 Y-2.3817 F360.
N10165 Z-0.93
N10170 X8.1042 Y-2.0214
N10175 Z-1.08 F13.333
N10180 X7.5999 Y-0.9749 F360.
N10185 G2 X7.5799 Y-0.9271 I0.459 J0.2212
N10190 G3 X7.5478 Y-0.9121 I-0.0235 J-0.0085
N10195 G1 X7.5243 Y-0.9206
N10200 X7.5207 Y-0.922 Z-1.0797
N10205 X7.5171 Y-0.9233 Z-1.0788
N10210 X7.5137 Y-0.9245 Z-1.0773
N10215 X7.5105 Y-0.9256 Z-1.0752
N10220 X7.5077 Y-0.9266 Z-1.0727
N10225 X7.5053 Y-0.9275 Z-1.0697
N10230 X7.5034 Y-0.9282 Z-1.0663
N10235 X7.502 Y-0.9287 Z-1.0627
N10240 X7.5011 Y-0.929 Z-1.0589
N10245 X7.5008 Y-0.9291 Z-1.055
N10250 G0 Z0.2
N10255 X8.0585 Y-5.6776
N10260 G1 Z-0.9606 F13.333
N10265 Z-1.055
N10270 X8.0582 Z-1.0589 F360.
N10275 X8.0573 Y-5.6775 Z-1.0627
N10280 X8.0558 Y-5.6774 Z-1.0663
N10285 X8.0537 Y-5.6773 Z-1.0697
N10290 X8.0512 Y-5.6772 Z-1.0727
N10295 X8.0482 Y-5.677 Z-1.0752
N10300 X8.0448 Y-5.6768 Z-1.0773
N10305 X8.0412 Y-5.6766 Z-1.0788
N10310 X8.0374 Y-5.6764 Z-1.0797
N10315 X8.0335 Y-5.6762 Z-1.08
N10320 X8.0086 Y-5.6748
N10325 G3 X7.9822 Y-5.6983 I-0.0014 J-0.025
N10330 G2 X7.3885 Y-5.954 I-0.3606 J0.0203
N10335 G3 X7.3127 Y-5.9246 I-0.0807 J-0.0955
N10340 X6.1695 Y-6.0383 I-0.1624 J-4.1691
N10345 G1 Z-0.93
N10350 G3 X6.0154 Y-6.0788 I0.9808 J-4.0553
N10355 G2 X5.8116 Y-6.0945 I-0.1411 J0.4991
N10360 G3 X5.7719 Y-6.0897 I-1.8878 J-15.5086
N10365 G1 Z-1.08 F13.333
N10370 G3 X2.8689 Y-6.0157 I-1.8481 J-15.5133 F360.
N10375 G1 Z-0.93
N10380 G3 X2.4702 Y-6.0478 I1.0549 J-15.5874
N10385 G1 Z-1.08 F13.333
N10390 G3 X1.0485 Y-6.2469 I1.4536 J-15.5553 F360.
N10395 G2 X0.4595 Y-5.5777 I-0.0955 J0.5098
N10400 G3 X0.6098 Y-4.2077 I-3.2529 J1.0503
N10405 G1 Z-0.93
N10410 G3 X0.5492 Y-3.8123 I-3.4033 J-0.3197
N10415 G1 Z-1.08 F13.333
N10420 G3 X-0.0049 Y-2.5504 I-3.3427 J-0.715 F360.
N10425 G2 X0.7555 Y-1.8563 I0.4231 J0.3
N10430 G3 X0.9896 Y-2.0534 I12.716 J14.8627
N10435 G1 Z-0.93
N10440 G3 X1.3002 Y-2.3055 I12.4818 J15.0598
N10445 G1 Z-1.08 F13.333
N10450 G3 X3.676 Y-3.9242 I12.1713 J15.3119 F360.
N10455 G1 Z-0.93
N10460 G3 X4.0242 Y-4.1209 I9.7955 J16.9305
N10465 G1 Z-1.08 F13.333
N10470 G3 X6.0706 Y-5.0995 I9.4472 J17.1273 F360.
N10475 X6.63 Y-5.2832 I1.5786 J3.8621
N10480 G1 Z-0.93
N10485 G3 X7.0221 Y-5.3622 I1.0192 J4.0458
N10490 G1 Z-1.08 F13.333
N10495 G3 X7.3423 Y-5.3983 I0.6271 J4.1248 F360.
N10500 X7.4209 Y-5.3776 I0.0092 J0.1246
N10505 G2 X7.9822 Y-5.6983 I0.2006 J-0.3004
N10510 G3 X8.0057 Y-5.7247 I0.025 J-0.0014
N10515 G1 X8.0307 Y-5.7261
N10520 X8.0346 Y-5.7263 Z-1.0797
N10525 X8.0384 Y-5.7265 Z-1.0788
N10530 X8.042 Y-5.7267 Z-1.0773
N10535 X8.0454 Y-5.7269 Z-1.0752
N10540 X8.0484 Y-5.7271 Z-1.0727
N10545 X8.0509 Y-5.7272 Z-1.0697
N10550 X8.0529 Y-5.7273 Z-1.0663
N10555 X8.0544 Y-5.7274 Z-1.0627
N10560 X8.0554 Y-5.7275 Z-1.0589
N10565 X8.0557 Z-1.055
N10570 G0 Z0.6
N10575 M9
N10580 M5
N10585 G53 G0 Z0.

(2D Pocket1)
N10590 M1
N10595 T8 M6
N10600 S7500 M3
N10605 G17 G90 G94
N10610 G54
N10615 M8
N10620 G0 X7.9415 Y-5.5942
N10625 G43 Z0.6 H8
N10630 T10
N10635 G0 Z0.2
N10640 G1 Z0.0375 F13.333
N10645 Z-0.096 F18.
N10650 Y-5.5945 Z-0.0992
N10655 Y-5.5953 Z-0.1024
N10660 Y-5.5967 Z-0.1054
N10665 Y-5.5986 Z-0.108
N10670 X7.9414 Y-5.6009 Z-0.1103
N10675 Y-5.6036 Z-0.1122
N10680 X7.9413 Y-5.6066 Z-0.1136
N10685 Y-5.6097 Z-0.1145
N10690 X7.9412 Y-5.613 Z-0.1147
N10695 Y-5.6148
N10700 G2 X7.9321 Y-5.7767 I-2.0669 J0.0352
N10705 G3 X7.9612 Y-5.7792 I0.0146 J-0.0014
N10710 G1 X7.9675 Y-5.7007
N10715 X7.9676 Y-5.6991
N10720 X7.9674 Y-5.6975
N10725 X7.9558 Y-5.6151
N10730 X7.9552 Y-5.6125
N10735 X7.909 Y-5.4755
N10740 G3 X7.8806 Y-5.4809 I-0.0139 J-0.0047
N10745 G2 X7.8568 Y-5.9028 I-2.0062 J-0.0987
N10750 G3 X7.8858 Y-5.9067 I0.0144 J-0.0024
N10755 G1 X7.909 Y-5.6966
N10760 Y-5.6941
N10765 X7.8952 Y-5.4802
N10770 X7.8947 Y-5.4774
N10775 X7.8937 Y-5.4748
N10780 X7.8923 Y-5.4723
N10785 X7.8441 Y-5.4081
N10790 G3 X7.8178 Y-5.4181 I-0.0117 J-0.0088
N10795 G2 X7.7873 Y-5.9586 I-1.9435 J-0.1615
N10800 G3 X7.8162 Y-5.9633 I0.0143 J-0.0028
N10805 G1 X7.8505 Y-5.6938
N10810 X7.8506 Y-5.691
N10815 X7.8324 Y-5.4169
N10820 G3 X7.8269 Y-5.4064 I-0.0146 J-0.001
N10825 G1 X7.7792 Y-5.3686
N10830 G3 X7.7556 Y-5.3816 I-0.0091 J-0.0115
N10835 G2 X7.7215 Y-5.9876 I-1.8813 J-0.198
N10840 G3 X7.7502 Y-5.9927 I0.0143 J-0.0032
N10845 G1 X7.7921 Y-5.6906
N10850 X7.7922 Y-5.6891
N10855 Y-5.6876
N10860 X7.7701 Y-5.3801
N10865 G3 X7.7615 Y-5.3678 I-0.0146 J-0.001
N10870 G1 X7.715 Y-5.3469
N10875 G3 X7.6945 Y-5.362 I-0.006 J-0.0133
N10880 G2 X7.6586 Y-6.0003 I-1.8202 J-0.2176
N10885 G3 X7.6873 Y-6.0058 I0.0142 J-0.0034
N10890 G1 X7.7337 Y-5.6876
N10895 X7.7338 Y-5.686
N10900 Y-5.6844
N10905 X7.709 Y-5.3603
N10910 G3 X7.6972 Y-5.347 I-0.0146 J-0.0011
N10915 G1 X7.6519 Y-5.3383
N10920 G3 X7.6347 Y-5.3545 I-0.0028 J-0.0144
N10925 G2 X7.5982 Y-6.0013 I-1.7603 J-0.2251
N10930 G3 X7.6268 Y-6.007 I0.0142 J-0.0035
N10935 G1 X7.6753 Y-5.6846
N10940 X7.6754 Y-5.6829
N10945 Y-5.6812
N10950 X7.6492 Y-5.3526
N10955 G3 X7.6344 Y-5.3392 I-0.0146 J-0.0012
N10960 G1 X7.5902 Y-5.3397
N10965 G3 X7.5759 Y-5.3562 I0.0002 J-0.0146
N10970 G2 X7.54 Y-5.9928 I-1.7016 J-0.2234
N10975 G3 X7.5687 Y-5.9985 I0.0142 J-0.0035
N10980 G1 X7.6169 Y-5.6812
N10985 X7.617 Y-5.6795
N10990 Y-5.6778
N10995 X7.5904 Y-5.3543
N11000 G3 X7.5719 Y-5.3414 I-0.0146 J-0.0012
N11005 G1 X7.5292 Y-5.3534
N11010 G3 X7.5186 Y-5.3693 I0.0039 J-0.0141
N11015 G2 X7.4846 Y-5.9733 I-1.6443 J-0.2103
N11020 G3 X7.5132 Y-5.9789 I0.0142 J-0.0035
N11025 G1 X7.5585 Y-5.6779
N11030 X7.5586 Y-5.6762
N11035 Y-5.6745
N11040 X7.5331 Y-5.3675
N11045 G3 X7.511 Y-5.3561 I-0.0146 J-0.0012
N11050 G1 X7.4698 Y-5.381
N11055 G3 X7.4628 Y-5.3952 I0.0076 J-0.0125
N11060 G2 X7.4321 Y-5.9411 I-1.5885 J-0.1844
N11065 G3 X7.4608 Y-5.9465 I0.0142 J-0.0033
N11070 G1 X7.5001 Y-5.6744
N11075 X7.5002 Y-5.6728
N11080 Y-5.6711
N11085 X7.4773 Y-5.3935
N11090 G3 X7.4547 Y-5.3825 I-0.0146 J-0.0012
N11095 G1 X7.4135 Y-5.4098
N11100 G3 X7.4071 Y-5.4234 I0.0081 J-0.0122
N11105 G2 X7.3798 Y-5.9071 I-1.5327 J-0.1562
N11110 G3 X7.4086 Y-5.9122 I0.0143 J-0.0031
N11115 G1 X7.4417 Y-5.6712
N11120 X7.4418 Y-5.6696
N11125 X7.4417 Y-5.668
N11130 X7.4216 Y-5.422
N11135 G3 X7.4042 Y-5.4088 I-0.0146 J-0.0012
N11140 G1 X7.3627 Y-5.417
N11145 G3 X7.351 Y-5.4328 I0.0028 J-0.0143
N11150 G2 X7.3252 Y-5.8912 I-1.4767 J-0.1468
N11155 G3 X7.354 Y-5.8963 I0.0143 J-0.0031
N11160 G1 X7.385 Y-5.6679
N11165 X7.3852 Y-5.6663
N11170 X7.3851 Y-5.6647
N11175 X7.3655 Y-5.4314
N11180 G3 X7.3527 Y-5.4181 I-0.0146 J-0.0012
N11185 G1 X7.308 Y-5.4127
N11190 G3 X7.2918 Y-5.4288 I-0.0017 J-0.0145
N11195 G2 X7.2658 Y-5.8887 I-1.4175 J-0.1508
N11200 G3 X7.2946 Y-5.8939 I0.0143 J-0.0032
N11205 G1 X7.3266 Y-5.6648
N11210 X7.3268 Y-5.6631
N11215 X7.3267 Y-5.6615
N11220 X7.3063 Y-5.4273
N11225 G3 X7.2941 Y-5.4141 I-0.0146 J-0.0013
N11230 G1 X7.2492 Y-5.4066
N11235 G3 X7.2322 Y-5.4227 I-0.0024 J-0.0144
N11240 G2 X7.206 Y-5.8879 I-1.3579 J-0.1569
N11245 G3 X7.2348 Y-5.8933 I0.0142 J-0.0033
N11250 G1 X7.2682 Y-5.6615
N11255 X7.2684 Y-5.6598
N11260 X7.2683 Y-5.6581
N11265 X7.2468 Y-5.421
N11270 G3 X7.2345 Y-5.4079 I-0.0146 J-0.0013
N11275 G1 X7.1894 Y-5.4008
N11280 G3 X7.1726 Y-5.4171 I-0.0023 J-0.0144
N11285 G2 X7.1461 Y-5.887 I-1.2983 J-0.1625
N11290 G3 X7.1748 Y-5.8926 I0.0142 J-0.0034
N11295 G1 X7.2098 Y-5.6584
N11300 X7.21 Y-5.6567
N11305 X7.2099 Y-5.6549
N11310 X7.1871 Y-5.4152
N11315 G3 X7.1751 Y-5.4022 I-0.0146 J-0.0014
N11320 G1 X7.1298 Y-5.3942
N11325 G3 X7.1128 Y-5.4106 I-0.0026 J-0.0144
N11330 G2 X7.086 Y-5.8865 I-1.2385 J-0.169
N11335 G3 X7.1146 Y-5.8923 I0.0142 J-0.0036
N11340 G1 X7.1514 Y-5.6552
N11345 X7.1516 Y-5.6533
N11350 X7.1515 Y-5.6515
N11355 X7.1273 Y-5.4086
N11360 G3 X7.1161 Y-5.3958 I-0.0146 J-0.0015
N11365 G1 X7.0702 Y-5.3848
N11370 G3 X7.0523 Y-5.4012 I-0.0034 J-0.0142
N11375 G2 X7.0248 Y-5.8892 I-1.178 J-0.1784
N11380 G3 X7.0534 Y-5.8954 I0.0141 J-0.0038
N11385 G1 X7.093 Y-5.6522
N11390 X7.0932 Y-5.6502
N11395 X7.0931 Y-5.6483
N11400 X7.0668 Y-5.399
N11405 G3 X7.0557 Y-5.3863 I-0.0145 J-0.0015
N11410 G1 X7.0094 Y-5.3752
N11415 G3 X6.9916 Y-5.3918 I-0.0034 J-0.0142
N11420 G2 X6.9635 Y-5.8915 I-1.1173 J-0.1878
N11425 G3 X6.992 Y-5.898 I0.0141 J-0.004
N11430 G1 X7.0346 Y-5.649
N11435 X7.0348 Y-5.6469
N11440 X7.0347 Y-5.6449
N11445 X7.006 Y-5.3894
N11450 G3 X6.9949 Y-5.3768 I-0.0145 J-0.0016
N11455 G1 X6.9483 Y-5.3656
N11460 G3 X6.9305 Y-5.3826 I-0.0034 J-0.0142
N11465 G2 X6.9017 Y-5.8941 I-1.0562 J-0.1971
N11470 G3 X6.9301 Y-5.9009 I0.014 J-0.0043
N11475 G1 X6.9761 Y-5.646
N11480 X6.9764 Y-5.6439
N11485 X6.9763 Y-5.6417
N11490 X6.9449 Y-5.3799
N11495 G3 X6.9344 Y-5.3675 I-0.0145 J-0.0017
N11500 G1 X6.887 Y-5.3542
N11505 G3 X6.8687 Y-5.3713 I-0.004 J-0.0141
N11510 G2 X6.8389 Y-5.8985 I-0.9944 J-0.2083
N11515 G3 X6.8672 Y-5.9059 I0.0139 J-0.0046
N11520 G1 X6.9177 Y-5.6431
N11525 X6.918 Y-5.6408
N11530 X6.9179 Y-5.6385
N11535 X6.883 Y-5.3683
N11540 G3 X6.8728 Y-5.3562 I-0.0145 J-0.0019
N11545 G1 X6.824 Y-5.3409
N11550 G3 X6.8054 Y-5.3582 I-0.0044 J-0.014
N11555 G2 X6.7741 Y-5.9042 I-0.9307 J-0.2204
N11560 G3 X6.8021 Y-5.9121 I0.0138 J-0.005
N11565 G1 X6.8586 Y-5.6402
N11570 X6.8589 Y-5.6377
N11575 X6.8588 Y-5.6352
N11580 X6.8196 Y-5.3549
N11585 G3 X6.8096 Y-5.343 I-0.0145 J-0.002
N11590 G1 X6.7607 Y-5.3272
N11595 G3 X6.7421 Y-5.345 I-0.0045 J-0.0139
N11600 G2 X6.7102 Y-5.9104 I-0.8678 J-0.2346
N11605 G3 X6.7381 Y-5.919 I0.0136 J-0.0054
N11610 G1 X6.8009 Y-5.6373
N11615 X6.8012 Y-5.6346
N11620 X6.801 Y-5.6319
N11625 X6.7562 Y-5.3411
N11630 G3 X6.7464 Y-5.3295 I-0.0145 J-0.0022
N11635 G1 X6.6957 Y-5.3127
N11640 G3 X6.6771 Y-5.3309 I-0.0046 J-0.0139
N11645 G2 X6.6442 Y-5.9168 I-0.8028 J-0.2487
N11650 G3 X6.6718 Y-5.9261 I0.0134 J-0.0059
N11655 G1 X6.7424 Y-5.6344
N11660 X6.7428 Y-5.6315
N11665 X6.7426 Y-5.6285
N11670 X6.6911 Y-5.3266
N11675 G3 X6.682 Y-5.3154 I-0.0144 J-0.0025
N11680 G1 X6.6286 Y-5.2947
N11685 G3 X6.6095 Y-5.3133 I-0.0053 J-0.0136
N11690 G2 X6.5749 Y-5.9269 I-0.7352 J-0.2663
N11695 G3 X6.6021 Y-5.9372 I0.0131 J-0.0065
N11700 G1 X6.684 Y-5.6319
N11705 X6.6844 Y-5.6297
N11710 X6.6845 Y-5.6275
N11715 X6.6842 Y-5.6253
N11720 X6.6233 Y-5.3083
N11725 G3 X6.6143 Y-5.2975 I-0.0144 J-0.0028
N11730 G1 X6.5582 Y-5.2755
N11735 G3 X6.5394 Y-5.2948 I-0.0053 J-0.0136
N11740 G2 X6.5032 Y-5.9372 I-0.6651 J-0.2848
N11745 G3 X6.5299 Y-5.9486 I0.0127 J-0.0072
N11750 G1 X6.6256 Y-5.6292
N11755 X6.6261 Y-5.6268
N11760 X6.6262 Y-5.6243
N11765 X6.6258 Y-5.6219
N11770 X6.5528 Y-5.2891
N11775 G3 X6.544 Y-5.2786 I-0.0143 J-0.0031
N11780 G1 X6.4837 Y-5.2545
N11785 G3 X6.4653 Y-5.2748 I-0.0054 J-0.0136
N11790 G2 X6.4273 Y-5.9489 I-0.591 J-0.3048
N11795 G3 X6.4531 Y-5.9623 I0.0122 J-0.0081
N11800 G1 X6.5816 Y-5.6289
N11805 X6.5823 Y-5.6266
N11810 X6.5826 Y-5.6243
N11815 X6.5825 Y-5.6219
N11820 X6.582 Y-5.6195
N11825 X6.4783 Y-5.2681
N11830 G3 X6.4704 Y-5.259 I-0.014 J-0.0041
N11835 G1 X6.4005 Y-5.2268
N11840 G3 X6.3822 Y-5.2481 I-0.0061 J-0.0133
N11845 G2 X6.4808 Y-5.5828 I-0.5078 J-0.3315
N11850 G1 X6.4773 Y-5.6449
N11855 G2 X6.3418 Y-5.966 I-0.6029 J0.0653
N11860 G3 X6.3655 Y-5.9829 I0.0113 J-0.0093
N11865 G1 X6.4581 Y-5.8318
N11870 X6.4593 Y-5.8294
N11875 X6.46 Y-5.8267
N11880 X6.4918 Y-5.6464
N11885 G3 X6.4901 Y-5.6367 I-0.0144 J0.0025
N11890 G1 X6.2617 Y-5.2342
N11895 G2 X6.2854 Y-5.2173 I0.0127 J0.0072
N11900 X6.2421 Y-5.9858 I-0.4111 J-0.3623
N11905 G1 X6.2415 Y-5.9863
N11910 X6.2391 Y-5.9885 Z-0.1145
N11915 X6.2368 Y-5.9906 Z-0.1136
N11920 X6.2346 Y-5.9926 Z-0.1122
N11925 X6.2326 Y-5.9944 Z-0.1103
N11930 X6.2309 Y-5.996 Z-0.108
N11935 X6.2295 Y-5.9972 Z-0.1054
N11940 X6.2285 Y-5.9981 Z-0.1024
N11945 X6.2278 Y-5.9987 Z-0.0992
N11950 X6.2276 Y-5.9989 Z-0.096
N11955 G0 Z0.2
N11960 X6.0869 Y-5.1404
N11965 G1 Z0.0375 F13.333
N11970 Z-0.096 F18.
N11975 X6.0871 Y-5.1406 Z-0.0992
N11980 X6.0879 Y-5.141 Z-0.1024
N11985 X6.0891 Y-5.1416 Z-0.1054
N11990 X6.0907 Y-5.1425 Z-0.108
N11995 X6.0928 Y-5.1436 Z-0.1103
N12000 X6.0951 Y-5.1449 Z-0.1122
N12005 X6.0977 Y-5.1463 Z-0.1136
N12010 X6.1005 Y-5.1478 Z-0.1145
N12015 X6.1034 Y-5.1493 Z-0.1147
N12020 X6.105 Y-5.1502
N12025 G2 X6.0552 Y-6.0322 I-0.2307 J-0.4294
N12030 G3 X6.0611 Y-6.05 I0.0035 J-0.0087
N12035 G1 X7.9301 Y-5.5674
N12040 G2 X7.9418 Y-5.5766 I0.0023 J-0.0091
N12045 G1 Y-5.5799 Z-0.115
N12050 X7.9417 Y-5.583 Z-0.1159
N12055 Y-5.586 Z-0.1172
N12060 X7.9416 Y-5.5887 Z-0.1191
N12065 Y-5.591 Z-0.1214
N12070 Y-5.5928 Z-0.1241
N12075 X7.9415 Y-5.5942 Z-0.1271
N12080 Y-5.5951 Z-0.1302
N12085 Y-5.5954 Z-0.1335
N12090 Z-0.2107
N12095 Y-5.5956 Z-0.214
N12100 Y-5.5965 Z-0.2171
N12105 Y-5.5979 Z-0.2201
N12110 X7.9414 Y-5.5997 Z-0.2228
N12115 Y-5.6021 Z-0.2251
N12120 Y-5.6047 Z-0.227
N12125 X7.9413 Y-5.6077 Z-0.2283
N12130 Y-5.6109 Z-0.2292
N12135 X7.9412 Y-5.6141 Z-0.2295
N12140 Y-5.6148
N12145 G2 X7.9321 Y-5.7767 I-2.0669 J0.0352
N12150 G3 X7.9612 Y-5.7792 I0.0146 J-0.0014
N12155 G1 X7.9675 Y-5.7007
N12160 X7.9676 Y-5.6991
N12165 X7.9674 Y-5.6975
N12170 X7.9558 Y-5.6151
N12175 X7.9552 Y-5.6125
N12180 X7.909 Y-5.4755
N12185 G3 X7.8806 Y-5.4809 I-0.0139 J-0.0047
N12190 G2 X7.8568 Y-5.9028 I-2.0062 J-0.0987
N12195 G3 X7.8858 Y-5.9067 I0.0144 J-0.0024
N12200 G1 X7.909 Y-5.6966
N12205 Y-5.6941
N12210 X7.8952 Y-5.4802
N12215 X7.8947 Y-5.4774
N12220 X7.8937 Y-5.4748
N12225 X7.8923 Y-5.4723
N12230 X7.8441 Y-5.4081
N12235 G3 X7.8178 Y-5.4181 I-0.0117 J-0.0088
N12240 G2 X7.7873 Y-5.9586 I-1.9435 J-0.1615
N12245 G3 X7.8162 Y-5.9633 I0.0143 J-0.0028
N12250 G1 X7.8505 Y-5.6938
N12255 X7.8506 Y-5.691
N12260 X7.8324 Y-5.4169
N12265 G3 X7.8269 Y-5.4064 I-0.0146 J-0.001
N12270 G1 X7.7792 Y-5.3686
N12275 G3 X7.7556 Y-5.3816 I-0.0091 J-0.0115
N12280 G2 X7.7215 Y-5.9876 I-1.8813 J-0.198
N12285 G3 X7.7502 Y-5.9927 I0.0143 J-0.0032
N12290 G1 X7.7921 Y-5.6906
N12295 X7.7922 Y-5.6891
N12300 Y-5.6876
N12305 X7.7701 Y-5.3801
N12310 G3 X7.7615 Y-5.3678 I-0.0146 J-0.001
N12315 G1 X7.715 Y-5.3469
N12320 G3 X7.6945 Y-5.362 I-0.006 J-0.0133
N12325 G2 X7.6586 Y-6.0003 I-1.8202 J-0.2176
N12330 G3 X7.6873 Y-6.0058 I0.0142 J-0.0034
N12335 G1 X7.7337 Y-5.6876
N12340 X7.7338 Y-5.686
N12345 Y-5.6844
N12350 X7.709 Y-5.3603
N12355 G3 X7.6972 Y-5.347 I-0.0146 J-0.0011
N12360 G1 X7.6519 Y-5.3383
N12365 G3 X7.6347 Y-5.3545 I-0.0028 J-0.0144
N12370 G2 X7.5982 Y-6.0013 I-1.7603 J-0.2251
N12375 G3 X7.6268 Y-6.007 I0.0142 J-0.0035
N12380 G1 X7.6753 Y-5.6846
N12385 X7.6754 Y-5.6829
N12390 Y-5.6812
N12395 X7.6492 Y-5.3526
N12400 G3 X7.6344 Y-5.3392 I-0.0146 J-0.0012
N12405 G1 X7.5902 Y-5.3397
N12410 G3 X7.5759 Y-5.3562 I0.0002 J-0.0146
N12415 G2 X7.54 Y-5.9928 I-1.7016 J-0.2234
N12420 G3 X7.5687 Y-5.9985 I0.0142 J-0.0035
N12425 G1 X7.6169 Y-5.6812
N12430 X7.617 Y-5.6795
N12435 Y-5.6778
N12440 X7.5904 Y-5.3543
N12445 G3 X7.5719 Y-5.3414 I-0.0146 J-0.0012
N12450 G1 X7.5292 Y-5.3534
N12455 G3 X7.5186 Y-5.3693 I0.0039 J-0.0141
N12460 G2 X7.4846 Y-5.9733 I-1.6443 J-0.2103
N12465 G3 X7.5132 Y-5.9789 I0.0142 J-0.0035
N12470 G1 X7.5585 Y-5.6779
N12475 X7.5586 Y-5.6762
N12480 Y-5.6745
N12485 X7.5331 Y-5.3675
N12490 G3 X7.511 Y-5.3561 I-0.0146 J-0.0012
N12495 G1 X7.4698 Y-5.381
N12500 G3 X7.4628 Y-5.3952 I0.0076 J-0.0125
N12505 G2 X7.4321 Y-5.9411 I-1.5885 J-0.1844
N12510 G3 X7.4608 Y-5.9465 I0.0142 J-0.0033
N12515 G1 X7.5001 Y-5.6744
N12520 X7.5002 Y-5.6728
N12525 Y-5.6711
N12530 X7.4773 Y-5.3935
N12535 G3 X7.4547 Y-5.3825 I-0.0146 J-0.0012
N12540 G1 X7.4135 Y-5.4098
N12545 G3 X7.4071 Y-5.4234 I0.0081 J-0.0122
N12550 G2 X7.3798 Y-5.9071 I-1.5327 J-0.1562
N12555 G3 X7.4086 Y-5.9122 I0.0143 J-0.0031
N12560 G1 X7.4417 Y-5.6712
N12565 X7.4418 Y-5.6696
N12570 X7.4417 Y-5.668
N12575 X7.4216 Y-5.422
N12580 G3 X7.4042 Y-5.4088 I-0.0146 J-0.0012
N12585 G1 X7.3627 Y-5.417
N12590 G3 X7.351 Y-5.4328 I0.0028 J-0.0143
N12595 G2 X7.3252 Y-5.8912 I-1.4767 J-0.1468
N12600 G3 X7.354 Y-5.8963 I0.0143 J-0.0031
N12605 G1 X7.385 Y-5.6679
N12610 X7.3852 Y-5.6663
N12615 X7.3851 Y-5.6647
N12620 X7.3655 Y-5.4314
N12625 G3 X7.3527 Y-5.4181 I-0.0146 J-0.0012
N12630 G1 X7.308 Y-5.4127
N12635 G3 X7.2918 Y-5.4288 I-0.0017 J-0.0145
N12640 G2 X7.2658 Y-5.8887 I-1.4175 J-0.1508
N12645 G3 X7.2946 Y-5.8939 I0.0143 J-0.0032
N12650 G1 X7.3266 Y-5.6648
N12655 X7.3268 Y-5.6631
N12660 X7.3267 Y-5.6615
N12665 X7.3063 Y-5.4273
N12670 G3 X7.2941 Y-5.4141 I-0.0146 J-0.0013
N12675 G1 X7.2492 Y-5.4066
N12680 G3 X7.2322 Y-5.4227 I-0.0024 J-0.0144
N12685 G2 X7.206 Y-5.8879 I-1.3579 J-0.1569
N12690 G3 X7.2348 Y-5.8933 I0.0142 J-0.0033
N12695 G1 X7.2682 Y-5.6615
N12700 X7.2684 Y-5.6598
N12705 X7.2683 Y-5.6581
N12710 X7.2468 Y-5.421
N12715 G3 X7.2345 Y-5.4079 I-0.0146 J-0.0013
N12720 G1 X7.1894 Y-5.4008
N12725 G3 X7.1726 Y-5.4171 I-0.0023 J-0.0144
N12730 G2 X7.1461 Y-5.887 I-1.2983 J-0.1625
N12735 G3 X7.1748 Y-5.8926 I0.0142 J-0.0034
N12740 G1 X7.2098 Y-5.6584
N12745 X7.21 Y-5.6567
N12750 X7.2099 Y-5.6549
N12755 X7.1871 Y-5.4152
N12760 G3 X7.1751 Y-5.4022 I-0.0146 J-0.0014
N12765 G1 X7.1298 Y-5.3942
N12770 G3 X7.1128 Y-5.4106 I-0.0026 J-0.0144
N12775 G2 X7.086 Y-5.8865 I-1.2385 J-0.169
N12780 G3 X7.1146 Y-5.8923 I0.0142 J-0.0036
N12785 G1 X7.1514 Y-5.6552
N12790 X7.1516 Y-5.6533
N12795 X7.1515 Y-5.6515
N12800 X7.1273 Y-5.4086
N12805 G3 X7.1161 Y-5.3958 I-0.0146 J-0.0015
N12810 G1 X7.0702 Y-5.3848
N12815 G3 X7.0523 Y-5.4012 I-0.0034 J-0.0142
N12820 G2 X7.0248 Y-5.8892 I-1.178 J-0.1784
N12825 G3 X7.0534 Y-5.8954 I0.0141 J-0.0038
N12830 G1 X7.093 Y-5.6522
N12835 X7.0932 Y-5.6502
N12840 X7.0931 Y-5.6483
N12845 X7.0668 Y-5.399
N12850 G3 X7.0557 Y-5.3863 I-0.0145 J-0.0015
N12855 G1 X7.0094 Y-5.3752
N12860 G3 X6.9916 Y-5.3918 I-0.0034 J-0.0142
N12865 G2 X6.9635 Y-5.8915 I-1.1173 J-0.1878
N12870 G3 X6.992 Y-5.898 I0.0141 J-0.004
N12875 G1 X7.0346 Y-5.649
N12880 X7.0348 Y-5.6469
N12885 X7.0347 Y-5.6449
N12890 X7.006 Y-5.3894
N12895 G3 X6.9949 Y-5.3768 I-0.0145 J-0.0016
N12900 G1 X6.9483 Y-5.3656
N12905 G3 X6.9305 Y-5.3826 I-0.0034 J-0.0142
N12910 G2 X6.9017 Y-5.8941 I-1.0562 J-0.1971
N12915 G3 X6.9301 Y-5.9009 I0.014 J-0.0043
N12920 G1 X6.9761 Y-5.646
N12925 X6.9764 Y-5.6439
N12930 X6.9763 Y-5.6417
N12935 X6.9449 Y-5.3799
N12940 G3 X6.9344 Y-5.3675 I-0.0145 J-0.0017
N12945 G1 X6.887 Y-5.3542
N12950 G3 X6.8687 Y-5.3713 I-0.004 J-0.0141
N12955 G2 X6.8389 Y-5.8985 I-0.9944 J-0.2083
N12960 G3 X6.8672 Y-5.9059 I0.0139 J-0.0046
N12965 G1 X6.9177 Y-5.6431
N12970 X6.918 Y-5.6408
N12975 X6.9179 Y-5.6385
N12980 X6.883 Y-5.3683
N12985 G3 X6.8728 Y-5.3562 I-0.0145 J-0.0019
N12990 G1 X6.824 Y-5.3409
N12995 G3 X6.8054 Y-5.3582 I-0.0044 J-0.014
N13000 G2 X6.7741 Y-5.9042 I-0.9307 J-0.2204
N13005 G3 X6.8021 Y-5.9121 I0.0138 J-0.005
N13010 G1 X6.8586 Y-5.6402
N13015 X6.8589 Y-5.6377
N13020 X6.8588 Y-5.6352
N13025 X6.8196 Y-5.3549
N13030 G3 X6.8096 Y-5.343 I-0.0145 J-0.002
N13035 G1 X6.7607 Y-5.3272
N13040 G3 X6.7421 Y-5.345 I-0.0045 J-0.0139
N13045 G2 X6.7102 Y-5.9104 I-0.8678 J-0.2346
N13050 G3 X6.7381 Y-5.919 I0.0136 J-0.0054
N13055 G1 X6.8009 Y-5.6373
N13060 X6.8012 Y-5.6346
N13065 X6.801 Y-5.6319
N13070 X6.7562 Y-5.3411
N13075 G3 X6.7464 Y-5.3295 I-0.0145 J-0.0022
N13080 G1 X6.6957 Y-5.3127
N13085 G3 X6.6771 Y-5.3309 I-0.0046 J-0.0139
N13090 G2 X6.6442 Y-5.9168 I-0.8028 J-0.2487
N13095 G3 X6.6718 Y-5.9261 I0.0134 J-0.0059
N13100 G1 X6.7424 Y-5.6344
N13105 X6.7428 Y-5.6315
N13110 X6.7426 Y-5.6285
N13115 X6.6911 Y-5.3266
N13120 G3 X6.682 Y-5.3154 I-0.0144 J-0.0025
N13125 G1 X6.6286 Y-5.2947
N13130 G3 X6.6095 Y-5.3133 I-0.0053 J-0.0136
N13135 G2 X6.5749 Y-5.9269 I-0.7352 J-0.2663
N13140 G3 X6.6021 Y-5.9372 I0.0131 J-0.0065
N13145 G1 X6.684 Y-5.6319
N13150 X6.6844 Y-5.6297
N13155 X6.6845 Y-5.6275
N13160 X6.6842 Y-5.6253
N13165 X6.6233 Y-5.3083
N13170 G3 X6.6143 Y-5.2975 I-0.0144 J-0.0028
N13175 G1 X6.5582 Y-5.2755
N13180 G3 X6.5394 Y-5.2948 I-0.0053 J-0.0136
N13185 G2 X6.5032 Y-5.9372 I-0.6651 J-0.2848
N13190 G3 X6.5299 Y-5.9486 I0.0127 J-0.0072
N13195 G1 X6.6256 Y-5.6292
N13200 X6.6261 Y-5.6268
N13205 X6.6262 Y-5.6243
N13210 X6.6258 Y-5.6219
N13215 X6.5528 Y-5.2891
N13220 G3 X6.544 Y-5.2786 I-0.0143 J-0.0031
N13225 G1 X6.4837 Y-5.2545
N13230 G3 X6.4653 Y-5.2748 I-0.0054 J-0.0136
N13235 G2 X6.4273 Y-5.9489 I-0.591 J-0.3048
N13240 G3 X6.4531 Y-5.9623 I0.0122 J-0.0081
N13245 G1 X6.5816 Y-5.6289
N13250 X6.5823 Y-5.6266
N13255 X6.5826 Y-5.6243
N13260 X6.5825 Y-5.6219
N13265 X6.582 Y-5.6195
N13270 X6.4783 Y-5.2681
N13275 G3 X6.4704 Y-5.259 I-0.014 J-0.0041
N13280 G1 X6.4005 Y-5.2268
N13285 G3 X6.3822 Y-5.2481 I-0.0061 J-0.0133
N13290 G2 X6.4808 Y-5.5828 I-0.5078 J-0.3315
N13295 G1 X6.4773 Y-5.6449
N13300 G2 X6.3418 Y-5.966 I-0.6029 J0.0653
N13305 G3 X6.3655 Y-5.9829 I0.0113 J-0.0093
N13310 G1 X6.4581 Y-5.8318
N13315 X6.4593 Y-5.8294
N13320 X6.46 Y-5.8267
N13325 X6.4918 Y-5.6464
N13330 G3 X6.4901 Y-5.6367 I-0.0144 J0.0025
N13335 G1 X6.2617 Y-5.2342
N13340 G2 X6.2854 Y-5.2173 I0.0127 J0.0072
N13345 X6.2421 Y-5.9858 I-0.4111 J-0.3623
N13350 G1 X6.2415 Y-5.9863
N13355 X6.2391 Y-5.9885 Z-0.2292
N13360 X6.2368 Y-5.9906 Z-0.2283
N13365 X6.2346 Y-5.9926 Z-0.227
N13370 X6.2326 Y-5.9944 Z-0.2251
N13375 X6.2309 Y-5.996 Z-0.2228
N13380 X6.2295 Y-5.9972 Z-0.2201
N13385 X6.2285 Y-5.9981 Z-0.2171
N13390 X6.2278 Y-5.9987 Z-0.214
N13395 X6.2276 Y-5.9989 Z-0.2107
N13400 G0 Z0.2
N13405 X6.0869 Y-5.1404
N13410 G1 Z-0.0772 F13.333
N13415 Z-0.2107 F18.
N13420 X6.0871 Y-5.1406 Z-0.214
N13425 X6.0879 Y-5.141 Z-0.2171
N13430 X6.0891 Y-5.1416 Z-0.2201
N13435 X6.0907 Y-5.1425 Z-0.2228
N13440 X6.0928 Y-5.1436 Z-0.2251
N13445 X6.0951 Y-5.1449 Z-0.227
N13450 X6.0977 Y-5.1463 Z-0.2283
N13455 X6.1005 Y-5.1478 Z-0.2292
N13460 X6.1034 Y-5.1493 Z-0.2295
N13465 X6.105 Y-5.1502
N13470 G2 X6.0552 Y-6.0322 I-0.2307 J-0.4294
N13475 G3 X6.0611 Y-6.05 I0.0035 J-0.0087
N13480 G1 X7.9301 Y-5.5674
N13485 G2 X7.9418 Y-5.5766 I0.0023 J-0.0091
N13490 G1 Y-5.5799 Z-0.2298
N13495 X7.9417 Y-5.583 Z-0.2306
N13500 Y-5.586 Z-0.232
N13505 X7.9416 Y-5.5887 Z-0.2339
N13510 Y-5.591 Z-0.2362
N13515 Y-5.5928 Z-0.2388
N13520 X7.9415 Y-5.5942 Z-0.2418
N13525 Y-5.5951 Z-0.245
N13530 Y-5.5954 Z-0.2482
N13535 Z-0.3255
N13540 Y-5.5956 Z-0.3287
N13545 Y-5.5965 Z-0.3319
N13550 Y-5.5979 Z-0.3348
N13555 X7.9414 Y-5.5997 Z-0.3375
N13560 Y-5.6021 Z-0.3398
N13565 Y-5.6047 Z-0.3417
N13570 X7.9413 Y-5.6077 Z-0.3431
N13575 Y-5.6109 Z-0.3439
N13580 X7.9412 Y-5.6141 Z-0.3442
N13585 Y-5.6148
N13590 G2 X7.9321 Y-5.7767 I-2.0669 J0.0352
N13595 G3 X7.9612 Y-5.7792 I0.0146 J-0.0014
N13600 G1 X7.9675 Y-5.7007
N13605 X7.9676 Y-5.6991
N13610 X7.9674 Y-5.6975
N13615 X7.9558 Y-5.6151
N13620 X7.9552 Y-5.6125
N13625 X7.909 Y-5.4755
N13630 G3 X7.8806 Y-5.4809 I-0.0139 J-0.0047
N13635 G2 X7.8568 Y-5.9028 I-2.0062 J-0.0987
N13640 G3 X7.8858 Y-5.9067 I0.0144 J-0.0024
N13645 G1 X7.909 Y-5.6966
N13650 Y-5.6941
N13655 X7.8952 Y-5.4802
N13660 X7.8947 Y-5.4774
N13665 X7.8937 Y-5.4748
N13670 X7.8923 Y-5.4723
N13675 X7.8441 Y-5.4081
N13680 G3 X7.8178 Y-5.4181 I-0.0117 J-0.0088
N13685 G2 X7.7873 Y-5.9586 I-1.9435 J-0.1615
N13690 G3 X7.8162 Y-5.9633 I0.0143 J-0.0028
N13695 G1 X7.8505 Y-5.6938
N13700 X7.8506 Y-5.691
N13705 X7.8324 Y-5.4169
N13710 G3 X7.8269 Y-5.4064 I-0.0146 J-0.001
N13715 G1 X7.7792 Y-5.3686
N13720 G3 X7.7556 Y-5.3816 I-0.0091 J-0.0115
N13725 G2 X7.7215 Y-5.9876 I-1.8813 J-0.198
N13730 G3 X7.7502 Y-5.9927 I0.0143 J-0.0032
N13735 G1 X7.7921 Y-5.6906
N13740 X7.7922 Y-5.6891
N13745 Y-5.6876
N13750 X7.7701 Y-5.3801
N13755 G3 X7.7615 Y-5.3678 I-0.0146 J-0.001
N13760 G1 X7.715 Y-5.3469
N13765 G3 X7.6945 Y-5.362 I-0.006 J-0.0133
N13770 G2 X7.6586 Y-6.0003 I-1.8202 J-0.2176
N13775 G3 X7.6873 Y-6.0058 I0.0142 J-0.0034
N13780 G1 X7.7337 Y-5.6876
N13785 X7.7338 Y-5.686
N13790 Y-5.6844
N13795 X7.709 Y-5.3603
N13800 G3 X7.6972 Y-5.347 I-0.0146 J-0.0011
N13805 G1 X7.6519 Y-5.3383
N13810 G3 X7.6347 Y-5.3545 I-0.0028 J-0.0144
N13815 G2 X7.5982 Y-6.0013 I-1.7603 J-0.2251
N13820 G3 X7.6268 Y-6.007 I0.0142 J-0.0035
N13825 G1 X7.6753 Y-5.6846
N13830 X7.6754 Y-5.6829
N13835 Y-5.6812
N13840 X7.6492 Y-5.3526
N13845 G3 X7.6344 Y-5.3392 I-0.0146 J-0.0012
N13850 G1 X7.5902 Y-5.3397
N13855 G3 X7.5759 Y-5.3562 I0.0002 J-0.0146
N13860 G2 X7.54 Y-5.9928 I-1.7016 J-0.2234
N13865 G3 X7.5687 Y-5.9985 I0.0142 J-0.0035
N13870 G1 X7.6169 Y-5.6812
N13875 X7.617 Y-5.6795
N13880 Y-5.6778
N13885 X7.5904 Y-5.3543
N13890 G3 X7.5719 Y-5.3414 I-0.0146 J-0.0012
N13895 G1 X7.5292 Y-5.3534
N13900 G3 X7.5186 Y-5.3693 I0.0039 J-0.0141
N13905 G2 X7.4846 Y-5.9733 I-1.6443 J-0.2103
N13910 G3 X7.5132 Y-5.9789 I0.0142 J-0.0035
N13915 G1 X7.5585 Y-5.6779
N13920 X7.5586 Y-5.6762
N13925 Y-5.6745
N13930 X7.5331 Y-5.3675
N13935 G3 X7.511 Y-5.3561 I-0.0146 J-0.0012
N13940 G1 X7.4698 Y-5.381
N13945 G3 X7.4628 Y-5.3952 I0.0076 J-0.0125
N13950 G2 X7.4321 Y-5.9411 I-1.5885 J-0.1844
N13955 G3 X7.4608 Y-5.9465 I0.0142 J-0.0033
N13960 G1 X7.5001 Y-5.6744
N13965 X7.5002 Y-5.6728
N13970 Y-5.6711
N13975 X7.4773 Y-5.3935
N13980 G3 X7.4547 Y-5.3825 I-0.0146 J-0.0012
N13985 G1 X7.4135 Y-5.4098
N13990 G3 X7.4071 Y-5.4234 I0.0081 J-0.0122
N13995 G2 X7.3798 Y-5.9071 I-1.5327 J-0.1562
N14000 G3 X7.4086 Y-5.9122 I0.0143 J-0.0031
N14005 G1 X7.4417 Y-5.6712
N14010 X7.4418 Y-5.6696
N14015 X7.4417 Y-5.668
N14020 X7.4216 Y-5.422
N14025 G3 X7.4042 Y-5.4088 I-0.0146 J-0.0012
N14030 G1 X7.3627 Y-5.417
N14035 G3 X7.351 Y-5.4328 I0.0028 J-0.0143
N14040 G2 X7.3252 Y-5.8912 I-1.4767 J-0.1468
N14045 G3 X7.354 Y-5.8963 I0.0143 J-0.0031
N14050 G1 X7.385 Y-5.6679
N14055 X7.3852 Y-5.6663
N14060 X7.3851 Y-5.6647
N14065 X7.3655 Y-5.4314
N14070 G3 X7.3527 Y-5.4181 I-0.0146 J-0.0012
N14075 G1 X7.308 Y-5.4127
N14080 G3 X7.2918 Y-5.4288 I-0.0017 J-0.0145
N14085 G2 X7.2658 Y-5.8887 I-1.4175 J-0.1508
N14090 G3 X7.2946 Y-5.8939 I0.0143 J-0.0032
N14095 G1 X7.3266 Y-5.6648
N14100 X7.3268 Y-5.6631
N14105 X7.3267 Y-5.6615
N14110 X7.3063 Y-5.4273
N14115 G3 X7.2941 Y-5.4141 I-0.0146 J-0.0013
N14120 G1 X7.2492 Y-5.4066
N14125 G3 X7.2322 Y-5.4227 I-0.0024 J-0.0144
N14130 G2 X7.206 Y-5.8879 I-1.3579 J-0.1569
N14135 G3 X7.2348 Y-5.8933 I0.0142 J-0.0033
N14140 G1 X7.2682 Y-5.6615
N14145 X7.2684 Y-5.6598
N14150 X7.2683 Y-5.6581
N14155 X7.2468 Y-5.421
N14160 G3 X7.2345 Y-5.4079 I-0.0146 J-0.0013
N14165 G1 X7.1894 Y-5.4008
N14170 G3 X7.1726 Y-5.4171 I-0.0023 J-0.0144
N14175 G2 X7.1461 Y-5.887 I-1.2983 J-0.1625
N14180 G3 X7.1748 Y-5.8926 I0.0142 J-0.0034
N14185 G1 X7.2098 Y-5.6584
N14190 X7.21 Y-5.6567
N14195 X7.2099 Y-5.6549
N14200 X7.1871 Y-5.4152
N14205 G3 X7.1751 Y-5.4022 I-0.0146 J-0.0014
N14210 G1 X7.1298 Y-5.3942
N14215 G3 X7.1128 Y-5.4106 I-0.0026 J-0.0144
N14220 G2 X7.086 Y-5.8865 I-1.2385 J-0.169
N14225 G3 X7.1146 Y-5.8923 I0.0142 J-0.0036
N14230 G1 X7.1514 Y-5.6552
N14235 X7.1516 Y-5.6533
N14240 X7.1515 Y-5.6515
N14245 X7.1273 Y-5.4086
N14250 G3 X7.1161 Y-5.3958 I-0.0146 J-0.0015
N14255 G1 X7.0702 Y-5.3848
N14260 G3 X7.0523 Y-5.4012 I-0.0034 J-0.0142
N14265 G2 X7.0248 Y-5.8892 I-1.178 J-0.1784
N14270 G3 X7.0534 Y-5.8954 I0.0141 J-0.0038
N14275 G1 X7.093 Y-5.6522
N14280 X7.0932 Y-5.6502
N14285 X7.0931 Y-5.6483
N14290 X7.0668 Y-5.399
N14295 G3 X7.0557 Y-5.3863 I-0.0145 J-0.0015
N14300 G1 X7.0094 Y-5.3752
N14305 G3 X6.9916 Y-5.3918 I-0.0034 J-0.0142
N14310 G2 X6.9635 Y-5.8915 I-1.1173 J-0.1878
N14315 G3 X6.992 Y-5.898 I0.0141 J-0.004
N14320 G1 X7.0346 Y-5.649
N14325 X7.0348 Y-5.6469
N14330 X7.0347 Y-5.6449
N14335 X7.006 Y-5.3894
N14340 G3 X6.9949 Y-5.3768 I-0.0145 J-0.0016
N14345 G1 X6.9483 Y-5.3656
N14350 G3 X6.9305 Y-5.3826 I-0.0034 J-0.0142
N14355 G2 X6.9017 Y-5.8941 I-1.0562 J-0.1971
N14360 G3 X6.9301 Y-5.9009 I0.014 J-0.0043
N14365 G1 X6.9761 Y-5.646
N14370 X6.9764 Y-5.6439
N14375 X6.9763 Y-5.6417
N14380 X6.9449 Y-5.3799
N14385 G3 X6.9344 Y-5.3675 I-0.0145 J-0.0017
N14390 G1 X6.887 Y-5.3542
N14395 G3 X6.8687 Y-5.3713 I-0.004 J-0.0141
N14400 G2 X6.8389 Y-5.8985 I-0.9944 J-0.2083
N14405 G3 X6.8672 Y-5.9059 I0.0139 J-0.0046
N14410 G1 X6.9177 Y-5.6431
N14415 X6.918 Y-5.6408
N14420 X6.9179 Y-5.6385
N14425 X6.883 Y-5.3683
N14430 G3 X6.8728 Y-5.3562 I-0.0145 J-0.0019
N14435 G1 X6.824 Y-5.3409
N14440 G3 X6.8054 Y-5.3582 I-0.0044 J-0.014
N14445 G2 X6.7741 Y-5.9042 I-0.9307 J-0.2204
N14450 G3 X6.8021 Y-5.9121 I0.0138 J-0.005
N14455 G1 X6.8586 Y-5.6402
N14460 X6.8589 Y-5.6377
N14465 X6.8588 Y-5.6352
N14470 X6.8196 Y-5.3549
N14475 G3 X6.8096 Y-5.343 I-0.0145 J-0.002
N14480 G1 X6.7607 Y-5.3272
N14485 G3 X6.7421 Y-5.345 I-0.0045 J-0.0139
N14490 G2 X6.7102 Y-5.9104 I-0.8678 J-0.2346
N14495 G3 X6.7381 Y-5.919 I0.0136 J-0.0054
N14500 G1 X6.8009 Y-5.6373
N14505 X6.8012 Y-5.6346
N14510 X6.801 Y-5.6319
N14515 X6.7562 Y-5.3411
N14520 G3 X6.7464 Y-5.3295 I-0.0145 J-0.0022
N14525 G1 X6.6957 Y-5.3127
N14530 G3 X6.6771 Y-5.3309 I-0.0046 J-0.0139
N14535 G2 X6.6442 Y-5.9168 I-0.8028 J-0.2487
N14540 G3 X6.6718 Y-5.9261 I0.0134 J-0.0059
N14545 G1 X6.7424 Y-5.6344
N14550 X6.7428 Y-5.6315
N14555 X6.7426 Y-5.6285
N14560 X6.6911 Y-5.3266
N14565 G3 X6.682 Y-5.3154 I-0.0144 J-0.0025
N14570 G1 X6.6286 Y-5.2947
N14575 G3 X6.6095 Y-5.3133 I-0.0053 J-0.0136
N14580 G2 X6.5749 Y-5.9269 I-0.7352 J-0.2663
N14585 G3 X6.6021 Y-5.9372 I0.0131 J-0.0065
N14590 G1 X6.684 Y-5.6319
N14595 X6.6844 Y-5.6297
N14600 X6.6845 Y-5.6275
N14605 X6.6842 Y-5.6253
N14610 X6.6233 Y-5.3083
N14615 G3 X6.6143 Y-5.2975 I-0.0144 J-0.0028
N14620 G1 X6.5582 Y-5.2755
N14625 G3 X6.5394 Y-5.2948 I-0.0053 J-0.0136
N14630 G2 X6.5032 Y-5.9372 I-0.6651 J-0.2848
N14635 G3 X6.5299 Y-5.9486 I0.0127 J-0.0072
N14640 G1 X6.6256 Y-5.6292
N14645 X6.6261 Y-5.6268
N14650 X6.6262 Y-5.6243
N14655 X6.6258 Y-5.6219
N14660 X6.5528 Y-5.2891
N14665 G3 X6.544 Y-5.2786 I-0.0143 J-0.0031
N14670 G1 X6.4837 Y-5.2545
N14675 G3 X6.4653 Y-5.2748 I-0.0054 J-0.0136
N14680 G2 X6.4273 Y-5.9489 I-0.591 J-0.3048
N14685 G3 X6.4531 Y-5.9623 I0.0122 J-0.0081
N14690 G1 X6.5816 Y-5.6289
N14695 X6.5823 Y-5.6266
N14700 X6.5826 Y-5.6243
N14705 X6.5825 Y-5.6219
N14710 X6.582 Y-5.6195
N14715 X6.4783 Y-5.2681
N14720 G3 X6.4704 Y-5.259 I-0.014 J-0.0041
N14725 G1 X6.4005 Y-5.2268
N14730 G3 X6.3822 Y-5.2481 I-0.0061 J-0.0133
N14735 G2 X6.4808 Y-5.5828 I-0.5078 J-0.3315
N14740 G1 X6.4773 Y-5.6449
N14745 G2 X6.3418 Y-5.966 I-0.6029 J0.0653
N14750 G3 X6.3655 Y-5.9829 I0.0113 J-0.0093
N14755 G1 X6.4581 Y-5.8318
N14760 X6.4593 Y-5.8294
N14765 X6.46 Y-5.8267
N14770 X6.4918 Y-5.6464
N14775 G3 X6.4901 Y-5.6367 I-0.0144 J0.0025
N14780 G1 X6.2617 Y-5.2342
N14785 G2 X6.2854 Y-5.2173 I0.0127 J0.0072
N14790 X6.2421 Y-5.9858 I-0.4111 J-0.3623
N14795 G1 X6.2415 Y-5.9863
N14800 X6.2391 Y-5.9885 Z-0.3439
N14805 X6.2368 Y-5.9906 Z-0.3431
N14810 X6.2346 Y-5.9926 Z-0.3417
N14815 X6.2326 Y-5.9944 Z-0.3398
N14820 X6.2309 Y-5.996 Z-0.3375
N14825 X6.2295 Y-5.9972 Z-0.3348
N14830 X6.2285 Y-5.9981 Z-0.3319
N14835 X6.2278 Y-5.9987 Z-0.3287
N14840 X6.2276 Y-5.9989 Z-0.3255
N14845 G0 Z0.2
N14850 X6.0869 Y-5.1404
N14855 G1 Z-0.192 F13.333
N14860 Z-0.3255 F18.
N14865 X6.0871 Y-5.1406 Z-0.3287
N14870 X6.0879 Y-5.141 Z-0.3319
N14875 X6.0891 Y-5.1416 Z-0.3348
N14880 X6.0907 Y-5.1425 Z-0.3375
N14885 X6.0928 Y-5.1436 Z-0.3398
N14890 X6.0951 Y-5.1449 Z-0.3417
N14895 X6.0977 Y-5.1463 Z-0.3431
N14900 X6.1005 Y-5.1478 Z-0.3439
N14905 X6.1034 Y-5.1493 Z-0.3442
N14910 X6.105 Y-5.1502
N14915 G2 X6.0552 Y-6.0322 I-0.2307 J-0.4294
N14920 G3 X6.0611 Y-6.05 I0.0035 J-0.0087
N14925 G1 X7.9301 Y-5.5674
N14930 G2 X7.9418 Y-5.5766 I0.0023 J-0.0091
N14935 G1 Y-5.5799 Z-0.3445
N14940 X7.9417 Y-5.583 Z-0.3453
N14945 Y-5.586 Z-0.3467
N14950 X7.9416 Y-5.5887 Z-0.3486
N14955 Y-5.591 Z-0.3509
N14960 Y-5.5928 Z-0.3536
N14965 X7.9415 Y-5.5942 Z-0.3565
N14970 Y-5.5951 Z-0.3597
N14975 Y-5.5954 Z-0.363
N14980 Z-0.4402
N14985 Y-5.5956 Z-0.4434
N14990 Y-5.5965 Z-0.4466
N14995 Y-5.5979 Z-0.4496
N15000 X7.9414 Y-5.5997 Z-0.4522
N15005 Y-5.6021 Z-0.4546
N15010 Y-5.6047 Z-0.4564
N15015 X7.9413 Y-5.6077 Z-0.4578
N15020 Y-5.6109 Z-0.4587
N15025 X7.9412 Y-5.6141 Z-0.4589
N15030 Y-5.6148
N15035 G2 X7.9321 Y-5.7767 I-2.0669 J0.0352
N15040 G3 X7.9612 Y-5.7792 I0.0146 J-0.0014
N15045 G1 X7.9675 Y-5.7007
N15050 X7.9676 Y-5.6991
N15055 X7.9674 Y-5.6975
N15060 X7.9558 Y-5.6151
N15065 X7.9552 Y-5.6125
N15070 X7.909 Y-5.4755
N15075 G3 X7.8806 Y-5.4809 I-0.0139 J-0.0047
N15080 G2 X7.8568 Y-5.9028 I-2.0062 J-0.0987
N15085 G3 X7.8858 Y-5.9067 I0.0144 J-0.0024
N15090 G1 X7.909 Y-5.6966
N15095 Y-5.6941
N15100 X7.8952 Y-5.4802
N15105 X7.8947 Y-5.4774
N15110 X7.8937 Y-5.4748
N15115 X7.8923 Y-5.4723
N15120 X7.8441 Y-5.4081
N15125 G3 X7.8178 Y-5.4181 I-0.0117 J-0.0088
N15130 G2 X7.7873 Y-5.9586 I-1.9435 J-0.1615
N15135 G3 X7.8162 Y-5.9633 I0.0143 J-0.0028
N15140 G1 X7.8505 Y-5.6938
N15145 X7.8506 Y-5.691
N15150 X7.8324 Y-5.4169
N15155 G3 X7.8269 Y-5.4064 I-0.0146 J-0.001
N15160 G1 X7.7792 Y-5.3686
N15165 G3 X7.7556 Y-5.3816 I-0.0091 J-0.0115
N15170 G2 X7.7215 Y-5.9876 I-1.8813 J-0.198
N15175 G3 X7.7502 Y-5.9927 I0.0143 J-0.0032
N15180 G1 X7.7921 Y-5.6906
N15185 X7.7922 Y-5.6891
N15190 Y-5.6876
N15195 X7.7701 Y-5.3801
N15200 G3 X7.7615 Y-5.3678 I-0.0146 J-0.001
N15205 G1 X7.715 Y-5.3469
N15210 G3 X7.6945 Y-5.362 I-0.006 J-0.0133
N15215 G2 X7.6586 Y-6.0003 I-1.8202 J-0.2176
N15220 G3 X7.6873 Y-6.0058 I0.0142 J-0.0034
N15225 G1 X7.7337 Y-5.6876
N15230 X7.7338 Y-5.686
N15235 Y-5.6844
N15240 X7.709 Y-5.3603
N15245 G3 X7.6972 Y-5.347 I-0.0146 J-0.0011
N15250 G1 X7.6519 Y-5.3383
N15255 G3 X7.6347 Y-5.3545 I-0.0028 J-0.0144
N15260 G2 X7.5982 Y-6.0013 I-1.7603 J-0.2251
N15265 G3 X7.6268 Y-6.007 I0.0142 J-0.0035
N15270 G1 X7.6753 Y-5.6846
N15275 X7.6754 Y-5.6829
N15280 Y-5.6812
N15285 X7.6492 Y-5.3526
N15290 G3 X7.6344 Y-5.3392 I-0.0146 J-0.0012
N15295 G1 X7.5902 Y-5.3397
N15300 G3 X7.5759 Y-5.3562 I0.0002 J-0.0146
N15305 G2 X7.54 Y-5.9928 I-1.7016 J-0.2234
N15310 G3 X7.5687 Y-5.9985 I0.0142 J-0.0035
N15315 G1 X7.6169 Y-5.6812
N15320 X7.617 Y-5.6795
N15325 Y-5.6778
N15330 X7.5904 Y-5.3543
N15335 G3 X7.5719 Y-5.3414 I-0.0146 J-0.0012
N15340 G1 X7.5292 Y-5.3534
N15345 G3 X7.5186 Y-5.3693 I0.0039 J-0.0141
N15350 G2 X7.4846 Y-5.9733 I-1.6443 J-0.2103
N15355 G3 X7.5132 Y-5.9789 I0.0142 J-0.0035
N15360 G1 X7.5585 Y-5.6779
N15365 X7.5586 Y-5.6762
N15370 Y-5.6745
N15375 X7.5331 Y-5.3675
N15380 G3 X7.511 Y-5.3561 I-0.0146 J-0.0012
N15385 G1 X7.4698 Y-5.381
N15390 G3 X7.4628 Y-5.3952 I0.0076 J-0.0125
N15395 G2 X7.4321 Y-5.9411 I-1.5885 J-0.1844
N15400 G3 X7.4608 Y-5.9465 I0.0142 J-0.0033
N15405 G1 X7.5001 Y-5.6744
N15410 X7.5002 Y-5.6728
N15415 Y-5.6711
N15420 X7.4773 Y-5.3935
N15425 G3 X7.4547 Y-5.3825 I-0.0146 J-0.0012
N15430 G1 X7.4135 Y-5.4098
N15435 G3 X7.4071 Y-5.4234 I0.0081 J-0.0122
N15440 G2 X7.3798 Y-5.9071 I-1.5327 J-0.1562
N15445 G3 X7.4086 Y-5.9122 I0.0143 J-0.0031
N15450 G1 X7.4417 Y-5.6712
N15455 X7.4418 Y-5.6696
N15460 X7.4417 Y-5.668
N15465 X7.4216 Y-5.422
N15470 G3 X7.4042 Y-5.4088 I-0.0146 J-0.0012
N15475 G1 X7.3627 Y-5.417
N15480 G3 X7.351 Y-5.4328 I0.0028 J-0.0143
N15485 G2 X7.3252 Y-5.8912 I-1.4767 J-0.1468
N15490 G3 X7.354 Y-5.8963 I0.0143 J-0.0031
N15495 G1 X7.385 Y-5.6679
N15500 X7.3852 Y-5.6663
N15505 X7.3851 Y-5.6647
N15510 X7.3655 Y-5.4314
N15515 G3 X7.3527 Y-5.4181 I-0.0146 J-0.0012
N15520 G1 X7.308 Y-5.4127
N15525 G3 X7.2918 Y-5.4288 I-0.0017 J-0.0145
N15530 G2 X7.2658 Y-5.8887 I-1.4175 J-0.1508
N15535 G3 X7.2946 Y-5.8939 I0.0143 J-0.0032
N15540 G1 X7.3266 Y-5.6648
N15545 X7.3268 Y-5.6631
N15550 X7.3267 Y-5.6615
N15555 X7.3063 Y-5.4273
N15560 G3 X7.2941 Y-5.4141 I-0.0146 J-0.0013
N15565 G1 X7.2492 Y-5.4066
N15570 G3 X7.2322 Y-5.4227 I-0.0024 J-0.0144
N15575 G2 X7.206 Y-5.8879 I-1.3579 J-0.1569
N15580 G3 X7.2348 Y-5.8933 I0.0142 J-0.0033
N15585 G1 X7.2682 Y-5.6615
N15590 X7.2684 Y-5.6598
N15595 X7.2683 Y-5.6581
N15600 X7.2468 Y-5.421
N15605 G3 X7.2345 Y-5.4079 I-0.0146 J-0.0013
N15610 G1 X7.1894 Y-5.4008
N15615 G3 X7.1726 Y-5.4171 I-0.0023 J-0.0144
N15620 G2 X7.1461 Y-5.887 I-1.2983 J-0.1625
N15625 G3 X7.1748 Y-5.8926 I0.0142 J-0.0034
N15630 G1 X7.2098 Y-5.6584
N15635 X7.21 Y-5.6567
N15640 X7.2099 Y-5.6549
N15645 X7.1871 Y-5.4152
N15650 G3 X7.1751 Y-5.4022 I-0.0146 J-0.0014
N15655 G1 X7.1298 Y-5.3942
N15660 G3 X7.1128 Y-5.4106 I-0.0026 J-0.0144
N15665 G2 X7.086 Y-5.8865 I-1.2385 J-0.169
N15670 G3 X7.1146 Y-5.8923 I0.0142 J-0.0036
N15675 G1 X7.1514 Y-5.6552
N15680 X7.1516 Y-5.6533
N15685 X7.1515 Y-5.6515
N15690 X7.1273 Y-5.4086
N15695 G3 X7.1161 Y-5.3958 I-0.0146 J-0.0015
N15700 G1 X7.0702 Y-5.3848
N15705 G3 X7.0523 Y-5.4012 I-0.0034 J-0.0142
N15710 G2 X7.0248 Y-5.8892 I-1.178 J-0.1784
N15715 G3 X7.0534 Y-5.8954 I0.0141 J-0.0038
N15720 G1 X7.093 Y-5.6522
N15725 X7.0932 Y-5.6502
N15730 X7.0931 Y-5.6483
N15735 X7.0668 Y-5.399
N15740 G3 X7.0557 Y-5.3863 I-0.0145 J-0.0015
N15745 G1 X7.0094 Y-5.3752
N15750 G3 X6.9916 Y-5.3918 I-0.0034 J-0.0142
N15755 G2 X6.9635 Y-5.8915 I-1.1173 J-0.1878
N15760 G3 X6.992 Y-5.898 I0.0141 J-0.004
N15765 G1 X7.0346 Y-5.649
N15770 X7.0348 Y-5.6469
N15775 X7.0347 Y-5.6449
N15780 X7.006 Y-5.3894
N15785 G3 X6.9949 Y-5.3768 I-0.0145 J-0.0016
N15790 G1 X6.9483 Y-5.3656
N15795 G3 X6.9305 Y-5.3826 I-0.0034 J-0.0142
N15800 G2 X6.9017 Y-5.8941 I-1.0562 J-0.1971
N15805 G3 X6.9301 Y-5.9009 I0.014 J-0.0043
N15810 G1 X6.9761 Y-5.646
N15815 X6.9764 Y-5.6439
N15820 X6.9763 Y-5.6417
N15825 X6.9449 Y-5.3799
N15830 G3 X6.9344 Y-5.3675 I-0.0145 J-0.0017
N15835 G1 X6.887 Y-5.3542
N15840 G3 X6.8687 Y-5.3713 I-0.004 J-0.0141
N15845 G2 X6.8389 Y-5.8985 I-0.9944 J-0.2083
N15850 G3 X6.8672 Y-5.9059 I0.0139 J-0.0046
N15855 G1 X6.9177 Y-5.6431
N15860 X6.918 Y-5.6408
N15865 X6.9179 Y-5.6385
N15870 X6.883 Y-5.3683
N15875 G3 X6.8728 Y-5.3562 I-0.0145 J-0.0019
N15880 G1 X6.824 Y-5.3409
N15885 G3 X6.8054 Y-5.3582 I-0.0044 J-0.014
N15890 G2 X6.7741 Y-5.9042 I-0.9307 J-0.2204
N15895 G3 X6.8021 Y-5.9121 I0.0138 J-0.005
N15900 G1 X6.8586 Y-5.6402
N15905 X6.8589 Y-5.6377
N15910 X6.8588 Y-5.6352
N15915 X6.8196 Y-5.3549
N15920 G3 X6.8096 Y-5.343 I-0.0145 J-0.002
N15925 G1 X6.7607 Y-5.3272
N15930 G3 X6.7421 Y-5.345 I-0.0045 J-0.0139
N15935 G2 X6.7102 Y-5.9104 I-0.8678 J-0.2346
N15940 G3 X6.7381 Y-5.919 I0.0136 J-0.0054
N15945 G1 X6.8009 Y-5.6373
N15950 X6.8012 Y-5.6346
N15955 X6.801 Y-5.6319
N15960 X6.7562 Y-5.3411
N15965 G3 X6.7464 Y-5.3295 I-0.0145 J-0.0022
N15970 G1 X6.6957 Y-5.3127
N15975 G3 X6.6771 Y-5.3309 I-0.0046 J-0.0139
N15980 G2 X6.6442 Y-5.9168 I-0.8028 J-0.2487
N15985 G3 X6.6718 Y-5.9261 I0.0134 J-0.0059
N15990 G1 X6.7424 Y-5.6344
N15995 X6.7428 Y-5.6315
N16000 X6.7426 Y-5.6285
N16005 X6.6911 Y-5.3266
N16010 G3 X6.682 Y-5.3154 I-0.0144 J-0.0025
N16015 G1 X6.6286 Y-5.2947
N16020 G3 X6.6095 Y-5.3133 I-0.0053 J-0.0136
N16025 G2 X6.5749 Y-5.9269 I-0.7352 J-0.2663
N16030 G3 X6.6021 Y-5.9372 I0.0131 J-0.0065
N16035 G1 X6.684 Y-5.6319
N16040 X6.6844 Y-5.6297
N16045 X6.6845 Y-5.6275
N16050 X6.6842 Y-5.6253
N16055 X6.6233 Y-5.3083
N16060 G3 X6.6143 Y-5.2975 I-0.0144 J-0.0028
N16065 G1 X6.5582 Y-5.2755
N16070 G3 X6.5394 Y-5.2948 I-0.0053 J-0.0136
N16075 G2 X6.5032 Y-5.9372 I-0.6651 J-0.2848
N16080 G3 X6.5299 Y-5.9486 I0.0127 J-0.0072
N16085 G1 X6.6256 Y-5.6292
N16090 X6.6261 Y-5.6268
N16095 X6.6262 Y-5.6243
N16100 X6.6258 Y-5.6219
N16105 X6.5528 Y-5.2891
N16110 G3 X6.544 Y-5.2786 I-0.0143 J-0.0031
N16115 G1 X6.4837 Y-5.2545
N16120 G3 X6.4653 Y-5.2748 I-0.0054 J-0.0136
N16125 G2 X6.4273 Y-5.9489 I-0.591 J-0.3048
N16130 G3 X6.4531 Y-5.9623 I0.0122 J-0.0081
N16135 G1 X6.5816 Y-5.6289
N16140 X6.5823 Y-5.6266
N16145 X6.5826 Y-5.6243
N16150 X6.5825 Y-5.6219
N16155 X6.582 Y-5.6195
N16160 X6.4783 Y-5.2681
N16165 G3 X6.4704 Y-5.259 I-0.014 J-0.0041
N16170 G1 X6.4005 Y-5.2268
N16175 G3 X6.3822 Y-5.2481 I-0.0061 J-0.0133
N16180 G2 X6.4808 Y-5.5828 I-0.5078 J-0.3315
N16185 G1 X6.4773 Y-5.6449
N16190 G2 X6.3418 Y-5.966 I-0.6029 J0.0653
N16195 G3 X6.3655 Y-5.9829 I0.0113 J-0.0093
N16200 G1 X6.4581 Y-5.8318
N16205 X6.4593 Y-5.8294
N16210 X6.46 Y-5.8267
N16215 X6.4918 Y-5.6464
N16220 G3 X6.4901 Y-5.6367 I-0.0144 J0.0025
N16225 G1 X6.2617 Y-5.2342
N16230 G2 X6.2854 Y-5.2173 I0.0127 J0.0072
N16235 X6.2421 Y-5.9858 I-0.4111 J-0.3623
N16240 G1 X6.2415 Y-5.9863
N16245 X6.2391 Y-5.9885 Z-0.4587
N16250 X6.2368 Y-5.9906 Z-0.4578
N16255 X6.2346 Y-5.9926 Z-0.4564
N16260 X6.2326 Y-5.9944 Z-0.4546
N16265 X6.2309 Y-5.996 Z-0.4522
N16270 X6.2295 Y-5.9972 Z-0.4496
N16275 X6.2285 Y-5.9981 Z-0.4466
N16280 X6.2278 Y-5.9987 Z-0.4434
N16285 X6.2276 Y-5.9989 Z-0.4402
N16290 G0 Z0.2
N16295 X6.0869 Y-5.1404
N16300 G1 Z-0.3067 F13.333
N16305 Z-0.4402 F18.
N16310 X6.0871 Y-5.1406 Z-0.4434
N16315 X6.0879 Y-5.141 Z-0.4466
N16320 X6.0891 Y-5.1416 Z-0.4496
N16325 X6.0907 Y-5.1425 Z-0.4522
N16330 X6.0928 Y-5.1436 Z-0.4546
N16335 X6.0951 Y-5.1449 Z-0.4564
N16340 X6.0977 Y-5.1463 Z-0.4578
N16345 X6.1005 Y-5.1478 Z-0.4587
N16350 X6.1034 Y-5.1493 Z-0.4589
