%
O01001
(Using G0 which travels along dogleg path.)
(T1 D=1.5 CR=0. - ZMIN=-0.0157 - face mill)
(T2 D=0.25 CR=0. TAPER=140deg - ZMIN=-1.08 - drill)
(T3 D=0.315 CR=0. TAPER=140deg - ZMIN=-1.08 - drill)
(T4 D=0.1969 CR=0. TAPER=118deg - ZMIN=-1.08 - drill)
(T5 D=0.5 CR=0. TAPER=118deg - ZMIN=-1.2302 - drill)
(T6 D=0.375 CR=0. - ZMIN=-1.08 - flat end mill)
(T7 D=0.25 CR=0. - ZMIN=-1.08 - flat end mill)
(T8 D=0.1875 CR=0. - ZMIN=-0.8031 - flat end mill)
(T9 D=0.136 CR=0. TAPER=118deg - ZMIN=-0.1157 - drill)
N10 G90 G94 G17
N15 G20
N20 G53 G0 Z0.

(Face1)
N25 T1 M6
N30 S4176 M3
N35 G17 G90 G94
N40 G54
N45 M8
N50 G0 X13.975 Y-5.605
N55 G43 Z0.6 H1
N60 T9
N65 G0 Z0.2
N70 G1 Z0.1343 F13.333
N75 G18 G3 X13.825 Z-0.0157 I-0.15 K0. F100.229
N80 G1 X13.7504
N85 X-0.7504
N90 G17 G2 Y-3.98 I0. J0.8125
N95 G1 X13.7504
N100 G3 Y-2.355 I0. J0.8125
N105 G1 X-0.7504
N110 G2 Y-0.73 I0. J0.8125
N115 G1 X13.7504
N120 G18 G2 X13.9004 Z0.1343 I0. K0.15
N125 G0 Z0.6
N130 M9
N135 M5
N140 G53 G0 Z0.

(Centerdrill)
N145 M1
N150 T9 M6
N155 S7022 M3
N160 G17 G90 G94
N165 G54
N170 M8
N175 G0 X5.0096 Y-1.3464
N180 G43 Z0.6 H9
N185 T2
N190 G0 Z0.2
N195 G98 G81 X5.0096 Y-1.3464 Z-0.1157 R0.1843 F14.043
N200 X9.5151 Y-1.3533
N205 X9.7625 Y-2.0357
N210 X11.4723 Y-3.7506
N215 X11.3575 Y-4.4673
N220 X8.7347 Y-4.6121
N225 X5.8743 Y-5.5796
N230 X0.9683 Y-4.892
N235 G80
N240 G0 Z0.6
N245 M9
N250 M5
N255 G53 G0 Z0.

(1/4" Drill)
N260 M1
N265 T2 M6
N270 S4507 M3
N275 G17 G90 G94
N280 G54
N285 M8
N290 G0 X5.6395 Y-0.7828
N295 G43 Z0.6 H2
N300 T3
N305 G0 Z0.2
N310 G98 G83 X5.6395 Y-0.7828 Z-1.08 R0.1843 Q0.2 F35.607
N315 X10.4659 Y-1.3191
N320 X10.5096 Y-4.0359
N325 G80
N330 G0 X9.1465 Y-5.0384 Z0.2
N335 G98 G83 X9.1465 Y-5.0384 Z-1.08 R0.1843 Q0.2 F35.607
N340 X6.4661 Y-5.6129
N345 G80
N350 G0 X0.9531 Y-5.7371 Z0.2
N355 G98 G83 X0.9531 Y-5.7371 Z-1.08 R0.1843 Q0.2 F35.607
N360 G80
N365 G0 Z0.6
N370 M9
N375 M5
N380 G53 G0 Z0.

(M8 Drill)
N385 M1
N390 T3 M6
N395 S3396 M3
N400 G17 G90 G94
N405 G54
N410 M8
N415 G0 X0.4183 Y-2.2504
N420 G43 Z0.6 H3
N425 T4
N430 G0 Z0.2
N435 G95
N440 G98 G83 X0.4183 Y-2.2504 Z-1.08 R0.1843 Q0.2 F0.0059
N445 X2.6501 Y-2.6553
N450 X9.859 Y-4.7247
N455 X12.6929 Y-1.3527
N460 G80
N465 G94
N470 G0 Z0.6
N475 M9
N480 M5
N485 G53 G0 Z0.

(M5 Drill)
N490 M1
N495 T4 M6
N500 S4851 M3
N505 G17 G90 G94
N510 G54
N515 M8
N520 G0 X7.6216 Y-5.678
N525 G43 Z0.6 H4
N530 T5
N535 G0 Z0.2
N540 G95
N545 G98 G83 X7.6216 Y-5.678 Z-1.08 R0.1843 Q0.1 F0.004
N550 X9.9505 Y-5.8708
N555 X11.3575 Y-4.4673
N560 X11.4723 Y-3.7506
N565 X9.7625 Y-2.0357
N570 X9.5151 Y-1.3533
N575 X5.0096 Y-1.3464
N580 X0.9683 Y-4.892
N585 G80
N590 G94
N595 G0 Z0.6
N600 M9
N605 M5
N610 G53 G0 Z0.

(1/2" Drill)
N615 M1
N620 T5 M6
N625 S1910 M3
N630 G17 G90 G94
N635 G54
N640 M8
N645 G0 X8.0589 Y-0.7537
N650 G43 Z0.6 H5
N655 T6
N660 G0 Z0.2
N665 G95
N670 G98 G83 X8.0589 Y-0.7537 Z-1.2302 R0.1843 Q0.125 F0.008
N675 X5.8743 Y-5.5796
N680 X8.7347 Y-4.6121
N685 X12.3397 Y-5.6983
N690 G80
N695 G94
N700 G0 Z0.6
N705 M9
N710 M5
N715 G53 G0 Z0.

(3/8" Bore)
N720 M1
N725 T6 M6
N730 S8000 M3
N735 G17 G90 G94
N740 G54
N745 M8
N750 G0 X8.0831 Y-0.7231
N755 G43 Z0.6 H6
N760 T7
N765 G0 Z0.0643
N770 G1 Z0.0218 F80.3
N775 X8.0828 Y-0.723 Z0.0172
N780 X8.0821 Y-0.7227 Z0.0128
N785 X8.0808 Y-0.7222 Z0.0085
N790 X8.0791 Y-0.7215 Z0.0043
N795 X8.0769 Y-0.7206 Z0.0004
N800 X8.0744 Y-0.7195 Z-0.0031
N805 X8.0714 Y-0.7183 Z-0.0063
N810 X8.0681 Y-0.7169 Z-0.0091
N815 X8.0645 Y-0.7155 Z-0.0115
N820 X8.0607 Y-0.7139 Z-0.0133
N825 X8.0567 Y-0.7122 Z-0.0147
N830 X8.0526 Y-0.7105 Z-0.0155
N835 X8.0484 Y-0.7088 Z-0.0157
N840 X8.0311 Y-0.7017
N845 G3 X7.9821 Y-0.7221 I-0.0143 J-0.0347
N850 X7.9852 Y-0.7155 Z-0.0624 I0.0768 J-0.0316
N855 X7.9888 Y-0.7092 Z-0.1091 I0.0738 J-0.0382
N860 X7.9929 Y-0.7033 Z-0.1558 I0.0702 J-0.0445
N865 X7.9976 Y-0.6977 Z-0.2025 I0.066 J-0.0504
N870 X8.0027 Y-0.6926 Z-0.2492 I0.0614 J-0.056
N875 X8.0082 Y-0.6879 Z-0.2959 I0.0563 J-0.0611
N880 X8.0142 Y-0.6837 Z-0.3426 I0.0507 J-0.0658
N885 X8.0204 Y-0.6801 Z-0.3893 I0.0448 J-0.07
N890 X8.027 Y-0.677 Z-0.436 I0.0385 J-0.0736
N895 X8.0338 Y-0.6745 Z-0.4826 I0.032 J-0.0767
N900 X8.0408 Y-0.6726 Z-0.5293 I0.0252 J-0.0792
N905 X8.0479 Y-0.6714 Z-0.576 I0.0182 J-0.0811
N910 X8.0552 Y-0.6707 Z-0.6227 I0.011 J-0.0824
N915 X8.0624 Z-0.6694 I0.0038 J-0.083
N920 X8.0696 Y-0.6713 Z-0.7161 I-0.0035 J-0.083
N925 X8.0768 Y-0.6726 Z-0.7628 I-0.0107 J-0.0824
N930 X8.0838 Y-0.6744 Z-0.8095 I-0.0178 J-0.0812
N935 X8.0906 Y-0.6769 Z-0.8562 I-0.0248 J-0.0793
N940 X8.0972 Y-0.6799 Z-0.9029 I-0.0316 J-0.0768
N945 X8.1034 Y-0.6835 Z-0.9495 I-0.0382 J-0.0738
N950 X8.1094 Y-0.6877 Z-0.9962 I-0.0445 J-0.0702
N955 X8.115 Y-0.6923 Z-1.0429 I-0.0504 J-0.066
N960 X8.1306 Y-0.7958 Z-1.08 I-0.056 J-0.0614
N965 X7.9873 Y-0.7116 I-0.0716 J0.0421
N970 X8.1306 Y-0.7958 I0.0716 J-0.0421
N975 X8.1173 Y-0.7445 I-0.0323 J0.019
N980 G1 X8.1011 Y-0.735
N985 X8.0972 Y-0.7327 Z-1.0797
N990 X8.0934 Y-0.7304 Z-1.0789
N995 X8.0896 Y-0.7282 Z-1.0776
N1000 X8.0861 Y-0.7262 Z-1.0757
N1005 X8.0827 Y-0.7242 Z-1.0734
N1010 X8.0796 Y-0.7224 Z-1.0706
N1015 X8.0769 Y-0.7208 Z-1.0674
N1020 X8.0745 Y-0.7193 Z-1.0638
N1025 X8.0725 Y-0.7182 Z-1.0599
N1030 X8.0709 Y-0.7172 Z-1.0558
N1035 X8.0697 Y-0.7165 Z-1.0515
N1040 X8.069 Y-0.7161 Z-1.047
N1045 X8.0688 Y-0.716 Z-1.0425
N1050 G0 Z0.2
N1055 X5.9118 Y-5.5903
N1060 Z0.0643
N1065 G1 Z0.0218 F80.3
N1070 G19 G3 Y-5.5528 Z-0.0157 J0.0375 K0.
N1075 G1 Y-5.534
N1080 G17 G3 X5.8743 Y-5.4965 I-0.0375 J0.
N1085 X5.8816 Y-5.4968 Z-0.0624 I0. J-0.0831
N1090 X5.8888 Y-5.4978 Z-0.1091 I-0.0072 J-0.0828
N1095 X5.8958 Y-5.4993 Z-0.1558 I-0.0144 J-0.0818
N1100 X5.9027 Y-5.5015 Z-0.2025 I-0.0215 J-0.0803
N1105 X5.9094 Y-5.5043 Z-0.2492 I-0.0284 J-0.0781
N1110 X5.9159 Y-5.5076 Z-0.2959 I-0.0351 J-0.0753
N1115 X5.922 Y-5.5115 Z-0.3426 I-0.0415 J-0.072
N1120 X5.9277 Y-5.516 Z-0.3893 I-0.0477 J-0.0681
N1125 X5.9331 Y-5.5208 Z-0.436 I-0.0534 J-0.0637
N1130 X5.938 Y-5.5262 Z-0.4826 I-0.0588 J-0.0588
N1135 X5.9424 Y-5.5319 Z-0.5293 I-0.0637 J-0.0534
N1140 X5.9463 Y-5.5381 Z-0.576 I-0.0681 J-0.0477
N1145 X5.9496 Y-5.5445 Z-0.6227 I-0.072 J-0.0415
N1150 X5.9524 Y-5.5512 Z-0.6694 I-0.0753 J-0.0351
N1155 X5.9546 Y-5.5581 Z-0.7161 I-0.0781 J-0.0284
N1160 X5.9562 Y-5.5652 Z-0.7628 I-0.0803 J-0.0215
N1165 X5.9571 Y-5.5724 Z-0.8095 I-0.0818 J-0.0144
N1170 X5.9574 Y-5.5796 Z-0.8562 I-0.0828 J-0.0072
N1175 X5.9571 Y-5.5868 Z-0.9029 I-0.0831 J0.
N1180 X5.9562 Y-5.594 Z-0.9495 I-0.0828 J0.0072
N1185 X5.9546 Y-5.6011 Z-0.9962 I-0.0818 J0.0144
N1190 X5.9524 Y-5.608 Z-1.0429 I-0.0803 J0.0215
N1195 X5.8627 Y-5.6619 Z-1.08 I-0.0781 J0.0284
N1200 X5.886 Y-5.4973 I0.0117 J0.0823
N1205 X5.8627 Y-5.6619 I-0.0117 J-0.0823
N1210 X5.9051 Y-5.63 I0.0053 J0.0371
N1215 G1 X5.9077 Y-5.6114
N1220 X5.9083 Y-5.607 Z-1.0797
N1225 X5.9089 Y-5.6026 Z-1.0789
N1230 X5.9096 Y-5.5983 Z-1.0776
N1235 X5.9101 Y-5.5942 Z-1.0757
N1240 X5.9107 Y-5.5903 Z-1.0734
N1245 X5.9112 Y-5.5868 Z-1.0706
N1250 X5.9116 Y-5.5836 Z-1.0674
N1255 X5.912 Y-5.5809 Z-1.0638
N1260 X5.9123 Y-5.5786 Z-1.0599
N1265 X5.9126 Y-5.5767 Z-1.0558
N1270 X5.9128 Y-5.5754 Z-1.0515
N1275 X5.9129 Y-5.5746 Z-1.047
N1280 Y-5.5743 Z-1.0425
N1285 G0 Z0.2
N1290 X8.7183 Y-4.5767
N1295 Z0.0643
N1300 G1 Z0.0218 F80.3
N1305 X8.7181 Y-4.5769 Z0.0172
N1310 X8.7175 Y-4.5774 Z0.0128
N1315 X8.7165 Y-4.5783 Z0.0085
N1320 X8.7151 Y-4.5795 Z0.0043
N1325 X8.7133 Y-4.5811 Z0.0004
N1330 X8.7112 Y-4.5829 Z-0.0031
N1335 X8.7087 Y-4.585 Z-0.0063
N1340 X8.706 Y-4.5873 Z-0.0091
N1345 X8.7031 Y-4.5898 Z-0.0115
N1350 X8.7 Y-4.5925 Z-0.0133
N1355 X8.6967 Y-4.5954 Z-0.0147
N1360 X8.6933 Y-4.5983 Z-0.0155
N1365 X8.6899 Y-4.6012 Z-0.0157
N1370 X8.6757 Y-4.6135
N1375 G3 X8.6718 Y-4.6664 I0.0245 J-0.0284
N1380 X8.6673 Y-4.6607 Z-0.0624 I0.0629 J0.0543
N1385 X8.6633 Y-4.6546 Z-0.1091 I0.0674 J0.0486
N1390 X8.6599 Y-4.6482 Z-0.1558 I0.0714 J0.0425
N1395 X8.657 Y-4.6416 Z-0.2025 I0.0748 J0.0361
N1400 X8.6548 Y-4.6347 Z-0.2492 I0.0777 J0.0295
N1405 X8.6531 Y-4.6276 Z-0.2959 I0.08 J0.0226
N1410 X8.6521 Y-4.6205 Z-0.3426 I0.0816 J0.0155
N1415 X8.6516 Y-4.6132 Z-0.3893 I0.0827 J0.0084
N1420 X8.6519 Y-4.606 Z-0.436 I0.0831 J0.0011
N1425 X8.6527 Y-4.5988 Z-0.4826 I0.0829 J-0.0061
N1430 X8.6542 Y-4.5917 Z-0.5293 I0.082 J-0.0133
N1435 X8.6563 Y-4.5847 Z-0.576 I0.0805 J-0.0204
N1440 X8.659 Y-4.578 Z-0.6227 I0.0785 J-0.0274
N1445 X8.6622 Y-4.5715 Z-0.6694 I0.0758 J-0.0341
N1450 X8.666 Y-4.5654 Z-0.7161 I0.0725 J-0.0406
N1455 X8.6704 Y-4.5595 Z-0.7628 I0.0687 J-0.0467
N1460 X8.6752 Y-4.5541 Z-0.8095 I0.0644 J-0.0525
N1465 X8.6805 Y-4.5492 Z-0.8562 I0.0596 J-0.0579
N1470 X8.6861 Y-4.5447 Z-0.9029 I0.0543 J-0.0629
N1475 X8.6922 Y-4.5407 Z-0.9495 I0.0486 J-0.0674
N1480 X8.6986 Y-4.5373 Z-0.9962 I0.0425 J-0.0714
N1485 X8.7052 Y-4.5344 Z-1.0429 I0.0361 J-0.0748
N1490 X8.8046 Y-4.5672 Z-1.08 I0.0295 J-0.0777
N1495 X8.6648 Y-4.657 I-0.0699 J-0.0449
N1500 X8.8046 Y-4.5672 I0.0699 J0.0449
N1505 X8.7528 Y-4.5559 I-0.0315 J-0.0203
N1510 G1 X8.737 Y-4.566
N1515 X8.7332 Y-4.5685 Z-1.0797
N1520 X8.7295 Y-4.5709 Z-1.0789
N1525 X8.7259 Y-4.5732 Z-1.0776
N1530 X8.7224 Y-4.5754 Z-1.0757
N1535 X8.7191 Y-4.5775 Z-1.0734
N1540 X8.7161 Y-4.5795 Z-1.0706
N1545 X8.7134 Y-4.5812 Z-1.0674
N1550 X8.7111 Y-4.5827 Z-1.0638
N1555 X8.7091 Y-4.584 Z-1.0599
N1560 X8.7075 Y-4.585 Z-1.0558
N1565 X8.7064 Y-4.5857 Z-1.0515
N1570 X8.7057 Y-4.5862 Z-1.047
N1575 X8.7055 Y-4.5863 Z-1.0425
N1580 G0 Z0.2
N1585 X12.3038 Y-5.7134
N1590 Z0.0643
N1595 G1 Z0.0218 F80.3
N1600 X12.3039 Y-5.7136 Z0.0172
N1605 X12.3044 Y-5.7142 Z0.0128
N1610 X12.3053 Y-5.7153 Z0.0085
N1615 X12.3064 Y-5.7167 Z0.0043
N1620 X12.3079 Y-5.7185 Z0.0004
N1625 X12.3096 Y-5.7207 Z-0.0031
N1630 X12.3116 Y-5.7232 Z-0.0063
N1635 X12.3139 Y-5.726 Z-0.0091
N1640 X12.3163 Y-5.729 Z-0.0115
N1645 X12.3189 Y-5.7323 Z-0.0133
N1650 X12.3216 Y-5.7357 Z-0.0147
N1655 X12.3243 Y-5.7391 Z-0.0155
N1660 X12.3272 Y-5.7427 Z-0.0157
N1665 X12.3389 Y-5.7573
N1670 G3 X12.3916 Y-5.7632 I0.0293 J0.0234
N1675 X12.3857 Y-5.7675 Z-0.0624 I-0.0518 J0.0649
N1680 X12.3795 Y-5.7713 Z-0.1091 I-0.046 J0.0692
N1685 X12.373 Y-5.7744 Z-0.1558 I-0.0398 J0.073
N1690 X12.3662 Y-5.7771 Z-0.2025 I-0.0332 J0.0761
N1695 X12.3592 Y-5.7791 Z-0.2492 I-0.0265 J0.0788
N1700 X12.3521 Y-5.7805 Z-0.2959 I-0.0195 J0.0808
N1705 X12.3449 Y-5.7812 Z-0.3426 I-0.0124 J0.0822
N1710 X12.3377 Y-5.7814 Z-0.3893 I-0.0052 J0.0829
N1715 X12.3304 Y-5.7809 Z-0.436 I0.002 J0.0831
N1720 X12.3233 Y-5.7797 Z-0.4826 I0.0093 J0.0826
N1725 X12.3162 Y-5.778 Z-0.5293 I0.0164 J0.0814
N1730 X12.3094 Y-5.7757 Z-0.576 I0.0235 J0.0797
N1735 X12.3028 Y-5.7727 Z-0.6227 I0.0303 J0.0774
N1740 X12.2964 Y-5.7692 Z-0.6694 I0.037 J0.0744
N1745 X12.2904 Y-5.7652 Z-0.7161 I0.0433 J0.0709
N1750 X12.2848 Y-5.7606 Z-0.7628 I0.0493 J0.0669
N1755 X12.2795 Y-5.7556 Z-0.8095 I0.055 J0.0623
N1760 X12.2748 Y-5.7501 Z-0.8562 I0.0602 J0.0573
N1765 X12.2705 Y-5.7443 Z-0.9029 I0.0649 J0.0518
N1770 X12.2668 Y-5.7381 Z-0.9495 I0.0692 J0.046
N1775 X12.2636 Y-5.7315 Z-0.9962 I0.073 J0.0398
N1780 X12.261 Y-5.7248 Z-1.0429 I0.0761 J0.0332
N1785 X12.2975 Y-5.6267 Z-1.08 I0.0788 J0.0265
N1790 X12.3819 Y-5.7699 I0.0422 J-0.0716
N1795 X12.2975 Y-5.6267 I-0.0422 J0.0716
N1800 X12.2843 Y-5.6781 I0.019 J-0.0323
N1805 G1 X12.2938 Y-5.6942
N1810 X12.2961 Y-5.6981 Z-1.0797
N1815 X12.2984 Y-5.702 Z-1.0789
N1820 X12.3005 Y-5.7057 Z-1.0776
N1825 X12.3026 Y-5.7092 Z-1.0757
N1830 X12.3046 Y-5.7126 Z-1.0734
N1835 X12.3064 Y-5.7156 Z-1.0706
N1840 X12.308 Y-5.7184 Z-1.0674
N1845 X12.3095 Y-5.7208 Z-1.0638
N1850 X12.3107 Y-5.7228 Z-1.0599
N1855 X12.3116 Y-5.7244 Z-1.0558
N1860 X12.3123 Y-5.7256 Z-1.0515
N1865 X12.3127 Y-5.7263 Z-1.047
N1870 X12.3128 Y-5.7265 Z-1.0425
N1875 G0 Z0.6
N1880 M9
N1885 M5
N1890 G53 G0 Z0.

(1/4" Bore Finish 2)
N1895 M1
N1900 T7 M6
N1905 S10000 M3
N1910 G17 G90 G94
N1915 G54
N1920 M8
N1925 G0 X8.7923 Y-4.5837
N1930 G43 Z0.6 H7
N1935 T6
N1940 G0 Z0.2
N1945 G1 Z0.0394 F13.333
N1950 Z-0.1
N1955 X8.7925 Y-4.5835 Z-0.1039 F40.7
N1960 X8.7931 Y-4.5828 Z-0.1077
N1965 X8.7941 Y-4.5817 Z-0.1113
N1970 X8.7954 Y-4.5801 Z-0.1147
N1975 X8.7971 Y-4.5782 Z-0.1177
N1980 X8.799 Y-4.5759 Z-0.1202
N1985 X8.8012 Y-4.5734 Z-0.1223
N1990 X8.8036 Y-4.5707 Z-0.1238
N1995 X8.8061 Y-4.5678 Z-0.1247
N2000 X8.8086 Y-4.5648 Z-0.125
N2005 G41 X8.8345 Y-4.5541 D7
N2010 G3 X8.8306 Y-4.5012 I-0.0284 J0.0245
N2015 X8.6388 Y-4.7229 I-0.0959 J-0.1109 F40.
N2020 X8.8306 Y-4.5012 I0.0959 J0.1109
N2025 X8.7777 Y-4.505 I-0.0245 J-0.0284 F40.7
N2030 G1 G40 X8.7708 Y-4.5321
N2035 X8.7683 Y-4.5351 Z-0.1247
N2040 X8.7658 Y-4.538 Z-0.1238
N2045 X8.7634 Y-4.5407 Z-0.1223
N2050 X8.7612 Y-4.5432 Z-0.1202
N2055 X8.7593 Y-4.5455 Z-0.1177
N2060 X8.7576 Y-4.5474 Z-0.1147
N2065 X8.7563 Y-4.549 Z-0.1113
N2070 X8.7553 Y-4.5501 Z-0.1077
N2075 X8.7547 Y-4.5508 Z-0.1039
N2080 X8.7545 Y-4.551 Z-0.1
N2085 G0 Z0.2
N2090 X8.7923 Y-4.5837
N2095 G1 Z-0.0856 F13.333
N2100 Z-0.225
N2105 X8.7925 Y-4.5835 Z-0.2289 F40.7
N2110 X8.7931 Y-4.5828 Z-0.2327
N2115 X8.7941 Y-4.5817 Z-0.2363
N2120 X8.7954 Y-4.5801 Z-0.2397
N2125 X8.7971 Y-4.5782 Z-0.2427
N2130 X8.799 Y-4.5759 Z-0.2452
N2135 X8.8012 Y-4.5734 Z-0.2473
N2140 X8.8036 Y-4.5707 Z-0.2488
N2145 X8.8061 Y-4.5678 Z-0.2497
N2150 X8.8086 Y-4.5648 Z-0.25
N2155 G41 X8.8345 Y-4.5541 D7
N2160 G3 X8.8306 Y-4.5012 I-0.0284 J0.0245
N2165 X8.6388 Y-4.7229 I-0.0959 J-0.1109 F40.
N2170 X8.8306 Y-4.5012 I0.0959 J0.1109
N2175 X8.7777 Y-4.505 I-0.0245 J-0.0284 F40.7
N2180 G1 G40 X8.7708 Y-4.5321
N2185 X8.7683 Y-4.5351 Z-0.2497
N2190 X8.7658 Y-4.538 Z-0.2488
N2195 X8.7634 Y-4.5407 Z-0.2473
N2200 X8.7612 Y-4.5432 Z-0.2452
N2205 X8.7593 Y-4.5455 Z-0.2427
N2210 X8.7576 Y-4.5474 Z-0.2397
N2215 X8.7563 Y-4.549 Z-0.2363
N2220 X8.7553 Y-4.5501 Z-0.2327
N2225 X8.7547 Y-4.5508 Z-0.2289
N2230 X8.7545 Y-4.551 Z-0.225
N2235 G0 Z0.2
N2240 X8.7923 Y-4.5837
N2245 G1 Z-0.2106 F13.333
N2250 Z-0.35
N2255 X8.7925 Y-4.5835 Z-0.3539 F40.7
N2260 X8.7931 Y-4.5828 Z-0.3577
N2265 X8.7941 Y-4.5817 Z-0.3613
N2270 X8.7954 Y-4.5801 Z-0.3647
N2275 X8.7971 Y-4.5782 Z-0.3677
N2280 X8.799 Y-4.5759 Z-0.3702
N2285 X8.8012 Y-4.5734 Z-0.3723
N2290 X8.8036 Y-4.5707 Z-0.3738
N2295 X8.8061 Y-4.5678 Z-0.3747
N2300 X8.8086 Y-4.5648 Z-0.375
N2305 G41 X8.8345 Y-4.5541 D7
N2310 G3 X8.8306 Y-4.5012 I-0.0284 J0.0245
N2315 X8.6388 Y-4.7229 I-0.0959 J-0.1109 F40.
N2320 X8.8306 Y-4.5012 I0.0959 J0.1109
N2325 X8.7777 Y-4.505 I-0.0245 J-0.0284 F40.7
N2330 G1 G40 X8.7708 Y-4.5321
N2335 X8.7683 Y-4.5351 Z-0.3747
N2340 X8.7658 Y-4.538 Z-0.3738
N2345 X8.7634 Y-4.5407 Z-0.3723
N2350 X8.7612 Y-4.5432 Z-0.3702
N2355 X8.7593 Y-4.5455 Z-0.3677
N2360 X8.7576 Y-4.5474 Z-0.3647
N2365 X8.7563 Y-4.549 Z-0.3613
N2370 X8.7553 Y-4.5501 Z-0.3577
N2375 X8.7547 Y-4.5508 Z-0.3539
N2380 X8.7545 Y-4.551 Z-0.35
N2385 G0 Z0.2
N2390 X8.7923 Y-4.5837
N2395 G1 Z-0.3356 F13.333
N2400 Z-0.475
N2405 X8.7925 Y-4.5835 Z-0.4789 F40.7
N2410 X8.7931 Y-4.5828 Z-0.4827
N2415 X8.7941 Y-4.5817 Z-0.4863
N2420 X8.7954 Y-4.5801 Z-0.4897
N2425 X8.7971 Y-4.5782 Z-0.4927
N2430 X8.799 Y-4.5759 Z-0.4952
N2435 X8.8012 Y-4.5734 Z-0.4973
N2440 X8.8036 Y-4.5707 Z-0.4988
N2445 X8.8061 Y-4.5678 Z-0.4997
N2450 X8.8086 Y-4.5648 Z-0.5
N2455 G41 X8.8345 Y-4.5541 D7
N2460 G3 X8.8306 Y-4.5012 I-0.0284 J0.0245
N2465 X8.6388 Y-4.7229 I-0.0959 J-0.1109 F40.
N2470 X8.8306 Y-4.5012 I0.0959 J0.1109
N2475 X8.7777 Y-4.505 I-0.0245 J-0.0284 F40.7
N2480 G1 G40 X8.7708 Y-4.5321
N2485 X8.7683 Y-4.5351 Z-0.4997
N2490 X8.7658 Y-4.538 Z-0.4988
N2495 X8.7634 Y-4.5407 Z-0.4973
N2500 X8.7612 Y-4.5432 Z-0.4952
N2505 X8.7593 Y-4.5455 Z-0.4927
N2510 X8.7576 Y-4.5474 Z-0.4897
N2515 X8.7563 Y-4.549 Z-0.4863
N2520 X8.7553 Y-4.5501 Z-0.4827
N2525 X8.7547 Y-4.5508 Z-0.4789
N2530 X8.7545 Y-4.551 Z-0.475
N2535 G0 Z0.2
N2540 X8.7923 Y-4.5837
N2545 G1 Z-0.4606 F13.333
N2550 Z-0.6
N2555 X8.7925 Y-4.5835 Z-0.6039 F40.7
N2560 X8.7931 Y-4.5828 Z-0.6077
N2565 X8.7941 Y-4.5817 Z-0.6113
N2570 X8.7954 Y-4.5801 Z-0.6147
N2575 X8.7971 Y-4.5782 Z-0.6177
N2580 X8.799 Y-4.5759 Z-0.6202
N2585 X8.8012 Y-4.5734 Z-0.6223
N2590 X8.8036 Y-4.5707 Z-0.6238
N2595 X8.8061 Y-4.5678 Z-0.6247
N2600 X8.8086 Y-4.5648 Z-0.625
N2605 G41 X8.8345 Y-4.5541 D7
N2610 G3 X8.8306 Y-4.5012 I-0.0284 J0.0245
N2615 X8.6388 Y-4.7229 I-0.0959 J-0.1109 F40.
N2620 X8.8306 Y-4.5012 I0.0959 J0.1109
N2625 X8.7777 Y-4.505 I-0.0245 J-0.0284 F40.7
N2630 G1 G40 X8.7708 Y-4.5321
N2635 X8.7683 Y-4.5351 Z-0.6247
N2640 X8.7658 Y-4.538 Z-0.6238
N2645 X8.7634 Y-4.5407 Z-0.6223
N2650 X8.7612 Y-4.5432 Z-0.6202
N2655 X8.7593 Y-4.5455 Z-0.6177
N2660 X8.7576 Y-4.5474 Z-0.6147
N2665 X8.7563 Y-4.549 Z-0.6113
N2670 X8.7553 Y-4.5501 Z-0.6077
N2675 X8.7547 Y-4.5508 Z-0.6039
N2680 X8.7545 Y-4.551 Z-0.6
N2685 G0 Z0.2
N2690 X8.7923 Y-4.5837
N2695 G1 Z-0.5856 F13.333
N2700 Z-0.725
N2705 X8.7925 Y-4.5835 Z-0.7289 F40.7
N2710 X8.7931 Y-4.5828 Z-0.7327
N2715 X8.7941 Y-4.5817 Z-0.7363
N2720 X8.7954 Y-4.5801 Z-0.7397
N2725 X8.7971 Y-4.5782 Z-0.7427
N2730 X8.799 Y-4.5759 Z-0.7452
N2735 X8.8012 Y-4.5734 Z-0.7473
N2740 X8.8036 Y-4.5707 Z-0.7488
N2745 X8.8061 Y-4.5678 Z-0.7497
N2750 X8.8086 Y-4.5648 Z-0.75
N2755 G41 X8.8345 Y-4.5541 D7
N2760 G3 X8.8306 Y-4.5012 I-0.0284 J0.0245
N2765 X8.6388 Y-4.7229 I-0.0959 J-0.1109 F40.
N2770 X8.8306 Y-4.5012 I0.0959 J0.1109
N2775 X8.7777 Y-4.505 I-0.0245 J-0.0284 F40.7
N2780 G1 G40 X8.7708 Y-4.5321
N2785 X8.7683 Y-4.5351 Z-0.7497
N2790 X8.7658 Y-4.538 Z-0.7488
N2795 X8.7634 Y-4.5407 Z-0.7473
N2800 X8.7612 Y-4.5432 Z-0.7452
N2805 X8.7593 Y-4.5455 Z-0.7427
N2810 X8.7576 Y-4.5474 Z-0.7397
N2815 X8.7563 Y-4.549 Z-0.7363
N2820 X8.7553 Y-4.5501 Z-0.7327
N2825 X8.7547 Y-4.5508 Z-0.7289
N2830 X8.7545 Y-4.551 Z-0.725
N2835 G0 Z0.2
N2840 X8.7923 Y-4.5837
N2845 G1 Z-0.7106 F13.333
N2850 Z-0.85
N2855 X8.7925 Y-4.5835 Z-0.8539 F40.7
N2860 X8.7931 Y-4.5828 Z-0.8577
N2865 X8.7941 Y-4.5817 Z-0.8613
N2870 X8.7954 Y-4.5801 Z-0.8647
N2875 X8.7971 Y-4.5782 Z-0.8677
N2880 X8.799 Y-4.5759 Z-0.8702
N2885 X8.8012 Y-4.5734 Z-0.8723
N2890 X8.8036 Y-4.5707 Z-0.8738
N2895 X8.8061 Y-4.5678 Z-0.8747
N2900 X8.8086 Y-4.5648 Z-0.875
N2905 G41 X8.8345 Y-4.5541 D7
N2910 G3 X8.8306 Y-4.5012 I-0.0284 J0.0245
N2915 X8.6388 Y-4.7229 I-0.0959 J-0.1109 F40.
N2920 X8.8306 Y-4.5012 I0.0959 J0.1109
N2925 X8.7777 Y-4.505 I-0.0245 J-0.0284 F40.7
N2930 G1 G40 X8.7708 Y-4.5321
N2935 X8.7683 Y-4.5351 Z-0.8747
N2940 X8.7658 Y-4.538 Z-0.8738
N2945 X8.7634 Y-4.5407 Z-0.8723
N2950 X8.7612 Y-4.5432 Z-0.8702
N2955 X8.7593 Y-4.5455 Z-0.8677
N2960 X8.7576 Y-4.5474 Z-0.8647
N2965 X8.7563 Y-4.549 Z-0.8613
N2970 X8.7553 Y-4.5501 Z-0.8577
N2975 X8.7547 Y-4.5508 Z-0.8539
N2980 X8.7545 Y-4.551 Z-0.85
N2985 G0 Z0.2
N2990 X8.7923 Y-4.5837
N2995 G1 Z-0.8356 F13.333
N3000 Z-0.975
N3005 X8.7925 Y-4.5835 Z-0.9789 F40.7
N3010 X8.7931 Y-4.5828 Z-0.9827
N3015 X8.7941 Y-4.5817 Z-0.9863
N3020 X8.7954 Y-4.5801 Z-0.9897
N3025 X8.7971 Y-4.5782 Z-0.9927
N3030 X8.799 Y-4.5759 Z-0.9952
N3035 X8.8012 Y-4.5734 Z-0.9973
N3040 X8.8036 Y-4.5707 Z-0.9988
N3045 X8.8061 Y-4.5678 Z-0.9997
N3050 X8.8086 Y-4.5648 Z-1.
N3055 G41 X8.8345 Y-4.5541 D7
N3060 G3 X8.8306 Y-4.5012 I-0.0284 J0.0245
N3065 X8.6388 Y-4.7229 I-0.0959 J-0.1109 F40.
N3070 X8.8306 Y-4.5012 I0.0959 J0.1109
N3075 X8.7777 Y-4.505 I-0.0245 J-0.0284 F40.7
N3080 G1 G40 X8.7708 Y-4.5321
N3085 X8.7683 Y-4.5351 Z-0.9997
N3090 X8.7658 Y-4.538 Z-0.9988
N3095 X8.7634 Y-4.5407 Z-0.9973
N3100 X8.7612 Y-4.5432 Z-0.9952
N3105 X8.7593 Y-4.5455 Z-0.9927
N3110 X8.7576 Y-4.5474 Z-0.9897
N3115 X8.7563 Y-4.549 Z-0.9863
N3120 X8.7553 Y-4.5501 Z-0.9827
N3125 X8.7547 Y-4.5508 Z-0.9789
N3130 X8.7545 Y-4.551 Z-0.975
N3135 G0 Z0.2
N3140 X8.7923 Y-4.5837
N3145 G1 Z-0.9606 F13.333
N3150 Z-1.055
N3155 X8.7925 Y-4.5835 Z-1.0589 F40.7
N3160 X8.7931 Y-4.5828 Z-1.0627
N3165 X8.7941 Y-4.5817 Z-1.0663
N3170 X8.7954 Y-4.5801 Z-1.0697
N3175 X8.7971 Y-4.5782 Z-1.0727
N3180 X8.799 Y-4.5759 Z-1.0752
N3185 X8.8012 Y-4.5734 Z-1.0773
N3190 X8.8036 Y-4.5707 Z-1.0788
N3195 X8.8061 Y-4.5678 Z-1.0797
N3200 X8.8086 Y-4.5648 Z-1.08
N3205 G41 X8.8345 Y-4.5541 D7
N3210 G3 X8.8306 Y-4.5012 I-0.0284 J0.0245
N3215 X8.6388 Y-4.7229 I-0.0959 J-0.1109 F40.
N3220 X8.8306 Y-4.5012 I0.0959 J0.1109
N3225 X8.7777 Y-4.505 I-0.0245 J-0.0284 F40.7
N3230 G1 G40 X8.7708 Y-4.5321
N3235 X8.7683 Y-4.5351 Z-1.0797
N3240 X8.7658 Y-4.538 Z-1.0788
N3245 X8.7634 Y-4.5407 Z-1.0773
N3250 X8.7612 Y-4.5432 Z-1.0752
N3255 X8.7593 Y-4.5455 Z-1.0727
N3260 X8.7576 Y-4.5474 Z-1.0697
N3265 X8.7563 Y-4.549 Z-1.0663
N3270 X8.7553 Y-4.5501 Z-1.0627
N3275 X8.7547 Y-4.5508 Z-1.0589
N3280 X8.7545 Y-4.551 Z-1.055
N3285 G0 Z0.2
N3290 X5.9334 Y-5.6046
N3295 G1 Z0.0394 F13.333
N3300 Z-0.1
N3305 G18 G2 X5.9584 Z-0.125 I0.025 K0. F40.7
N3310 G17
N3315 G1 G41 X5.9834 Y-5.6171 D7
N3320 G3 X6.0209 Y-5.5796 I0. J0.0375
N3325 X5.7277 I-0.1466 J0. F40.
N3330 X6.0209 I0.1466 J0.
N3335 X5.9834 Y-5.5421 I-0.0375 J0. F40.7
N3340 G1 G40 X5.9584 Y-5.5546
N3345 G18 G3 X5.9334 Z-0.1 I0. K0.025
N3350 G0 Z0.2
N3355 Y-5.6046
N3360 G1 Z-0.0856 F13.333
N3365 Z-0.225
N3370 G2 X5.9584 Z-0.25 I0.025 K0. F40.7
N3375 G17
N3380 G1 G41 X5.9834 Y-5.6171 D7
N3385 G3 X6.0209 Y-5.5796 I0. J0.0375
N3390 X5.7277 I-0.1466 J0. F40.
N3395 X6.0209 I0.1466 J0.
N3400 X5.9834 Y-5.5421 I-0.0375 J0. F40.7
N3405 G1 G40 X5.9584 Y-5.5546
N3410 G18 G3 X5.9334 Z-0.225 I0. K0.025
N3415 G0 Z0.2
N3420 Y-5.6046
N3425 G1 Z-0.2106 F13.333
N3430 Z-0.35
N3435 G2 X5.9584 Z-0.375 I0.025 K0. F40.7
N3440 G17
N3445 G1 G41 X5.9834 Y-5.6171 D7
N3450 G3 X6.0209 Y-5.5796 I0. J0.0375
N3455 X5.7277 I-0.1466 J0. F40.
N3460 X6.0209 I0.1466 J0.
N3465 X5.9834 Y-5.5421 I-0.0375 J0. F40.7
N3470 G1 G40 X5.9584 Y-5.5546
N3475 G18 G3 X5.9334 Z-0.35 I0. K0.025
N3480 G0 Z0.2
N3485 Y-5.6046
N3490 G1 Z-0.3356 F13.333
N3495 Z-0.475
N3500 G2 X5.9584 Z-0.5 I0.025 K0. F40.7
N3505 G17
N3510 G1 G41 X5.9834 Y-5.6171 D7
N3515 G3 X6.0209 Y-5.5796 I0. J0.0375
N3520 X5.7277 I-0.1466 J0. F40.
N3525 X6.0209 I0.1466 J0.
N3530 X5.9834 Y-5.5421 I-0.0375 J0. F40.7
N3535 G1 G40 X5.9584 Y-5.5546
N3540 G18 G3 X5.9334 Z-0.475 I0. K0.025
N3545 G0 Z0.2
N3550 Y-5.6046
N3555 G1 Z-0.4606 F13.333
N3560 Z-0.6
N3565 G2 X5.9584 Z-0.625 I0.025 K0. F40.7
N3570 G17
N3575 G1 G41 X5.9834 Y-5.6171 D7
N3580 G3 X6.0209 Y-5.5796 I0. J0.0375
N3585 X5.7277 I-0.1466 J0. F40.
N3590 X6.0209 I0.1466 J0.
N3595 X5.9834 Y-5.5421 I-0.0375 J0. F40.7
N3600 G1 G40 X5.9584 Y-5.5546
N3605 G18 G3 X5.9334 Z-0.6 I0. K0.025
N3610 G0 Z0.2
N3615 Y-5.6046
N3620 G1 Z-0.5856 F13.333
N3625 Z-0.725
N3630 G2 X5.9584 Z-0.75 I0.025 K0. F40.7
N3635 G17
N3640 G1 G41 X5.9834 Y-5.6171 D7
N3645 G3 X6.0209 Y-5.5796 I0. J0.0375
N3650 X5.7277 I-0.1466 J0. F40.
N3655 X6.0209 I0.1466 J0.
N3660 X5.9834 Y-5.5421 I-0.0375 J0. F40.7
N3665 G1 G40 X5.9584 Y-5.5546
N3670 G18 G3 X5.9334 Z-0.725 I0. K0.025
N3675 G0 Z0.2
N3680 Y-5.6046
N3685 G1 Z-0.7106 F13.333
N3690 Z-0.85
N3695 G2 X5.9584 Z-0.875 I0.025 K0. F40.7
N3700 G17
N3705 G1 G41 X5.9834 Y-5.6171 D7
N3710 G3 X6.0209 Y-5.5796 I0. J0.0375
N3715 X5.7277 I-0.1466 J0. F40.
N3720 X6.0209 I0.1466 J0.
N3725 X5.9834 Y-5.5421 I-0.0375 J0. F40.7
N3730 G1 G40 X5.9584 Y-5.5546
N3735 G18 G3 X5.9334 Z-0.85 I0. K0.025
N3740 G0 Z0.2
N3745 Y-5.6046
N3750 G1 Z-0.8356 F13.333
N3755 Z-0.975
N3760 G2 X5.9584 Z-1. I0.025 K0. F40.7
N3765 G17
N3770 G1 G41 X5.9834 Y-5.6171 D7
N3775 G3 X6.0209 Y-5.5796 I0. J0.0375
N3780 X5.7277 I-0.1466 J0. F40.
N3785 X6.0209 I0.1466 J0.
N3790 X5.9834 Y-5.5421 I-0.0375 J0. F40.7
N3795 G1 G40 X5.9584 Y-5.5546
N3800 G18 G3 X5.9334 Z-0.975 I0. K0.025
N3805 G0 Z0.2
N3810 Y-5.6046
N3815 G1 Z-0.9606 F13.333
N3820 Z-1.055
N3825 G2 X5.9584 Z-1.08 I0.025 K0. F40.7
N3830 G17
N3835 G1 G41 X5.9834 Y-5.6171 D7
N3840 G3 X6.0209 Y-5.5796 I0. J0.0375
N3845 X5.7277 I-0.1466 J0. F40.
N3850 X6.0209 I0.1466 J0.
N3855 X5.9834 Y-5.5421 I-0.0375 J0. F40.7
N3860 G1 G40 X5.9584 Y-5.5546
N3865 G18 G3 X5.9334 Z-1.055 I0. K0.025
N3870 G0 Z0.2
N3875 X8.1041 Y-0.7993
N3880 G1 Z0.0394 F13.333
N3885 Z-0.1
N3890 X8.1044 Y-0.7995 Z-0.1039 F40.7
N3895 X8.1052 Y-0.7998 Z-0.1077
N3900 X8.1066 Y-0.8004 Z-0.1113
N3905 X8.1085 Y-0.8012 Z-0.1147
N3910 X8.1108 Y-0.8021 Z-0.1177
N3915 X8.1136 Y-0.8033 Z-0.1202
N3920 X8.1167 Y-0.8045 Z-0.1223
N3925 X8.12 Y-0.8059 Z-0.1238
N3930 X8.1236 Y-0.8074 Z-0.1247
N3935 X8.1272 Y-0.8089 Z-0.125
N3940 G17
N3945 G1 G41 X8.1455 Y-0.8299 D7
N3950 G3 X8.1945 Y-0.8095 I0.0143 J0.0347
N3955 X7.9234 Y-0.6979 I-0.1355 J0.0558 F40.
N3960 X8.1945 Y-0.8095 I0.1355 J-0.0558
N3965 X8.1741 Y-0.7606 I-0.0347 J0.0143 F40.7
N3970 G1 G40 X8.1462 Y-0.7626
N3975 X8.1426 Y-0.7611 Z-0.1247
N3980 X8.1391 Y-0.7597 Z-0.1238
N3985 X8.1357 Y-0.7583 Z-0.1223
N3990 X8.1326 Y-0.757 Z-0.1202
N3995 X8.1299 Y-0.7559 Z-0.1177
N4000 X8.1275 Y-0.7549 Z-0.1147
N4005 X8.1256 Y-0.7542 Z-0.1113
N4010 X8.1242 Y-0.7536 Z-0.1077
N4015 X8.1234 Y-0.7532 Z-0.1039
N4020 X8.1231 Y-0.7531 Z-0.1
N4025 G0 Z0.2
N4030 X8.1041 Y-0.7993
N4035 G1 Z-0.0856 F13.333
N4040 Z-0.225
N4045 X8.1044 Y-0.7995 Z-0.2289 F40.7
N4050 X8.1052 Y-0.7998 Z-0.2327
N4055 X8.1066 Y-0.8004 Z-0.2363
N4060 X8.1085 Y-0.8012 Z-0.2397
N4065 X8.1108 Y-0.8021 Z-0.2427
N4070 X8.1136 Y-0.8033 Z-0.2452
N4075 X8.1167 Y-0.8045 Z-0.2473
N4080 X8.12 Y-0.8059 Z-0.2488
N4085 X8.1236 Y-0.8074 Z-0.2497
N4090 X8.1272 Y-0.8089 Z-0.25
N4095 G41 X8.1455 Y-0.8299 D7
N4100 G3 X8.1945 Y-0.8095 I0.0143 J0.0347
N4105 X7.9234 Y-0.6979 I-0.1355 J0.0558 F40.
N4110 X8.1945 Y-0.8095 I0.1355 J-0.0558
N4115 X8.1741 Y-0.7606 I-0.0347 J0.0143 F40.7
N4120 G1 G40 X8.1462 Y-0.7626
N4125 X8.1426 Y-0.7611 Z-0.2497
N4130 X8.1391 Y-0.7597 Z-0.2488
N4135 X8.1357 Y-0.7583 Z-0.2473
N4140 X8.1326 Y-0.757 Z-0.2452
N4145 X8.1299 Y-0.7559 Z-0.2427
N4150 X8.1275 Y-0.7549 Z-0.2397
N4155 X8.1256 Y-0.7542 Z-0.2363
N4160 X8.1242 Y-0.7536 Z-0.2327
N4165 X8.1234 Y-0.7532 Z-0.2289
N4170 X8.1231 Y-0.7531 Z-0.225
N4175 G0 Z0.2
N4180 X8.1041 Y-0.7993
N4185 G1 Z-0.2106 F13.333
N4190 Z-0.35
N4195 X8.1044 Y-0.7995 Z-0.3539 F40.7
N4200 X8.1052 Y-0.7998 Z-0.3577
N4205 X8.1066 Y-0.8004 Z-0.3613
N4210 X8.1085 Y-0.8012 Z-0.3647
N4215 X8.1108 Y-0.8021 Z-0.3677
N4220 X8.1136 Y-0.8033 Z-0.3702
N4225 X8.1167 Y-0.8045 Z-0.3723
N4230 X8.12 Y-0.8059 Z-0.3738
N4235 X8.1236 Y-0.8074 Z-0.3747
N4240 X8.1272 Y-0.8089 Z-0.375
N4245 G41 X8.1455 Y-0.8299 D7
N4250 G3 X8.1945 Y-0.8095 I0.0143 J0.0347
N4255 X7.9234 Y-0.6979 I-0.1355 J0.0558 F40.
N4260 X8.1945 Y-0.8095 I0.1355 J-0.0558
N4265 X8.1741 Y-0.7606 I-0.0347 J0.0143 F40.7
N4270 G1 G40 X8.1462 Y-0.7626
N4275 X8.1426 Y-0.7611 Z-0.3747
N4280 X8.1391 Y-0.7597 Z-0.3738
N4285 X8.1357 Y-0.7583 Z-0.3723
N4290 X8.1326 Y-0.757 Z-0.3702
N4295 X8.1299 Y-0.7559 Z-0.3677
N4300 X8.1275 Y-0.7549 Z-0.3647
N4305 X8.1256 Y-0.7542 Z-0.3613
N4310 X8.1242 Y-0.7536 Z-0.3577
N4315 X8.1234 Y-0.7532 Z-0.3539
N4320 X8.1231 Y-0.7531 Z-0.35
N4325 G0 Z0.2
N4330 X8.1041 Y-0.7993
N4335 G1 Z-0.3356 F13.333
N4340 Z-0.475
N4345 X8.1044 Y-0.7995 Z-0.4789 F40.7
N4350 X8.1052 Y-0.7998 Z-0.4827
N4355 X8.1066 Y-0.8004 Z-0.4863
N4360 X8.1085 Y-0.8012 Z-0.4897
N4365 X8.1108 Y-0.8021 Z-0.4927
N4370 X8.1136 Y-0.8033 Z-0.4952
N4375 X8.1167 Y-0.8045 Z-0.4973
N4380 X8.12 Y-0.8059 Z-0.4988
N4385 X8.1236 Y-0.8074 Z-0.4997
N4390 X8.1272 Y-0.8089 Z-0.5
N4395 G41 X8.1455 Y-0.8299 D7
N4400 G3 X8.1945 Y-0.8095 I0.0143 J0.0347
N4405 X7.9234 Y-0.6979 I-0.1355 J0.0558 F40.
N4410 X8.1945 Y-0.8095 I0.1355 J-0.0558
N4415 X8.1741 Y-0.7606 I-0.0347 J0.0143 F40.7
N4420 G1 G40 X8.1462 Y-0.7626
N4425 X8.1426 Y-0.7611 Z-0.4997
N4430 X8.1391 Y-0.7597 Z-0.4988
N4435 X8.1357 Y-0.7583 Z-0.4973
N4440 X8.1326 Y-0.757 Z-0.4952
N4445 X8.1299 Y-0.7559 Z-0.4927
N4450 X8.1275 Y-0.7549 Z-0.4897
N4455 X8.1256 Y-0.7542 Z-0.4863
N4460 X8.1242 Y-0.7536 Z-0.4827
N4465 X8.1234 Y-0.7532 Z-0.4789
N4470 X8.1231 Y-0.7531 Z-0.475
N4475 G0 Z0.2
N4480 X8.1041 Y-0.7993
N4485 G1 Z-0.4606 F13.333
N4490 Z-0.6
N4495 X8.1044 Y-0.7995 Z-0.6039 F40.7
N4500 X8.1052 Y-0.7998 Z-0.6077
N4505 X8.1066 Y-0.8004 Z-0.6113
N4510 X8.1085 Y-0.8012 Z-0.6147
N4515 X8.1108 Y-0.8021 Z-0.6177
N4520 X8.1136 Y-0.8033 Z-0.6202
N4525 X8.1167 Y-0.8045 Z-0.6223
N4530 X8.12 Y-0.8059 Z-0.6238
N4535 X8.1236 Y-0.8074 Z-0.6247
N4540 X8.1272 Y-0.8089 Z-0.625
N4545 G41 X8.1455 Y-0.8299 D7
N4550 G3 X8.1945 Y-0.8095 I0.0143 J0.0347
N4555 X7.9234 Y-0.6979 I-0.1355 J0.0558 F40.
N4560 X8.1945 Y-0.8095 I0.1355 J-0.0558
N4565 X8.1741 Y-0.7606 I-0.0347 J0.0143 F40.7
N4570 G1 G40 X8.1462 Y-0.7626
N4575 X8.1426 Y-0.7611 Z-0.6247
N4580 X8.1391 Y-0.7597 Z-0.6238
N4585 X8.1357 Y-0.7583 Z-0.6223
N4590 X8.1326 Y-0.757 Z-0.6202
N4595 X8.1299 Y-0.7559 Z-0.6177
N4600 X8.1275 Y-0.7549 Z-0.6147
N4605 X8.1256 Y-0.7542 Z-0.6113
N4610 X8.1242 Y-0.7536 Z-0.6077
N4615 X8.1234 Y-0.7532 Z-0.6039
N4620 X8.1231 Y-0.7531 Z-0.6
N4625 G0 Z0.2
N4630 X8.1041 Y-0.7993
N4635 G1 Z-0.5856 F13.333
N4640 Z-0.725
N4645 X8.1044 Y-0.7995 Z-0.7289 F40.7
N4650 X8.1052 Y-0.7998 Z-0.7327
N4655 X8.1066 Y-0.8004 Z-0.7363
N4660 X8.1085 Y-0.8012 Z-0.7397
N4665 X8.1108 Y-0.8021 Z-0.7427
N4670 X8.1136 Y-0.8033 Z-0.7452
N4675 X8.1167 Y-0.8045 Z-0.7473
N4680 X8.12 Y-0.8059 Z-0.7488
N4685 X8.1236 Y-0.8074 Z-0.7497
N4690 X8.1272 Y-0.8089 Z-0.75
N4695 G41 X8.1455 Y-0.8299 D7
N4700 G3 X8.1945 Y-0.8095 I0.0143 J0.0347
N4705 X7.9234 Y-0.6979 I-0.1355 J0.0558 F40.
N4710 X8.1945 Y-0.8095 I0.1355 J-0.0558
N4715 X8.1741 Y-0.7606 I-0.0347 J0.0143 F40.7
N4720 G1 G40 X8.1462 Y-0.7626
N4725 X8.1426 Y-0.7611 Z-0.7497
N4730 X8.1391 Y-0.7597 Z-0.7488
N4735 X8.1357 Y-0.7583 Z-0.7473
N4740 X8.1326 Y-0.757 Z-0.7452
N4745 X8.1299 Y-0.7559 Z-0.7427
N4750 X8.1275 Y-0.7549 Z-0.7397
N4755 X8.1256 Y-0.7542 Z-0.7363
N4760 X8.1242 Y-0.7536 Z-0.7327
N4765 X8.1234 Y-0.7532 Z-0.7289
N4770 X8.1231 Y-0.7531 Z-0.725
N4775 G0 Z0.2
N4780 X8.1041 Y-0.7993
N4785 G1 Z-0.7106 F13.333
N4790 Z-0.85
N4795 X8.1044 Y-0.7995 Z-0.8539 F40.7
N4800 X8.1052 Y-0.7998 Z-0.8577
N4805 X8.1066 Y-0.8004 Z-0.8613
N4810 X8.1085 Y-0.8012 Z-0.8647
N4815 X8.1108 Y-0.8021 Z-0.8677
N4820 X8.1136 Y-0.8033 Z-0.8702
N4825 X8.1167 Y-0.8045 Z-0.8723
N4830 X8.12 Y-0.8059 Z-0.8738
N4835 X8.1236 Y-0.8074 Z-0.8747
N4840 X8.1272 Y-0.8089 Z-0.875
N4845 G41 X8.1455 Y-0.8299 D7
N4850 G3 X8.1945 Y-0.8095 I0.0143 J0.0347
N4855 X7.9234 Y-0.6979 I-0.1355 J0.0558 F40.
N4860 X8.1945 Y-0.8095 I0.1355 J-0.0558
N4865 X8.1741 Y-0.7606 I-0.0347 J0.0143 F40.7
N4870 G1 G40 X8.1462 Y-0.7626
N4875 X8.1426 Y-0.7611 Z-0.8747
N4880 X8.1391 Y-0.7597 Z-0.8738
N4885 X8.1357 Y-0.7583 Z-0.8723
N4890 X8.1326 Y-0.757 Z-0.8702
N4895 X8.1299 Y-0.7559 Z-0.8677
N4900 X8.1275 Y-0.7549 Z-0.8647
N4905 X8.1256 Y-0.7542 Z-0.8613
N4910 X8.1242 Y-0.7536 Z-0.8577
N4915 X8.1234 Y-0.7532 Z-0.8539
N4920 X8.1231 Y-0.7531 Z-0.85
N4925 G0 Z0.2
N4930 X8.1041 Y-0.7993
N4935 G1 Z-0.8356 F13.333
N4940 Z-0.975
N4945 X8.1044 Y-0.7995 Z-0.9789 F40.7
N4950 X8.1052 Y-0.7998 Z-0.9827
N4955 X8.1066 Y-0.8004 Z-0.9863
N4960 X8.1085 Y-0.8012 Z-0.9897
N4965 X8.1108 Y-0.8021 Z-0.9927
N4970 X8.1136 Y-0.8033 Z-0.9952
N4975 X8.1167 Y-0.8045 Z-0.9973
N4980 X8.12 Y-0.8059 Z-0.9988
N4985 X8.1236 Y-0.8074 Z-0.9997
N4990 X8.1272 Y-0.8089 Z-1.
N4995 G41 X8.1455 Y-0.8299 D7
N5000 G3 X8.1945 Y-0.8095 I0.0143 J0.0347
N5005 X7.9234 Y-0.6979 I-0.1355 J0.0558 F40.
N5010 X8.1945 Y-0.8095 I0.1355 J-0.0558
N5015 X8.1741 Y-0.7606 I-0.0347 J0.0143 F40.7
N5020 G1 G40 X8.1462 Y-0.7626
N5025 X8.1426 Y-0.7611 Z-0.9997
N5030 X8.1391 Y-0.7597 Z-0.9988
N5035 X8.1357 Y-0.7583 Z-0.9973
N5040 X8.1326 Y-0.757 Z-0.9952
N5045 X8.1299 Y-0.7559 Z-0.9927
N5050 X8.1275 Y-0.7549 Z-0.9897
N5055 X8.1256 Y-0.7542 Z-0.9863
N5060 X8.1242 Y-0.7536 Z-0.9827
N5065 X8.1234 Y-0.7532 Z-0.9789
N5070 X8.1231 Y-0.7531 Z-0.975
N5075 G0 Z0.2
N5080 X8.1041 Y-0.7993
N5085 G1 Z-0.9606 F13.333
N5090 Z-1.055
N5095 X8.1044 Y-0.7995 Z-1.0589 F40.7
N5100 X8.1052 Y-0.7998 Z-1.0627
N5105 X8.1066 Y-0.8004 Z-1.0663
N5110 X8.1085 Y-0.8012 Z-1.0697
N5115 X8.1108 Y-0.8021 Z-1.0727
N5120 X8.1136 Y-0.8033 Z-1.0752
N5125 X8.1167 Y-0.8045 Z-1.0773
N5130 X8.12 Y-0.8059 Z-1.0788
N5135 X8.1236 Y-0.8074 Z-1.0797
N5140 X8.1272 Y-0.8089 Z-1.08
N5145 G41 X8.1455 Y-0.8299 D7
N5150 G3 X8.1945 Y-0.8095 I0.0143 J0.0347
N5155 X7.9234 Y-0.6979 I-0.1355 J0.0558 F40.
N5160 X8.1945 Y-0.8095 I0.1355 J-0.0558
N5165 X8.1741 Y-0.7606 I-0.0347 J0.0143 F40.7
N5170 G1 G40 X8.1462 Y-0.7626
N5175 X8.1426 Y-0.7611 Z-1.0797
N5180 X8.1391 Y-0.7597 Z-1.0788
N5185 X8.1357 Y-0.7583 Z-1.0773
N5190 X8.1326 Y-0.757 Z-1.0752
N5195 X8.1299 Y-0.7559 Z-1.0727
N5200 X8.1275 Y-0.7549 Z-1.0697
N5205 X8.1256 Y-0.7542 Z-1.0663
N5210 X8.1242 Y-0.7536 Z-1.0627
N5215 X8.1234 Y-0.7532 Z-1.0589
N5220 X8.1231 Y-0.7531 Z-1.055
N5225 G0 Z0.2
N5230 X12.3983 Y-5.6722
N5235 G1 Z0.0394 F13.333
N5240 Z-0.1
N5245 X12.3985 Y-5.6719 Z-0.1039 F40.7
N5250 X12.3991 Y-5.6713 Z-0.1077
N5255 X12.4002 Y-5.6702 Z-0.1113
N5260 X12.4016 Y-5.6687 Z-0.1147
N5265 X12.4033 Y-5.6668 Z-0.1177
N5270 X12.4053 Y-5.6646 Z-0.1202
N5275 X12.4076 Y-5.6622 Z-0.1223
N5280 X12.4101 Y-5.6595 Z-0.1238
N5285 X12.4127 Y-5.6568 Z-0.1247
N5290 X12.4154 Y-5.6539 Z-0.125
N5295 G41 X12.4416 Y-5.6442 D7
N5300 G3 X12.4397 Y-5.5912 I-0.0274 J0.0256
N5305 X12.2397 Y-5.8054 I-0.1 J-0.1071 F40.
N5310 X12.4397 Y-5.5912 I0.1 J0.1071
N5315 X12.3867 Y-5.593 I-0.0256 J-0.0274 F40.7
N5320 G1 G40 X12.3788 Y-5.6198
N5325 X12.3762 Y-5.6226 Z-0.1247
N5330 X12.3736 Y-5.6254 Z-0.1238
N5335 X12.3711 Y-5.6281 Z-0.1223
N5340 X12.3688 Y-5.6305 Z-0.1202
N5345 X12.3668 Y-5.6327 Z-0.1177
N5350 X12.365 Y-5.6346 Z-0.1147
N5355 X12.3636 Y-5.6361 Z-0.1113
N5360 X12.3626 Y-5.6372 Z-0.1077
N5365 X12.362 Y-5.6378 Z-0.1039
N5370 X12.3618 Y-5.638 Z-0.1
N5375 G0 Z0.2
N5380 X12.3983 Y-5.6722
N5385 G1 Z-0.0856 F13.333
N5390 Z-0.225
N5395 X12.3985 Y-5.6719 Z-0.2289 F40.7
N5400 X12.3991 Y-5.6713 Z-0.2327
N5405 X12.4002 Y-5.6702 Z-0.2363
N5410 X12.4016 Y-5.6687 Z-0.2397
N5415 X12.4033 Y-5.6668 Z-0.2427
N5420 X12.4053 Y-5.6646 Z-0.2452
N5425 X12.4076 Y-5.6622 Z-0.2473
N5430 X12.4101 Y-5.6595 Z-0.2488
N5435 X12.4127 Y-5.6568 Z-0.2497
N5440 X12.4154 Y-5.6539 Z-0.25
N5445 G41 X12.4416 Y-5.6442 D7
N5450 G3 X12.4397 Y-5.5912 I-0.0274 J0.0256
N5455 X12.2397 Y-5.8054 I-0.1 J-0.1071 F40.
N5460 X12.4397 Y-5.5912 I0.1 J0.1071
N5465 X12.3867 Y-5.593 I-0.0256 J-0.0274 F40.7
N5470 G1 G40 X12.3788 Y-5.6198
N5475 X12.3762 Y-5.6226 Z-0.2497
N5480 X12.3736 Y-5.6254 Z-0.2488
N5485 X12.3711 Y-5.6281 Z-0.2473
N5490 X12.3688 Y-5.6305 Z-0.2452
N5495 X12.3668 Y-5.6327 Z-0.2427
N5500 X12.365 Y-5.6346 Z-0.2397
N5505 X12.3636 Y-5.6361 Z-0.2363
N5510 X12.3626 Y-5.6372 Z-0.2327
N5515 X12.362 Y-5.6378 Z-0.2289
N5520 X12.3618 Y-5.638 Z-0.225
N5525 G0 Z0.2
N5530 X12.3983 Y-5.6722
N5535 G1 Z-0.2106 F13.333
N5540 Z-0.35
N5545 X12.3985 Y-5.6719 Z-0.3539 F40.7
N5550 X12.3991 Y-5.6713 Z-0.3577
N5555 X12.4002 Y-5.6702 Z-0.3614
N5560 X12.4016 Y-5.6687 Z-0.3647
N5565 X12.4033 Y-5.6668 Z-0.3677
N5570 X12.4053 Y-5.6646 Z-0.3702
N5575 X12.4076 Y-5.6622 Z-0.3723
N5580 X12.4101 Y-5.6595 Z-0.3738
N5585 X12.4127 Y-5.6568 Z-0.3747
N5590 X12.4154 Y-5.6539 Z-0.375
N5595 G41 X12.4416 Y-5.6442 D7
N5600 G3 X12.4397 Y-5.5912 I-0.0274 J0.0256
N5605 X12.2397 Y-5.8054 I-0.1 J-0.1071 F40.
N5610 X12.4397 Y-5.5912 I0.1 J0.1071
N5615 X12.3867 Y-5.593 I-0.0256 J-0.0274 F40.7
N5620 G1 G40 X12.3788 Y-5.6198
N5625 X12.3762 Y-5.6226 Z-0.3747
N5630 X12.3736 Y-5.6254 Z-0.3738
N5635 X12.3711 Y-5.6281 Z-0.3723
N5640 X12.3688 Y-5.6305 Z-0.3702
N5645 X12.3668 Y-5.6327 Z-0.3677
N5650 X12.365 Y-5.6346 Z-0.3647
N5655 X12.3636 Y-5.6361 Z-0.3613
N5660 X12.3626 Y-5.6372 Z-0.3577
N5665 X12.362 Y-5.6378 Z-0.3539
N5670 X12.3618 Y-5.638 Z-0.35
N5675 G0 Z0.2
N5680 X12.3983 Y-5.6722
N5685 G1 Z-0.3356 F13.333
N5690 Z-0.475
N5695 X12.3985 Y-5.6719 Z-0.4789 F40.7
N5700 X12.3991 Y-5.6713 Z-0.4827
N5705 X12.4002 Y-5.6702 Z-0.4863
N5710 X12.4016 Y-5.6687 Z-0.4897
N5715 X12.4033 Y-5.6668 Z-0.4927
N5720 X12.4053 Y-5.6646 Z-0.4952
N5725 X12.4076 Y-5.6622 Z-0.4973
N5730 X12.4101 Y-5.6595 Z-0.4988
N5735 X12.4127 Y-5.6568 Z-0.4997
N5740 X12.4154 Y-5.6539 Z-0.5
N5745 G41 X12.4416 Y-5.6442 D7
N5750 G3 X12.4397 Y-5.5912 I-0.0274 J0.0256
N5755 X12.2397 Y-5.8054 I-0.1 J-0.1071 F40.
N5760 X12.4397 Y-5.5912 I0.1 J0.1071
N5765 X12.3867 Y-5.593 I-0.0256 J-0.0274 F40.7
N5770 G1 G40 X12.3788 Y-5.6198
N5775 X12.3762 Y-5.6226 Z-0.4997
N5780 X12.3736 Y-5.6254 Z-0.4988
N5785 X12.3711 Y-5.6281 Z-0.4973
N5790 X12.3688 Y-5.6305 Z-0.4952
N5795 X12.3668 Y-5.6327 Z-0.4927
N5800 X12.365 Y-5.6346 Z-0.4897
N5805 X12.3636 Y-5.6361 Z-0.4863
N5810 X12.3626 Y-5.6372 Z-0.4827
N5815 X12.362 Y-5.6378 Z-0.4789
N5820 X12.3618 Y-5.638 Z-0.475
N5825 G0 Z0.2
N5830 X12.3983 Y-5.6722
N5835 G1 Z-0.4606 F13.333
N5840 Z-0.6
N5845 X12.3985 Y-5.6719 Z-0.6039 F40.7
N5850 X12.3991 Y-5.6713 Z-0.6077
N5855 X12.4002 Y-5.6702 Z-0.6113
N5860 X12.4016 Y-5.6687 Z-0.6147
N5865 X12.4033 Y-5.6668 Z-0.6177
N5870 X12.4053 Y-5.6646 Z-0.6202
N5875 X12.4076 Y-5.6622 Z-0.6223
N5880 X12.4101 Y-5.6595 Z-0.6238
N5885 X12.4127 Y-5.6568 Z-0.6247
N5890 X12.4154 Y-5.6539 Z-0.625
N5895 G41 X12.4416 Y-5.6442 D7
N5900 G3 X12.4397 Y-5.5912 I-0.0274 J0.0256
N5905 X12.2397 Y-5.8054 I-0.1 J-0.1071 F40.
N5910 X12.4397 Y-5.5912 I0.1 J0.1071
N5915 X12.3867 Y-5.593 I-0.0256 J-0.0274 F40.7
N5920 G1 G40 X12.3788 Y-5.6198
N5925 X12.3762 Y-5.6226 Z-0.6247
N5930 X12.3736 Y-5.6254 Z-0.6238
N5935 X12.3711 Y-5.6281 Z-0.6223
N5940 X12.3688 Y-5.6305 Z-0.6202
N5945 X12.3668 Y-5.6327 Z-0.6177
N5950 X12.365 Y-5.6346 Z-0.6147
N5955 X12.3636 Y-5.6361 Z-0.6113
N5960 X12.3626 Y-5.6372 Z-0.6077
N5965 X12.362 Y-5.6378 Z-0.6039
N5970 X12.3618 Y-5.638 Z-0.6
N5975 G0 Z0.2
N5980 X12.3983 Y-5.6722
N5985 G1 Z-0.5856 F13.333
N5990 Z-0.725
N5995 X12.3985 Y-5.6719 Z-0.7289 F40.7
N6000 X12.3991 Y-5.6713 Z-0.7327
N6005 X12.4002 Y-5.6702 Z-0.7363
N6010 X12.4016 Y-5.6687 Z-0.7397
N6015 X12.4033 Y-5.6668 Z-0.7427
N6020 X12.4053 Y-5.6646 Z-0.7452
N6025 X12.4076 Y-5.6622 Z-0.7473
N6030 X12.4101 Y-5.6595 Z-0.7488
N6035 X12.4127 Y-5.6568 Z-0.7497
N6040 X12.4154 Y-5.6539 Z-0.75
N6045 G41 X12.4416 Y-5.6442 D7
N6050 G3 X12.4397 Y-5.5912 I-0.0274 J0.0256
N6055 X12.2397 Y-5.8054 I-0.1 J-0.1071 F40.
N6060 X12.4397 Y-5.5912 I0.1 J0.1071
N6065 X12.3867 Y-5.593 I-0.0256 J-0.0274 F40.7
N6070 G1 G40 X12.3788 Y-5.6198
N6075 X12.3762 Y-5.6226 Z-0.7497
N6080 X12.3736 Y-5.6254 Z-0.7488
N6085 X12.3711 Y-5.6281 Z-0.7473
N6090 X12.3688 Y-5.6305 Z-0.7452
N6095 X12.3668 Y-5.6327 Z-0.7427
N6100 X12.365 Y-5.6346 Z-0.7397
N6105 X12.3636 Y-5.6361 Z-0.7363
N6110 X12.3626 Y-5.6372 Z-0.7327
N6115 X12.362 Y-5.6378 Z-0.7289
N6120 X12.3618 Y-5.638 Z-0.725
N6125 G0 Z0.2
N6130 X12.3983 Y-5.6722
N6135 G1 Z-0.7106 F13.333
N6140 Z-0.85
N6145 X12.3985 Y-5.6719 Z-0.8539 F40.7
N6150 X12.3991 Y-5.6713 Z-0.8577
N6155 X12.4002 Y-5.6702 Z-0.8613
N6160 X12.4016 Y-5.6687 Z-0.8647
N6165 X12.4033 Y-5.6668 Z-0.8677
N6170 X12.4053 Y-5.6646 Z-0.8702
N6175 X12.4076 Y-5.6622 Z-0.8723
N6180 X12.4101 Y-5.6595 Z-0.8738
N6185 X12.4127 Y-5.6568 Z-0.8747
N6190 X12.4154 Y-5.6539 Z-0.875
N6195 G41 X12.4416 Y-5.6442 D7
N6200 G3 X12.4397 Y-5.5912 I-0.0274 J0.0256
N6205 X12.2397 Y-5.8054 I-0.1 J-0.1071 F40.
N6210 X12.4397 Y-5.5912 I0.1 J0.1071
N6215 X12.3867 Y-5.593 I-0.0256 J-0.0274 F40.7
N6220 G1 G40 X12.3788 Y-5.6198
N6225 X12.3762 Y-5.6226 Z-0.8747
N6230 X12.3736 Y-5.6254 Z-0.8738
N6235 X12.3711 Y-5.6281 Z-0.8723
N6240 X12.3688 Y-5.6305 Z-0.8702
N6245 X12.3668 Y-5.6327 Z-0.8677
N6250 X12.365 Y-5.6346 Z-0.8647
N6255 X12.3636 Y-5.6361 Z-0.8613
N6260 X12.3626 Y-5.6372 Z-0.8577
N6265 X12.362 Y-5.6378 Z-0.8539
N6270 X12.3618 Y-5.638 Z-0.85
N6275 G0 Z0.2
N6280 X12.3983 Y-5.6722
N6285 G1 Z-0.8356 F13.333
N6290 Z-0.975
N6295 X12.3985 Y-5.6719 Z-0.9789 F40.7
N6300 X12.3991 Y-5.6713 Z-0.9827
N6305 X12.4002 Y-5.6702 Z-0.9863
N6310 X12.4016 Y-5.6687 Z-0.9897
N6315 X12.4033 Y-5.6668 Z-0.9927
N6320 X12.4053 Y-5.6646 Z-0.9952
N6325 X12.4076 Y-5.6622 Z-0.9973
N6330 X12.4101 Y-5.6595 Z-0.9988
N6335 X12.4127 Y-5.6568 Z-0.9997
N6340 X12.4154 Y-5.6539 Z-1.
N6345 G41 X12.4416 Y-5.6442 D7
N6350 G3 X12.4397 Y-5.5912 I-0.0274 J0.0256
N6355 X12.2397 Y-5.8054 I-0.1 J-0.1071 F40.
N6360 X12.4397 Y-5.5912 I0.1 J0.1071
N6365 X12.3867 Y-5.593 I-0.0256 J-0.0274 F40.7
N6370 G1 G40 X12.3788 Y-5.6198
N6375 X12.3762 Y-5.6226 Z-0.9997
N6380 X12.3736 Y-5.6254 Z-0.9988
N6385 X12.3711 Y-5.6281 Z-0.9973
N6390 X12.3688 Y-5.6305 Z-0.9952
N6395 X12.3668 Y-5.6327 Z-0.9927
N6400 X12.365 Y-5.6346 Z-0.9897
N6405 X12.3636 Y-5.6361 Z-0.9863
N6410 X12.3626 Y-5.6372 Z-0.9827
N6415 X12.362 Y-5.6378 Z-0.9789
N6420 X12.3618 Y-5.638 Z-0.975
N6425 G0 Z0.2
N6430 X12.3983 Y-5.6722
N6435 G1 Z-0.9606 F13.333
N6440 Z-1.055
N6445 X12.3985 Y-5.6719 Z-1.0589 F40.7
N6450 X12.3991 Y-5.6713 Z-1.0627
N6455 X12.4002 Y-5.6702 Z-1.0663
N6460 X12.4016 Y-5.6687 Z-1.0697
N6465 X12.4033 Y-5.6668 Z-1.0727
N6470 X12.4053 Y-5.6646 Z-1.0752
N6475 X12.4076 Y-5.6622 Z-1.0773
N6480 X12.4101 Y-5.6595 Z-1.0788
N6485 X12.4127 Y-5.6568 Z-1.0797
N6490 X12.4154 Y-5.6539 Z-1.08
N6495 G41 X12.4416 Y-5.6442 D7
N6500 G3 X12.4397 Y-5.5912 I-0.0274 J0.0256
N6505 X12.2397 Y-5.8054 I-0.1 J-0.1071 F40.
N6510 X12.4397 Y-5.5912 I0.1 J0.1071
N6515 X12.3867 Y-5.593 I-0.0256 J-0.0274 F40.7
N6520 G1 G40 X12.3788 Y-5.6198
N6525 X12.3762 Y-5.6226 Z-1.0797
N6530 X12.3736 Y-5.6254 Z-1.0788
N6535 X12.3711 Y-5.6281 Z-1.0773
N6540 X12.3688 Y-5.6305 Z-1.0752
N6545 X12.3668 Y-5.6327 Z-1.0727
N6550 X12.365 Y-5.6346 Z-1.0697
N6555 X12.3636 Y-5.6361 Z-1.0663
N6560 X12.3626 Y-5.6372 Z-1.0627
N6565 X12.362 Y-5.6378 Z-1.0589
N6570 X12.3618 Y-5.638 Z-1.055
N6575 G0 Z0.6
N6580 M9
N6585 M5
N6590 G53 G0 Z0.

(3/8" Adaptive)
N6595 M1
N6600 T6 M6
N6605 S8000 M3
N6610 G17 G90 G94
N6615 G54
N6620 M8
N6625 G0 X2.1795 Y-4.7944
N6630 G43 Z0.6 H6
N6635 T7
N6640 G0 Z0.2
N6645 Z0.1
N6650 G3 X2.204 Y-4.5004 Z0.088 I-0.0957 J0.1559 F13.333
N6655 X1.9166 Y-4.5651 Z0.076 I-0.12 J-0.1378
N6660 X2.0642 Y-4.8197 Z0.0641 I0.1673 J-0.0731
N6665 X2.2626 Y-4.6028 Z0.0521 I0.0196 J0.1813
N6670 X1.9965 Y-4.4786 Z0.0401 I-0.1786 J-0.0356
N6675 X1.9579 Y-4.7693 Z0.0281 I0.0874 J-0.1595
N6680 X2.2465 Y-4.7192 Z0.0161 I0.1259 J0.131
N6685 X2.1123 Y-4.4592 Z0.0042 I-0.1625 J0.0807
N6690 X1.9047 Y-4.6649 Z-0.0078 I-0.0283 J-0.179
N6695 X2.1628 Y-4.8011 Z-0.0198 I0.1791 J0.0266
N6700 X2.2154 Y-4.5143 Z-0.0318 I-0.079 J0.1627
N6705 X1.9264 Y-4.5501 Z-0.0438 I-0.1314 J-0.1239
N6710 X2.0469 Y-4.8148 Z-0.0557 I0.1574 J-0.0881
N6715 X2.2632 Y-4.6207 Z-0.0677 I0.0369 J0.1764
N6720 X2.0135 Y-4.4728 Z-0.0797 I-0.1791 J-0.0177
N6725 X1.9472 Y-4.755 Z-0.0917 I0.0705 J-0.1654
N6730 X2.236 Y-4.7336 Z-0.1036 I0.1365 J0.1167
N6735 X2.1292 Y-4.4648 Z-0.1156 I-0.152 J0.0952
N6740 X1.905 Y-4.647 Z-0.1276 I-0.0452 J-0.1734
N6745 X2.1458 Y-4.8061 Z-0.1396 I0.1788 J0.0088
N6750 X2.2253 Y-4.5291 Z-0.1516 I-0.0619 J0.1677
N6755 X1.9375 Y-4.5362 Z-0.1635 I-0.1413 J-0.1092
N6760 X2.0304 Y-4.8083 Z-0.1755 I0.1463 J-0.102
N6765 X2.2619 Y-4.6384 Z-0.1875 I0.0534 J0.1699
N6770 X1.9057 I-0.1781 J0.
N6775 X2.2619 I0.1781 J0.
N6780 G1 X2.2621 Y-4.6271 F80.3
N6785 X2.2668 Y-4.5824
N6790 X2.2681 Y-4.5766
N6795 X2.2689 Y-4.5706
N6800 X2.2693 Y-4.5646
N6805 Y-4.5586
N6810 X2.269 Y-4.5526
N6815 X2.2682 Y-4.5463
N6820 X2.267 Y-4.5397
N6825 X2.2654 Y-4.5328
N6830 X2.2633 Y-4.5257
N6835 X2.2607 Y-4.5183
N6840 X2.2575 Y-4.5108
N6845 X2.2537 Y-4.5032
N6850 X2.2494 Y-4.4955
N6855 X2.2445 Y-4.4878
N6860 X2.2389 Y-4.4801
N6865 X2.2328 Y-4.4726
N6870 X2.2261 Y-4.4652
N6875 X2.2187 Y-4.458
N6880 X2.2108 Y-4.4511
N6885 X2.2024 Y-4.4444
N6890 X2.1934 Y-4.4382
N6895 X2.1838 Y-4.4323
N6900 X2.1738 Y-4.4269
N6905 X2.1634 Y-4.422
N6910 X2.1525 Y-4.4177
N6915 X2.1413 Y-4.4139
N6920 X2.1297 Y-4.4107
N6925 X2.1179 Y-4.4081
N6930 X2.1058 Y-4.4062
N6935 X2.0935 Y-4.405
N6940 X2.0811 Y-4.4044
N6945 X2.0685 Y-4.4046
N6950 X2.056 Y-4.4055
N6955 X2.0434 Y-4.4071
N6960 X2.0308 Y-4.4094
N6965 X2.0184 Y-4.4124
N6970 X2.006 Y-4.4161
N6975 X1.9939 Y-4.4205
N6980 X1.982 Y-4.4257
N6985 X1.9704 Y-4.4315
N6990 X1.9591 Y-4.438
N6995 X1.9481 Y-4.4451
N7000 X1.9375 Y-4.4528
N7005 X1.9274 Y-4.4612
N7010 X1.9177 Y-4.4701
N7015 X1.9085 Y-4.4795
N7020 X1.8999 Y-4.4895
N7025 X1.8918 Y-4.5
N7030 X1.8844 Y-4.5109
N7035 X1.8775 Y-4.5222
N7040 X1.8713 Y-4.5339
N7045 X1.8657 Y-4.5459
N7050 X1.8609 Y-4.5583
N7055 X1.8567 Y-4.5709
N7060 X1.8532 Y-4.5837
N7065 X1.8505 Y-4.5968
N7070 X1.8485 Y-4.6099
N7075 X1.8473 Y-4.6232
N7080 X1.8468 Y-4.6365
N7085 X1.847 Y-4.6498
N7090 X1.848 Y-4.6631
N7095 X1.8498 Y-4.6763
N7100 X1.8523 Y-4.6894
N7105 X1.8555 Y-4.7023
N7110 X1.8594 Y-4.715
N7115 X1.8641 Y-4.7275
N7120 X1.8695 Y-4.7398
N7125 X1.8755 Y-4.7517
N7130 X1.8822 Y-4.7632
N7135 X1.8895 Y-4.7743
N7140 X1.8975 Y-4.7851
N7145 X1.906 Y-4.7953
N7150 X1.9151 Y-4.8051
N7155 X1.9248 Y-4.8143
N7160 X1.9349 Y-4.823
N7165 X1.9456 Y-4.8311
N7170 X1.9566 Y-4.8385
N7175 X1.9681 Y-4.8454
N7180 X1.9799 Y-4.8516
N7185 X1.9921 Y-4.8571
N7190 X2.0045 Y-4.8619
N7195 X2.0172 Y-4.866
N7200 X2.0302 Y-4.8694
N7205 X2.0432 Y-4.872
N7210 X2.0565 Y-4.874
N7215 X2.0698 Y-4.8751
N7220 X2.0831 Y-4.8755
N7225 X2.0965 Y-4.8752
N7230 X2.1098 Y-4.8741
N7235 X2.123 Y-4.8723
N7240 X2.1361 Y-4.8697
N7245 X2.1491 Y-4.8664
N7250 X2.1618 Y-4.8624
N7255 X2.1743 Y-4.8576
N7260 X2.1865 Y-4.8522
N7265 X2.1983 Y-4.846
N7270 X2.2099 Y-4.8393
N7275 X2.221 Y-4.8319
N7280 X2.2316 Y-4.8238
N7285 X2.2418 Y-4.8152
N7290 X2.2516 Y-4.806
N7295 X2.2607 Y-4.7963
N7300 X2.2693 Y-4.7861
N7305 X2.2774 Y-4.7754
N7310 X2.2848 Y-4.7643
N7315 X2.2915 Y-4.7528
N7320 X2.2988 Y-4.7387
N7325 X2.3094 Y-4.7148
N7330 X2.3185 Y-4.691
N7335 X2.3248 Y-4.671
N7340 X2.3293 Y-4.6534
N7345 X2.3326 Y-4.6368
N7350 X2.3347 Y-4.6211
N7355 X2.3359 Y-4.6061
N7360 X2.3363 Y-4.5916
N7365 X2.3359 Y-4.5774
N7370 X2.3346 Y-4.5635
N7375 X2.3326 Y-4.5498
N7380 X2.3299 Y-4.5364
N7385 X2.3265 Y-4.5233
N7390 X2.3223 Y-4.5104
N7395 X2.3174 Y-4.4977
N7400 X2.3118 Y-4.4854
N7405 X2.3054 Y-4.4732
N7410 X2.2984 Y-4.4614
N7415 X2.2906 Y-4.45
N7420 X2.2822 Y-4.4389
N7425 X2.273 Y-4.4282
N7430 X2.2632 Y-4.418
N7435 X2.2527 Y-4.4082
N7440 X2.2416 Y-4.3989
N7445 X2.2299 Y-4.3902
N7450 X2.2176 Y-4.3822
N7455 X2.2047 Y-4.3747
N7460 X2.1914 Y-4.3679
N7465 X2.1776 Y-4.3619
N7470 X2.1633 Y-4.3566
N7475 X2.1487 Y-4.3521
N7480 X2.1337 Y-4.3483
N7485 X2.1184 Y-4.3455
N7490 X2.1029 Y-4.3434
N7495 X2.0873 Y-4.3422
N7500 X2.0714 Y-4.3419
N7505 X2.0555 Y-4.3426
N7510 X2.0396 Y-4.3441
N7515 X2.0237 Y-4.3465
N7520 X2.0079 Y-4.3498
N7525 X1.9922 Y-4.354
N7530 X1.9768 Y-4.3591
N7535 X1.9616 Y-4.3651
N7540 X1.9467 Y-4.372
N7545 X1.9321 Y-4.3798
N7550 X1.918 Y-4.3883
N7555 X1.9043 Y-4.3977
N7560 X1.8912 Y-4.4078
N7565 X1.8786 Y-4.4187
N7570 X1.8667 Y-4.4303
N7575 X1.8554 Y-4.4426
N7580 X1.8447 Y-4.4555
N7585 X1.8348 Y-4.4691
N7590 X1.8257 Y-4.4832
N7595 X1.8174 Y-4.4978
N7600 X1.8099 Y-4.5128
N7605 X1.8032 Y-4.5283
N7610 X1.7974 Y-4.5441
N7615 X1.7926 Y-4.5603
N7620 X1.7886 Y-4.5767
N7625 X1.7855 Y-4.5933
N7630 X1.7834 Y-4.6101
N7635 X1.7823 Y-4.627
N7640 X1.7821 Y-4.6439
N7645 X1.7828 Y-4.6608
N7650 X1.7845 Y-4.6777
N7655 X1.7872 Y-4.6944
N7660 X1.7908 Y-4.711
N7665 X1.7953 Y-4.7273
N7670 X1.8007 Y-4.7434
N7675 X1.8071 Y-4.7592
N7680 X1.8143 Y-4.7745
N7685 X1.8224 Y-4.7895
N7690 X1.8313 Y-4.8039
N7695 X1.841 Y-4.8179
N7700 X1.8514 Y-4.8313
N7705 X1.8626 Y-4.844
N7710 X1.8745 Y-4.8561
N7715 X1.8871 Y-4.8676
N7720 X1.9003 Y-4.8783
N7725 X1.9141 Y-4.8882
N7730 X1.9284 Y-4.8974
N7735 X1.9432 Y-4.9057
N7740 X1.9585 Y-4.9132
N7745 X1.9742 Y-4.9198
N7750 X1.9902 Y-4.9256
N7755 X2.0065 Y-4.9304
N7760 X2.0231 Y-4.9343
N7765 X2.0398 Y-4.9372
N7770 X2.0567 Y-4.9392
N7775 X2.0737 Y-4.9403
N7780 X2.0907 Y-4.9404
N7785 X2.1077 Y-4.9395
N7790 X2.1246 Y-4.9377
N7795 X2.1414 Y-4.9349
N7800 X2.158 Y-4.9312
N7805 X2.1743 Y-4.9266
N7810 X2.1904 Y-4.921
N7815 X2.2061 Y-4.9146
N7820 X2.2215 Y-4.9072
N7825 X2.2364 Y-4.8991
N7830 X2.2509 Y-4.8901
N7835 X2.2648 Y-4.8803
N7840 X2.2781 Y-4.8697
N7845 X2.2911 Y-4.8582
N7850 X2.3044 Y-4.8449
N7855 X2.3173 Y-4.8305
N7860 X2.3302 Y-4.8144
N7865 X2.3425 Y-4.797
N7870 X2.354 Y-4.7789
N7875 X2.3643 Y-4.7602
N7880 X2.3735 Y-4.7412
N7885 X2.3815 Y-4.722
N7890 X2.3882 Y-4.7027
N7895 X2.3938 Y-4.6835
N7900 X2.3981 Y-4.6643
N7905 X2.4014 Y-4.6453
N7910 X2.4035 Y-4.6265
N7915 X2.4045 Y-4.6078
N7920 Y-4.5893
N7925 X2.4035 Y-4.571
N7930 X2.4014 Y-4.5529
N7935 X2.3983 Y-4.5351
N7940 X2.3943 Y-4.5175
N7945 X2.3893 Y-4.5002
N7950 X2.3833 Y-4.4833
N7955 X2.3764 Y-4.4668
N7960 X2.3686 Y-4.4506
N7965 X2.3598 Y-4.4349
N7970 X2.3502 Y-4.4196
N7975 X2.3397 Y-4.4049
N7980 X2.3283 Y-4.3907
N7985 X2.3161 Y-4.3772
N7990 X2.3031 Y-4.3643
N7995 X2.2893 Y-4.3521
N8000 X2.2748 Y-4.3406
N8005 X2.2596 Y-4.3299
N8010 X2.2437 Y-4.3201
N8015 X2.2272 Y-4.3111
N8020 X2.2102 Y-4.303
N8025 X2.1926 Y-4.2959
N8030 X2.1746 Y-4.2897
N8035 X2.1562 Y-4.2845
N8040 X2.1374 Y-4.2803
N8045 X2.1183 Y-4.2772
N8050 X2.099 Y-4.2751
N8055 X2.0794 Y-4.2742
N8060 X2.0598 Y-4.2743
N8065 X2.0402 Y-4.2756
N8070 X2.0205 Y-4.278
N8075 X2.001 Y-4.2814
N8080 X1.9815 Y-4.286
N8085 X1.9624 Y-4.2917
N8090 X1.9434 Y-4.2985
N8095 X1.9249 Y-4.3064
N8100 X1.9068 Y-4.3154
N8105 X1.8891 Y-4.3253
N8110 X1.872 Y-4.3363
N8115 X1.8555 Y-4.3483
N8120 X1.8397 Y-4.3612
N8125 X1.8245 Y-4.375
N8130 X1.8102 Y-4.3896
N8135 X1.7967 Y-4.4051
N8140 X1.784 Y-4.4213
N8145 X1.7723 Y-4.4382
N8150 X1.7615 Y-4.4558
N8155 X1.7517 Y-4.474
N8160 X1.743 Y-4.4928
N8165 X1.7353 Y-4.512
N8170 X1.7287 Y-4.5316
N8175 X1.7232 Y-4.5516
N8180 X1.7188 Y-4.5719
N8185 X1.7156 Y-4.5925
N8190 X1.7135 Y-4.6132
N8195 X1.7127 Y-4.634
N8200 X1.7129 Y-4.6548
N8205 X1.7144 Y-4.6755
N8210 X1.717 Y-4.6962
N8215 X1.7208 Y-4.7167
N8220 X1.7258 Y-4.737
N8225 X1.7318 Y-4.7569
N8230 X1.739 Y-4.7765
N8235 X1.7473 Y-4.7957
N8240 X1.7566 Y-4.8144
N8245 X1.767 Y-4.8325
N8250 X1.7784 Y-4.85
N8255 X1.7908 Y-4.8668
N8260 X1.8041 Y-4.883
N8265 X1.8183 Y-4.8983
N8270 X1.8333 Y-4.9128
N8275 X1.8491 Y-4.9265
N8280 X1.8657 Y-4.9392
N8285 X1.883 Y-4.951
N8290 X1.9009 Y-4.9619
N8295 X1.9194 Y-4.9716
N8300 X1.9384 Y-4.9804
N8305 X1.9578 Y-4.988
N8310 X1.9777 Y-4.9946
N8315 X1.9979 Y-5.
N8320 X2.0184 Y-5.0042
N8325 X2.0391 Y-5.0073
N8330 X2.0599 Y-5.0093
N8335 X2.0809 Y-5.01
N8340 X2.1018 Y-5.0096
N8345 X2.1226 Y-5.008
N8350 X2.1434 Y-5.0052
N8355 X2.1639 Y-5.0013
N8360 X2.1842 Y-4.9962
N8365 X2.2042 Y-4.99
N8370 X2.2238 Y-4.9827
N8375 X2.243 Y-4.9742
N8380 X2.262 Y-4.9646
N8385 X2.2806 Y-4.9537
N8390 X2.299 Y-4.9416
N8395 X2.3171 Y-4.9281
N8400 X2.3348 Y-4.9134
N8405 X2.3518 Y-4.8975
N8410 X2.3681 Y-4.8804
N8415 X2.3835 Y-4.8623
N8420 X2.3979 Y-4.8433
N8425 X2.4114 Y-4.8234
N8430 X2.4236 Y-4.8027
N8435 X2.4347 Y-4.7815
N8440 X2.4445 Y-4.7598
N8445 X2.453 Y-4.7378
N8450 X2.4602 Y-4.7154
N8455 X2.466 Y-4.6929
N8460 X2.4706 Y-4.6702
N8465 X2.4739 Y-4.6475
N8470 X2.4758 Y-4.6248
N8475 X2.4765 Y-4.6022
N8480 X2.4759 Y-4.5796
N8485 X2.4741 Y-4.5572
N8490 X2.4709 Y-4.535
N8495 X2.4666 Y-4.5131
N8500 X2.4611 Y-4.4916
N8505 X2.4543 Y-4.4704
N8510 X2.4464 Y-4.4496
N8515 X2.4373 Y-4.4293
N8520 X2.4271 Y-4.4095
N8525 X2.4158 Y-4.3903
N8530 X2.4034 Y-4.3718
N8535 X2.3899 Y-4.354
N8540 X2.3754 Y-4.3369
N8545 X2.36 Y-4.3206
N8550 X2.3436 Y-4.3051
N8555 X2.3263 Y-4.2906
N8560 X2.3082 Y-4.277
N8565 X2.2892 Y-4.2644
N8570 X2.2695 Y-4.2528
N8575 X2.2491 Y-4.2424
N8580 X2.2281 Y-4.2331
N8585 X2.2065 Y-4.2249
N8590 X2.1844 Y-4.2179
N8595 X2.1619 Y-4.2122
N8600 X2.139 Y-4.2077
N8605 X2.1158 Y-4.2046
N8610 X2.0923 Y-4.2027
N8615 X2.0687 Y-4.2021
N8620 X2.045 Y-4.2029
N8625 X2.0214 Y-4.205
N8630 X1.9978 Y-4.2085
N8635 X1.9743 Y-4.2133
N8640 X1.9511 Y-4.2194
N8645 X1.9282 Y-4.2269
N8650 X1.9057 Y-4.2356
N8655 X1.8837 Y-4.2456
N8660 X1.8622 Y-4.2569
N8665 X1.8413 Y-4.2694
N8670 X1.8211 Y-4.2831
N8675 X1.8017 Y-4.298
N8680 X1.7831 Y-4.3139
N8685 X1.7654 Y-4.3309
N8690 X1.7487 Y-4.3489
N8695 X1.733 Y-4.3678
N8700 X1.7183 Y-4.3876
N8705 X1.7048 Y-4.4083
N8710 X1.6924 Y-4.4297
N8715 X1.6813 Y-4.4518
N8720 X1.6714 Y-4.4745
N8725 X1.6627 Y-4.4978
N8730 X1.6554 Y-4.5215
N8735 X1.6495 Y-4.5456
N8740 X1.6449 Y-4.57
N8745 X1.6417 Y-4.5947
N8750 X1.6398 Y-4.6195
N8755 X1.6394 Y-4.6445
N8760 X1.6404 Y-4.6694
N8765 X1.6428 Y-4.6942
N8770 X1.6465 Y-4.7189
N8775 X1.6517 Y-4.7433
N8780 X1.6582 Y-4.7674
N8785 X1.6661 Y-4.7911
N8790 X1.6753 Y-4.8143
N8795 X1.6858 Y-4.837
N8800 X1.6976 Y-4.8591
N8805 X1.7106 Y-4.8804
N8810 X1.7247 Y-4.901
N8815 X1.7401 Y-4.9208
N8820 X1.7565 Y-4.9397
N8825 X1.7739 Y-4.9577
N8830 X1.7924 Y-4.9746
N8835 X1.8117 Y-4.9905
N8840 X1.832 Y-5.0052
N8845 X1.853 Y-5.0188
N8850 X1.8747 Y-5.0312
N8855 X1.8972 Y-5.0423
N8860 X1.9202 Y-5.0522
N8865 X1.9437 Y-5.0608
N8870 X1.9677 Y-5.068
N8875 X1.9921 Y-5.0739
N8880 X2.0167 Y-5.0783
N8885 X2.0416 Y-5.0814
N8890 X2.0666 Y-5.0831
N8895 X2.0917 Y-5.0834
N8900 X2.1167 Y-5.0822
N8905 X2.1416 Y-5.0797
N8910 X2.1664 Y-5.0757
N8915 X2.1909 Y-5.0704
N8920 X2.2152 Y-5.0636
N8925 X2.2393 Y-5.0554
N8930 X2.2631 Y-5.0458
N8935 X2.2865 Y-5.0348
N8940 X2.3096 Y-5.0223
N8945 X2.3321 Y-5.0084
N8950 X2.3541 Y-4.9931
N8955 X2.3753 Y-4.9764
N8960 X2.3958 Y-4.9584
N8965 X2.4153 Y-4.9392
N8970 X2.4338 Y-4.9188
N8975 X2.4512 Y-4.8973
N8980 X2.4673 Y-4.8749
N8985 X2.4822 Y-4.8515
N8990 X2.4958 Y-4.8274
N8995 X2.5079 Y-4.8026
N9000 X2.5186 Y-4.7772
N9005 X2.5278 Y-4.7514
N9010 X2.5355 Y-4.7252
N9015 X2.5417 Y-4.6987
N9020 X2.5463 Y-4.6719
N9025 X2.5495 Y-4.6451
N9030 X2.5511 Y-4.6182
N9035 X2.5512 Y-4.5913
N9040 X2.5498 Y-4.5646
N9045 X2.547 Y-4.538
N9050 X2.5426 Y-4.5117
N9055 X2.5367 Y-4.4857
N9060 X2.5295 Y-4.4601
N9065 X2.5208 Y-4.435
N9070 X2.5106 Y-4.4104
N9075 X2.4992 Y-4.3865
N9080 X2.4864 Y-4.3632
N9085 X2.4722 Y-4.3406
N9090 X2.4569 Y-4.3188
N9095 X2.4403 Y-4.2979
N9100 X2.4225 Y-4.278
N9105 X2.4036 Y-4.259
N9110 X2.3835 Y-4.2411
N9115 X2.3625 Y-4.2243
N9120 X2.3405 Y-4.2087
N9125 X2.3176 Y-4.1943
N9130 X2.2939 Y-4.1812
N9135 X2.2693 Y-4.1694
N9140 X2.2441 Y-4.159
N9145 X2.2183 Y-4.1499
N9150 X2.1919 Y-4.1424
N9155 X2.165 Y-4.1363
N9160 X2.1378 Y-4.1317
N9165 X2.1103 Y-4.1286
N9170 X2.0825 Y-4.1271
N9175 X2.0546 Y-4.1272
N9180 X2.0267 Y-4.1288
N9185 X1.9989 Y-4.132
N9190 X1.9712 Y-4.1368
N9195 X1.9437 Y-4.1432
N9200 X1.9166 Y-4.1511
N9205 X1.8899 Y-4.1605
N9210 X1.8637 Y-4.1715
N9215 X1.8381 Y-4.184
N9220 X1.8132 Y-4.1979
N9225 X1.789 Y-4.2132
N9230 X1.7657 Y-4.2299
N9235 X1.7434 Y-4.2479
N9240 X1.7221 Y-4.2671
N9245 X1.7018 Y-4.2876
N9250 X1.6827 Y-4.3092
N9255 X1.6648 Y-4.3319
N9260 X1.6483 Y-4.3556
N9265 X1.633 Y-4.3802
N9270 X1.6192 Y-4.4056
N9275 X1.6067 Y-4.4318
N9280 X1.5958 Y-4.4588
N9285 X1.5864 Y-4.4863
N9290 X1.5786 Y-4.5143
N9295 X1.5723 Y-4.5427
N9300 X1.5676 Y-4.5715
N9305 X1.5646 Y-4.6005
N9310 X1.5632 Y-4.6296
N9315 X1.5635 Y-4.6588
N9320 X1.5654 Y-4.688
N9325 X1.5689 Y-4.717
N9330 X1.5741 Y-4.7458
N9335 X1.5808 Y-4.7742
N9340 X1.5892 Y-4.8022
N9345 X1.5991 Y-4.8298
N9350 X1.6106 Y-4.8567
N9355 X1.6236 Y-4.883
N9360 X1.638 Y-4.9085
N9365 X1.6539 Y-4.9331
N9370 X1.6711 Y-4.9568
N9375 X1.6897 Y-4.9795
N9380 X1.7094 Y-5.0012
N9385 X1.7304 Y-5.0216
N9390 X1.7525 Y-5.0409
N9395 X1.7757 Y-5.0589
N9400 X1.7998 Y-5.0756
N9405 X1.8249 Y-5.0909
N9410 X1.8507 Y-5.1048
N9415 X1.8773 Y-5.1172
N9420 X1.9046 Y-5.128
N9425 X1.9324 Y-5.1373
N9430 X1.9607 Y-5.1451
N9435 X1.9894 Y-5.1512
N9440 X2.0184 Y-5.1557
N9445 X2.0477 Y-5.1586
N9450 X2.077 Y-5.1598
N9455 X2.1064 Y-5.1594
N9460 X2.1358 Y-5.1573
N9465 X2.1651 Y-5.1535
N9470 X2.1943 Y-5.1481
N9475 X2.2232 Y-5.141
N9480 X2.2519 Y-5.1322
N9485 X2.2802 Y-5.1218
N9490 X2.308 Y-5.1097
N9495 X2.3353 Y-5.096
N9500 X2.362 Y-5.0807
N9505 X2.3879 Y-5.0637
N9510 X2.413 Y-5.0453
N9515 X2.4371 Y-5.0253
N9520 X2.4602 Y-5.0039
N9525 X2.4822 Y-4.9812
N9530 X2.5028 Y-4.9572
N9535 X2.5222 Y-4.932
N9540 X2.5401 Y-4.9057
N9545 X2.5565 Y-4.8785
N9550 X2.5713 Y-4.8504
N9555 X2.5845 Y-4.8215
N9560 X2.5961 Y-4.792
N9565 X2.6059 Y-4.762
N9570 X2.614 Y-4.7315
N9575 X2.6204 Y-4.7006
N9580 X2.625 Y-4.6696
N9585 X2.6279 Y-4.6384
N9590 X2.629 Y-4.6071
N9595 X2.6283 Y-4.5759
N9600 X2.6259 Y-4.5448
N9605 X2.6218 Y-4.514
N9610 X2.6159 Y-4.4835
N9615 X2.6083 Y-4.4534
N9620 X2.599 Y-4.4238
N9625 X2.5881 Y-4.3947
N9630 X2.5756 Y-4.3664
N9635 X2.5615 Y-4.3387
N9640 X2.5459 Y-4.3119
N9645 X2.5287 Y-4.286
N9650 X2.5101 Y-4.2611
N9655 X2.4901 Y-4.2372
N9660 X2.4688 Y-4.2145
N9665 X2.4462 Y-4.1929
N9670 X2.4223 Y-4.1726
N9675 X2.3973 Y-4.1537
N9680 X2.3712 Y-4.1362
N9685 X2.3442 Y-4.1201
N9690 X2.3161 Y-4.1056
N9695 X2.2873 Y-4.0926
N9700 X2.2577 Y-4.0812
N9705 X2.2274 Y-4.0715
N9710 X2.1965 Y-4.0635
N9715 X2.1652 Y-4.0572
N9720 X2.1335 Y-4.0527
N9725 X2.1014 Y-4.05
N9730 X2.0692 Y-4.049
N9735 X2.0369 Y-4.0499
N9740 X2.0047 Y-4.0527
N9745 X1.9725 Y-4.0572
N9750 X1.9406 Y-4.0636
N9755 X1.9091 Y-4.0717
N9760 X1.8779 Y-4.0817
N9765 X1.8474 Y-4.0934
N9770 X1.8174 Y-4.1068
N9775 X1.7882 Y-4.122
N9780 X1.7599 Y-4.1387
N9785 X1.7325 Y-4.1571
N9790 X1.7061 Y-4.1771
N9795 X1.6809 Y-4.1985
N9800 X1.6569 Y-4.2213
N9805 X1.6341 Y-4.2455
N9810 X1.6127 Y-4.271
N9815 X1.5928 Y-4.2976
N9820 X1.5744 Y-4.3254
N9825 X1.5576 Y-4.3542
N9830 X1.5423 Y-4.384
N9835 X1.5288 Y-4.4145
N9840 X1.517 Y-4.4458
N9845 X1.507 Y-4.4778
N9850 X1.4988 Y-4.5103
N9855 X1.4924 Y-4.5432
N9860 X1.4879 Y-4.5765
N9865 X1.4853 Y-4.6099
N9870 X1.4845 Y-4.6435
N9875 X1.4857 Y-4.6771
N9880 X1.4887 Y-4.7106
N9885 X1.4936 Y-4.7439
N9890 X1.5004 Y-4.7769
N9895 X1.5091 Y-4.8094
N9900 X1.5195 Y-4.8414
N9905 X1.5318 Y-4.8728
N9910 X1.5458 Y-4.9035
N9915 X1.5615 Y-4.9333
N9920 X1.5789 Y-4.9622
N9925 X1.5978 Y-4.9901
N9930 X1.6183 Y-5.0169
N9935 X1.6403 Y-5.0425
N9940 X1.6637 Y-5.0668
N9945 X1.6885 Y-5.0897
N9950 X1.7145 Y-5.1113
N9955 X1.7417 Y-5.1313
N9960 X1.7699 Y-5.1498
N9965 X1.7992 Y-5.1667
N9970 X1.8293 Y-5.1818
N9975 X1.8603 Y-5.1953
N9980 X1.892 Y-5.207
N9985 X1.9243 Y-5.2169
N9990 X1.9571 Y-5.225
N9995 X1.9903 Y-5.2312
N10000 X2.0239 Y-5.2355
N10005 X2.0576 Y-5.238
N10010 X2.0915 Y-5.2385
N10015 X2.1255 Y-5.2371
N10020 X2.1594 Y-5.2338
N10025 X2.1932 Y-5.2286
N10030 X2.2268 Y-5.2215
N10035 X2.2601 Y-5.2124
N10040 X2.2929 Y-5.2015
N10045 X2.3253 Y-5.1886
N10050 X2.357 Y-5.1738
N10055 X2.388 Y-5.1573
N10060 X2.4182 Y-5.1389
N10065 X2.4474 Y-5.1187
N10070 X2.4756 Y-5.0969
N10075 X2.5025 Y-5.0734
N10080 X2.5282 Y-5.0483
N10085 X2.5525 Y-5.0218
N10090 X2.5754 Y-4.9939
N10095 X2.5966 Y-4.9647
N10100 X2.6161 Y-4.9344
N10105 X2.634 Y-4.903
N10110 X2.65 Y-4.8706
N10115 X2.6642 Y-4.8374
N10120 X2.6764 Y-4.8036
N10125 X2.6868 Y-4.7691
N10130 X2.6951 Y-4.7342
N10135 X2.7015 Y-4.6988
N10140 X2.7058 Y-4.6633
N10145 X2.7082 Y-4.6276
N10150 X2.7085 Y-4.5918
N10155 X2.7069 Y-4.5562
N10160 X2.7032 Y-4.5207
N10165 X2.6975 Y-4.4856
N10170 X2.6899 Y-4.4508
N10175 X2.6803 Y-4.4166
N10180 X2.6689 Y-4.3829
N10185 X2.6555 Y-4.35
N10190 X2.6403 Y-4.3178
N10195 X2.6234 Y-4.2865
N10200 X2.6046 Y-4.2563
N10205 X2.5842 Y-4.2271
N10210 X2.5622 Y-4.1991
N10215 X2.5386 Y-4.1723
N10220 X2.5134 Y-4.1469
N10225 X2.4869 Y-4.1228
N10230 X2.459 Y-4.1003
N10235 X2.4298 Y-4.0794
N10240 X2.3995 Y-4.0601
N10245 X2.368 Y-4.0425
N10250 X2.3355 Y-4.0267
N10255 X2.3022 Y-4.0127
N10260 X2.268 Y-4.0005
N10265 X2.2331 Y-3.9903
N10270 X2.1976 Y-3.9821
N10275 X2.1616 Y-3.9758
N10280 X2.1253 Y-3.9716
N10285 X2.0887 Y-3.9694
N10290 X2.0519 Y-3.9693
N10295 X2.0151 Y-3.9713
N10300 X1.9784 Y-3.9753
N10305 X1.9419 Y-3.9814
N10310 X1.9058 Y-3.9896
N10315 X1.8701 Y-3.9998
N10320 X1.8349 Y-4.012
N10325 X1.8005 Y-4.0263
N10330 X1.7668 Y-4.0424
N10335 X1.7341 Y-4.0605
N10340 X1.7023 Y-4.0804
N10345 X1.6717 Y-4.1021
N10350 X1.6423 Y-4.1255
N10355 X1.6143 Y-4.1506
N10360 X1.5876 Y-4.1772
N10365 X1.5625 Y-4.2054
N10370 X1.539 Y-4.2349
N10375 X1.5171 Y-4.2658
N10380 X1.497 Y-4.2979
N10385 X1.4787 Y-4.3311
N10390 X1.4623 Y-4.3653
N10395 X1.4478 Y-4.4004
N10400 X1.4354 Y-4.4362
N10405 X1.4249 Y-4.4728
N10410 X1.4165 Y-4.5099
N10415 X1.4153 Y-4.5174
N10420 X1.4143 Y-4.5248
N10425 X1.4137 Y-4.5323
N10430 X1.4136 Y-4.5399
N10435 X1.414 Y-4.571
N10440 X1.4142 Y-4.5822
N10445 X1.4141 Y-4.5935
N10450 X1.4127 Y-4.6272
N10455 X1.4122 Y-4.6384
N10460 X1.4124 Y-4.6834
N10465 X1.4138 Y-4.7144
N10470 X1.417 Y-4.7467
N10475 X1.4222 Y-4.7799
N10480 X1.4295 Y-4.8138
N10485 X1.4389 Y-4.8478
N10490 X1.4503 Y-4.8819
N10495 X1.4639 Y-4.9157
N10500 X1.4794 Y-4.9489
N10505 X1.497 Y-4.9815
N10510 X1.5164 Y-5.0133
N10515 X1.5378 Y-5.0441
N10520 X1.561 Y-5.0738
N10525 X1.5859 Y-5.1023
N10530 X1.6125 Y-5.1294
N10535 X1.6406 Y-5.155
N10540 X1.6701 Y-5.179
N10545 X1.7011 Y-5.2014
N10550 X1.7332 Y-5.222
N10555 X1.7665 Y-5.2408
N10560 X1.8008 Y-5.2577
N10565 X1.8361 Y-5.2726
N10570 X1.8721 Y-5.2856
N10575 X1.9088 Y-5.2965
N10580 X1.9462 Y-5.3053
N10585 X1.9839 Y-5.312
N10590 X2.0221 Y-5.3166
N10595 X2.0384 Y-5.3176
N10600 X2.0462 Y-5.3179
N10605 X2.054 Y-5.3176
N10610 X2.0618 Y-5.3169
N10615 X2.1205 Y-5.3096
N10620 X2.1317 Y-5.3082
N10625 X2.143 Y-5.3069
N10630 X2.1542 Y-5.3058
N10635 X2.1767 Y-5.3036
N10640 X2.2212 Y-5.2972
N10645 X2.2509 Y-5.292
N10650 X2.2822 Y-5.2848
N10655 X2.3145 Y-5.2753
N10660 X2.3475 Y-5.2636
N10665 X2.3807 Y-5.2496
N10670 X2.4139 Y-5.2334
N10675 X2.4468 Y-5.215
N10680 X2.4791 Y-5.1944
N10685 X2.5105 Y-5.1719
N10690 X2.5409 Y-5.1473
N10695 X2.5701 Y-5.1209
N10700 X2.598 Y-5.0927
N10705 X2.6244 Y-5.0627
N10710 X2.6492 Y-5.0312
N10715 X2.6722 Y-4.9982
N10720 X2.6934 Y-4.9639
N10725 X2.7127 Y-4.9283
N10730 X2.73 Y-4.8918
N10735 X2.7452 Y-4.8542
N10740 X2.7582 Y-4.8159
N10745 X2.7691 Y-4.7769
N10750 X2.7777 Y-4.7374
N10755 X2.7841 Y-4.6975
N10760 X2.7883 Y-4.6574
N10765 X2.7902 Y-4.6171
N10770 X2.7898 Y-4.5768
N10775 X2.7871 Y-4.5366
N10780 X2.7822 Y-4.4967
N10785 X2.775 Y-4.4571
N10790 X2.7657 Y-4.418
N10795 X2.7541 Y-4.3795
N10800 X2.7404 Y-4.3417
N10805 X2.7246 Y-4.3048
N10810 X2.7068 Y-4.2688
N10815 X2.6956 Y-4.2491
N10820 X2.6872 Y-4.2363
N10825 X2.6774 Y-4.2246
N10830 X2.6662 Y-4.2142
N10835 X2.6538 Y-4.2052
N10840 X2.3904 Y-4.0382
N10845 X2.3791 Y-4.031
N10850 X2.3566 Y-4.0163
N10855 X2.2667 Y-3.9561
N10860 X2.2462 Y-3.9438
N10865 X2.2319 Y-3.9363
N10870 X2.2146 Y-3.9284
N10875 X2.1964 Y-3.9213
N10880 X2.1747 Y-3.9142
N10885 X2.1517 Y-3.9082
N10890 X2.1263 Y-3.903
N10895 X2.0979 Y-3.8988
N10900 X2.0676 Y-3.8961
N10905 X2.0364 Y-3.895
N10910 X2.003 Y-3.8958
N10915 X1.9679 Y-3.8986
N10920 X1.9316 Y-3.9035
N10925 X1.8945 Y-3.9107
N10930 X1.857 Y-3.9203
N10935 X1.8193 Y-3.9321
N10940 X1.7819 Y-3.9462
N10945 X1.745 Y-3.9626
N10950 X1.7087 Y-3.9812
N10955 X1.6733 Y-4.0019
N10960 X1.6388 Y-4.0248
N10965 X1.6056 Y-4.0497
N10970 X1.5736 Y-4.0766
N10975 X1.543 Y-4.1054
N10980 X1.5141 Y-4.1359
N10985 X1.4868 Y-4.1681
N10990 X1.4613 Y-4.2018
N10995 X1.4377 Y-4.237
N11000 X1.4268 Y-4.2555
N11005 X1.4188 Y-4.2717
N11010 X1.4131 Y-4.2888
N11015 X1.41 Y-4.3066
N11020 X1.4095 Y-4.3246
N11025 X1.4104 Y-4.3461
N11030 X1.4108 Y-4.3574
N11035 X1.4136 Y-4.5399
N11040 G3 X1.4516 Y-4.5768 Z-0.1795 I0.0375 J0.0006
N11045 X1.4136 Y-4.5403 I-0.0005 J0.0375
N11050 G1 X1.4161 Y-4.6308
N11055 G3 X1.4442 Y-4.5935 I0.0375 J0.001
N11060 X1.4223 Y-4.6092 Z-0.1833 I0.0094 J-0.0363
N11065 G1 X1.4219 Y-4.6097
N11070 G3 X1.4122 Y-4.6384 Z-0.1875 I0.0524 J-0.0337
N11075 G1 X1.4041 Y-4.8183
N11080 X1.4034 Y-4.8296
N11085 X1.4019 Y-4.852
N11090 X1.4013 Y-4.8669
N11095 X1.4016 Y-4.8804
N11100 X1.4028 Y-4.8963
N11105 X1.4051 Y-4.913
N11110 X1.4088 Y-4.9322
N11115 X1.4137 Y-4.9519
N11120 X1.4207 Y-4.9744
N11125 X1.4293 Y-4.9974
N11130 X1.4402 Y-5.022
N11135 X1.4536 Y-5.0484
N11140 X1.4695 Y-5.0757
N11145 X1.4873 Y-5.1027
N11150 X1.5079 Y-5.1303
N11155 X1.5313 Y-5.1582
N11160 X1.5571 Y-5.1858
N11165 X1.5853 Y-5.2126
N11170 X1.6156 Y-5.2384
N11175 X1.6478 Y-5.2629
N11180 X1.6819 Y-5.2859
N11185 X1.7175 Y-5.307
N11190 X1.7546 Y-5.3263
N11195 X1.7728 Y-5.3345
N11200 X1.7888 Y-5.3405
N11205 X1.8055 Y-5.3442
N11210 X1.8225 Y-5.3456
N11215 X1.8396 Y-5.3446
N11220 X2.0618 Y-5.3169
N11225 G3 X2.0929 Y-5.274 Z-0.1795 I-0.0059 J0.037
N11230 X2.077 Y-5.249 I-0.037 J-0.0059
N11235 G1 X1.4603 Y-4.8256
N11240 G3 X1.4436 Y-4.8193 I-0.0212 J-0.0309
N11245 X1.4019 Y-4.852 Z-0.1875 I-0.0045 J-0.0372
N11250 G1 X1.4009 Y-4.8633
N11255 X1.3896 Y-4.9693
N11260 X1.3887 Y-4.9863
N11265 Y-4.9972
N11270 X1.3894 Y-5.0094
N11275 X1.3909 Y-5.0226
N11280 X1.3934 Y-5.0374
N11285 X1.397 Y-5.0531
N11290 X1.4021 Y-5.0705
N11295 X1.4087 Y-5.0892
N11300 X1.4169 Y-5.1089
N11305 X1.4276 Y-5.131
N11310 X1.4397 Y-5.1528
N11315 X1.4548 Y-5.1766
N11320 X1.4728 Y-5.2019
N11325 X1.4929 Y-5.2269
N11330 X1.5158 Y-5.2522
N11335 X1.5418 Y-5.2781
N11340 X1.5709 Y-5.3039
N11345 X1.6028 Y-5.3291
N11350 X1.6178 Y-5.3396
N11355 X1.6336 Y-5.3491
N11360 X1.6506 Y-5.3561
N11365 X1.6684 Y-5.3605
N11370 X1.6867 Y-5.3623
N11375 X1.7051 Y-5.3614
N11380 X1.8396 Y-5.3446
N11385 G3 X1.8707 Y-5.3017 Z-0.1795 I-0.0059 J0.037
N11390 X1.8574 Y-5.2786 I-0.037 J-0.0059
N11395 G1 X1.4505 Y-4.9455
N11400 G3 X1.432 Y-4.9374 I-0.0238 J-0.029
N11405 X1.3896 Y-4.9693 Z-0.1875 I-0.0052 J-0.0371
N11410 G1 X1.3806 Y-5.0544
N11415 X1.3795 Y-5.0656
N11420 X1.3775 Y-5.0881
N11425 X1.3772 Y-5.0991
N11430 X1.3776 Y-5.1097
N11435 X1.3785 Y-5.1207
N11440 X1.3803 Y-5.1334
N11445 X1.383 Y-5.1467
N11450 X1.3869 Y-5.1619
N11455 X1.3919 Y-5.1773
N11460 X1.3988 Y-5.1951
N11465 X1.4068 Y-5.2129
N11470 X1.4172 Y-5.2329
N11475 X1.4295 Y-5.2536
N11480 X1.4441 Y-5.2752
N11485 X1.4619 Y-5.2987
N11490 X1.48 Y-5.32
N11495 X1.4827 Y-5.3228
N11500 X1.4939 Y-5.3331
N11505 X1.5062 Y-5.342
N11510 X1.5195 Y-5.3494
N11515 X1.5336 Y-5.3551
N11520 G3 X1.5802 Y-5.3298 Z-0.1795 I0.0106 J0.036
N11525 X1.5768 Y-5.3005 I-0.036 J0.0107
N11530 G1 X1.4473 Y-5.0741
N11535 G3 X1.4193 Y-5.0555 I-0.0326 J-0.0186
N11540 X1.3775 Y-5.0881 Z-0.1875 I-0.0045 J-0.0372
N11545 G1 X1.3767 Y-5.0994
N11550 X1.3752 Y-5.1331
N11555 Y-5.1443
N11560 X1.3784 Y-5.1673
N11565 X1.3799 Y-5.1781
N11570 X1.3808 Y-5.1837
N11575 X1.3822 Y-5.1893
N11580 X1.3936 Y-5.223
N11585 X1.3958 Y-5.2287
N11590 X1.3989 Y-5.2343
N11595 X1.4121 Y-5.258
N11600 X1.4183 Y-5.268
N11605 X1.437 Y-5.2905
N11610 X1.4459 Y-5.3007
N11615 X1.447 Y-5.3017
N11620 X1.4741 Y-5.3242
N11625 X1.4796 Y-5.3285
N11630 X1.4919 Y-5.3355
N11635 X1.5133 Y-5.3473
N11640 X1.519 Y-5.3501
N11645 X1.5246 Y-5.3521
N11650 X1.5471 Y-5.3596
N11655 X1.5583 Y-5.3633
N11660 X1.5695 Y-5.3651
N11665 X1.5988 Y-5.3692
N11670 X1.6033 Y-5.3696
N11675 X1.6145 Y-5.3693
N11680 X1.6483 Y-5.3677
N11685 X1.6595 Y-5.3666
N11690 X1.682 Y-5.3642
N11695 X1.6932 Y-5.3629
N11700 X1.7051 Y-5.3614
N11705 G3 X1.7339 Y-5.3385 Z-0.1823 I-0.0059 J0.037
N11710 G1 X1.7416 Y-5.3196 Z-0.1795
N11715 X2.2761 Y-4.0089
N11720 X2.2794 Y-4.0006 Z-0.1807
N11725 G3 X2.2667 Y-3.9561 Z-0.1875 I-0.0347 J0.0142
N11730 G1 X2.1441 Y-3.874
N11735 X2.131 Y-3.8661
N11740 X2.1207 Y-3.8607
N11745 X2.1081 Y-3.855
N11750 X2.0949 Y-3.8498
N11755 X2.0788 Y-3.8445
N11760 X2.062 Y-3.8401
N11765 X2.042 Y-3.836
N11770 X2.0208 Y-3.8329
N11775 X1.9971 Y-3.8308
N11780 X1.9703 Y-3.8299
N11785 X1.9429 Y-3.8305
N11790 X1.9126 Y-3.8329
N11795 X1.8797 Y-3.8374
N11800 X1.8451 Y-3.8441
N11805 X1.8103 Y-3.8529
N11810 X1.7741 Y-3.8643
N11815 X1.7367 Y-3.8784
N11820 X1.6988 Y-3.8952
N11825 X1.6609 Y-3.9147
N11830 X1.6233 Y-3.9367
N11835 X1.5864 Y-3.9612
N11840 X1.5504 Y-3.9882
N11845 X1.516 Y-4.0171
N11850 X1.4832 Y-4.0479
N11855 X1.4522 Y-4.0804
N11860 X1.4262 Y-4.1109
N11865 X1.4251 Y-4.1123
N11870 X1.4152 Y-4.1275
N11875 X1.4076 Y-4.1439
N11880 X1.4025 Y-4.1613
N11885 X1.3999 Y-4.1793
N11890 X1.4 Y-4.1974
N11895 X1.4087 Y-4.3124
N11900 X1.4095 Y-4.3236
N11905 Y-4.3246
N11910 G3 X1.4498 Y-4.359 Z-0.1795 I0.0374 J0.0029
N11915 X1.4666 Y-4.3535 I-0.0029 J0.0374
N11920 G1 X2.1419 Y-3.9363
N11925 G3 X2.1526 Y-3.9263 I-0.0197 J0.0319
N11930 X2.1441 Y-3.874 Z-0.1875 I-0.0304 J0.0219
N11935 G1 X2.0434 Y-3.8065
N11940 X2.0354 Y-3.8017
N11945 X2.0266 Y-3.7971
N11950 X2.0159 Y-3.7922
N11955 X2.0044 Y-3.7877
N11960 X1.9909 Y-3.7833
N11965 X1.9761 Y-3.7794
N11970 X1.9591 Y-3.7759
N11975 X1.9408 Y-3.7732
N11980 X1.9196 Y-3.7713
N11985 X1.8979 Y-3.7706
N11990 X1.8728 Y-3.7712
N11995 X1.8458 Y-3.7733
N12000 X1.8175 Y-3.7772
N12005 X1.7861 Y-3.7833
N12010 X1.7522 Y-3.7918
N12015 X1.7182 Y-3.8025
N12020 X1.6825 Y-3.816
N12025 X1.6451 Y-3.8326
N12030 X1.6067 Y-3.8523
N12035 X1.5681 Y-3.8749
N12040 X1.5307 Y-3.8998
N12045 X1.4946 Y-3.9266
N12050 X1.4601 Y-3.9554
N12055 X1.4349 Y-3.9787
N12060 X1.4246 Y-3.9894
N12065 X1.4132 Y-4.0031
N12070 X1.4039 Y-4.0184
N12075 X1.397 Y-4.0348
N12080 X1.3926 Y-4.052
N12085 X1.3908 Y-4.0698
N12090 X1.3916 Y-4.0876
N12095 X1.3968 Y-4.155
N12100 X1.4 Y-4.1974
N12105 G3 X1.4414 Y-4.2306 Z-0.1795 I0.0373 J0.0041
N12110 X1.4568 Y-4.2253 I-0.0041 J0.0373
N12115 G1 X2.041 Y-3.8689
N12120 G3 X2.0519 Y-3.8588 I-0.0195 J0.032
N12125 X2.0434 Y-3.8065 Z-0.1875 I-0.0304 J0.0219
N12130 G1 X1.9595 Y-3.7503
N12135 X1.9483 Y-3.7436
N12140 X1.9397 Y-3.739
N12145 X1.9304 Y-3.7348
N12150 X1.9195 Y-3.7306
N12155 X1.9076 Y-3.7267
N12160 X1.8939 Y-3.723
N12165 X1.8789 Y-3.72
N12170 X1.8617 Y-3.7174
N12175 X1.8434 Y-3.7158
N12180 X1.8222 Y-3.7151
N12185 X1.8005 Y-3.7156
N12190 X1.7755 Y-3.7176
N12195 X1.7487 Y-3.7212
N12200 X1.7205 Y-3.7267
N12205 X1.6891 Y-3.7347
N12210 X1.6553 Y-3.7453
N12215 X1.6216 Y-3.758
N12220 X1.5854 Y-3.774
N12225 X1.5477 Y-3.7934
N12230 X1.5091 Y-3.816
N12235 X1.473 Y-3.84
N12240 X1.4463 Y-3.8599
N12245 X1.4276 Y-3.8757
N12250 X1.4172 Y-3.8854
N12255 X1.4057 Y-3.8979
N12260 X1.3959 Y-3.9118
N12265 X1.3881 Y-3.9269
N12270 X1.3825 Y-3.9429
N12275 X1.3791 Y-3.9595
N12280 X1.3779 Y-3.9765
N12285 X1.3791 Y-3.9934
N12290 X1.3873 Y-4.0538
N12295 X1.3903 Y-4.0763
N12300 X1.3916 Y-4.0876
N12305 G3 X1.4344 Y-4.1189 Z-0.1795 I0.0371 J0.0057
N12310 X1.4478 Y-4.1141 I-0.0057 J0.0371
N12315 G1 X1.9567 Y-3.813
N12320 G3 X1.968 Y-3.8026 I-0.0191 J0.0323
N12325 X1.9595 Y-3.7503 Z-0.1875 I-0.0304 J0.0219
N12330 G1 X1.9428 Y-3.739
N12335 X1.9406 Y-3.7375
N12340 X1.8844 Y-3.6978
N12345 X1.8728 Y-3.6904
N12350 X1.865 Y-3.6861
N12355 X1.8566 Y-3.682
N12360 X1.8466 Y-3.6778
N12365 X1.8358 Y-3.674
N12370 X1.8233 Y-3.6703
N12375 X1.8098 Y-3.6672
N12380 X1.7943 Y-3.6645
N12385 X1.7777 Y-3.6626
N12390 X1.7584 Y-3.6615
N12395 X1.7386 Y-3.6614
N12400 X1.7156 Y-3.6627
N12405 X1.6915 Y-3.6653
N12410 X1.6653 Y-3.6697
N12415 X1.6358 Y-3.6764
N12420 X1.6057 Y-3.6851
N12425 X1.5732 Y-3.6964
N12430 X1.5387 Y-3.7107
N12435 X1.5049 Y-3.7269
N12440 X1.4738 Y-3.7441
N12445 X1.4487 Y-3.7598
N12450 X1.4298 Y-3.7733
N12455 X1.4133 Y-3.7864
N12460 X1.4071 Y-3.792
N12465 X1.3949 Y-3.8045
N12470 X1.3846 Y-3.8186
N12475 X1.3764 Y-3.834
N12480 X1.3704 Y-3.8503
N12485 X1.3667 Y-3.8674
N12490 X1.3654 Y-3.8848
N12495 X1.3666 Y-3.9022
N12500 X1.3791 Y-3.9934
N12505 G3 X1.4224 Y-4.024 Z-0.1795 I0.037 J0.0064
N12510 X1.4349 Y-4.0194 I-0.0064 J0.037
N12515 G1 X1.8805 Y-3.76
N12520 G3 X1.8915 Y-3.7503 I-0.0189 J0.0324
N12525 X1.8844 Y-3.6978 Z-0.1875 I-0.0299 J0.0227
N12530 G1 X1.8057 Y-3.6421
N12535 X1.7972 Y-3.6367
N12540 X1.7901 Y-3.6328
N12545 X1.7814 Y-3.6285
N12550 X1.7722 Y-3.6247
N12555 X1.7612 Y-3.6208
N12560 X1.7496 Y-3.6174
N12565 X1.7359 Y-3.6142
N12570 X1.7215 Y-3.6117
N12575 X1.7046 Y-3.6098
N12580 X1.6872 Y-3.6088
N12585 X1.667 Y-3.6087
N12590 X1.6456 Y-3.6099
N12595 X1.6222 Y-3.6125
N12600 X1.596 Y-3.6169
N12605 X1.5695 Y-3.6229
N12610 X1.5415 Y-3.6309
N12615 X1.513 Y-3.6408
N12620 X1.4856 Y-3.6521
N12625 X1.4609 Y-3.664
N12630 X1.4397 Y-3.6757
N12635 X1.423 Y-3.6863
N12640 X1.4073 Y-3.6974
N12645 X1.3942 Y-3.7079
N12650 X1.3818 Y-3.7206
N12655 X1.3715 Y-3.735
N12660 X1.3632 Y-3.7507
N12665 X1.3573 Y-3.7674
N12670 X1.3539 Y-3.7848
N12675 X1.3529 Y-3.8024
N12680 X1.3545 Y-3.8201
N12685 X1.3578 Y-3.8402
N12690 X1.3596 Y-3.8515
N12695 X1.3666 Y-3.9022
N12700 G3 X1.4099 Y-3.9327 Z-0.1795 I0.037 J0.0064
N12705 X1.4226 Y-3.9281 I-0.0064 J0.037
N12710 G1 X1.802 Y-3.7042
N12715 G3 X1.8128 Y-3.6946 I-0.0191 J0.0323
N12720 X1.8057 Y-3.6421 Z-0.1875 I-0.0299 J0.0227
N12725 G1 X1.7311 Y-3.5893
N12730 X1.7231 Y-3.5843
N12735 X1.7161 Y-3.5804
N12740 X1.7077 Y-3.5763
N12745 X1.6987 Y-3.5725
N12750 X1.6879 Y-3.5687
N12755 X1.6766 Y-3.5654
N12760 X1.6632 Y-3.5623
N12765 X1.6493 Y-3.5599
N12770 X1.6333 Y-3.558
N12775 X1.616 Y-3.557
N12780 X1.5975
N12785 X1.5769 Y-3.5581
N12790 X1.5556 Y-3.5604
N12795 X1.5336 Y-3.5642
N12800 X1.5108 Y-3.5693
N12805 X1.4882 Y-3.5758
N12810 X1.4661 Y-3.5835
N12815 X1.4463 Y-3.5917
N12820 X1.4287 Y-3.6002
N12825 X1.414 Y-3.6083
N12830 X1.3996 Y-3.6173
N12835 X1.3877 Y-3.6257
N12840 X1.3853 Y-3.6277
N12845 X1.371 Y-3.641
N12850 X1.359 Y-3.6564
N12855 X1.3496 Y-3.6735
N12860 X1.3429 Y-3.6918
N12865 X1.3391 Y-3.7109
N12870 X1.3384 Y-3.7304
N12875 X1.3407 Y-3.7498
N12880 X1.352 Y-3.8065
N12885 X1.3542 Y-3.8177
N12890 X1.3545 Y-3.8201
N12895 G3 X1.3986 Y-3.8495 Z-0.1795 I0.0368 J0.0073
N12900 X1.4109 Y-3.8448 I-0.0073 J0.0368
N12905 G1 X1.7279 Y-3.6512
N12910 G3 X1.7382 Y-3.6419 I-0.0195 J0.032
N12915 X1.7311 Y-3.5893 Z-0.1875 I-0.0299 J0.0227
N12920 G1 X1.6595 Y-3.5387
N12925 X1.6504 Y-3.533
N12930 X1.6434 Y-3.5291
N12935 X1.6355 Y-3.5252
N12940 X1.6265 Y-3.5214
N12945 X1.6167 Y-3.5179
N12950 X1.6054 Y-3.5147
N12955 X1.5935 Y-3.5119
N12960 X1.5799 Y-3.5095
N12965 X1.5657 Y-3.5079
N12970 X1.5503 Y-3.507
N12975 X1.5335
N12980 X1.5163 Y-3.5079
N12985 X1.4987 Y-3.5098
N12990 X1.4809 Y-3.5128
N12995 X1.463 Y-3.5169
N13000 X1.4458 Y-3.5218
N13005 X1.4305 Y-3.5272
N13010 X1.4154 Y-3.5334
N13015 X1.4026 Y-3.5395
N13020 X1.3894 Y-3.5468
N13025 X1.3786 Y-3.5537
N13030 X1.3672 Y-3.5617
N13035 X1.354 Y-3.5741
N13040 X1.3428 Y-3.5884
N13045 X1.334 Y-3.6042
N13050 X1.3278 Y-3.6212
N13055 X1.3243 Y-3.639
N13060 X1.3236 Y-3.6571
N13065 X1.3258 Y-3.675
N13070 X1.3407 Y-3.7498
N13075 G3 X1.3857 Y-3.7777 Z-0.1795 I0.0365 J0.0086
N13080 X1.3979 Y-3.7724 I-0.0086 J0.0365
N13085 G1 X1.6576 Y-3.5998
N13090 G3 X1.6666 Y-3.5912 I-0.0208 J0.0312
N13095 X1.6595 Y-3.5387 Z-0.1875 I-0.0299 J0.0227
N13100 G1 X1.5886 Y-3.4886
N13105 X1.581 Y-3.4837
N13110 X1.5743 Y-3.48
N13115 X1.5671 Y-3.4765
N13120 X1.5589 Y-3.4731
N13125 X1.5498 Y-3.4698
N13130 X1.5401 Y-3.467
N13135 X1.5292 Y-3.4645
N13140 X1.5176 Y-3.4625
N13145 X1.5056 Y-3.4611
N13150 X1.4926 Y-3.4603
N13155 X1.4791
N13160 X1.4652 Y-3.461
N13165 X1.4511 Y-3.4626
N13170 X1.4368 Y-3.465
N13175 X1.4233 Y-3.4681
N13180 X1.4106 Y-3.4717
N13185 X1.398 Y-3.4761
N13190 X1.387 Y-3.4806
N13195 X1.3754 Y-3.4862
N13200 X1.3655 Y-3.4917
N13205 X1.3555 Y-3.498
N13210 X1.3419 Y-3.5094
N13215 X1.3304 Y-3.5229
N13220 X1.3213 Y-3.5381
N13225 X1.3148 Y-3.5546
N13230 X1.311 Y-3.5719
N13235 X1.3102 Y-3.5896
N13240 X1.3122 Y-3.6072
N13245 X1.3229 Y-3.6603
N13250 X1.3258 Y-3.675
N13255 G3 X1.3709 Y-3.7029 Z-0.1795 I0.0365 J0.0086
N13260 X1.3843 Y-3.6968 I-0.0086 J0.0365
N13265 G1 X1.588 Y-3.5488
N13270 G3 X1.5958 Y-3.5411 I-0.022 J0.0303
N13275 X1.5886 Y-3.4886 Z-0.1875 I-0.0299 J0.0227
N13280 G1 X1.5295 Y-3.4467
N13285 X1.5246 Y-3.4432
N13290 X1.5188 Y-3.4394
N13295 X1.5134 Y-3.4363
N13300 X1.507 Y-3.4331
N13305 X1.5001 Y-3.43
N13310 X1.4926 Y-3.4272
N13315 X1.4843 Y-3.4247
N13320 X1.4755 Y-3.4225
N13325 X1.4662 Y-3.4207
N13330 X1.4563 Y-3.4194
N13335 X1.4458 Y-3.4186
N13340 X1.435 Y-3.4184
N13345 X1.4238 Y-3.4188
N13350 X1.4131 Y-3.4198
N13355 X1.4029 Y-3.4214
N13360 X1.392 Y-3.4237
N13365 X1.3825 Y-3.4262
N13370 X1.3727 Y-3.4295
N13375 X1.363 Y-3.4333
N13380 X1.3545 Y-3.4372
N13385 X1.3454 Y-3.442
N13390 X1.3444 Y-3.4427
N13395 X1.3314 Y-3.452
N13400 X1.3202 Y-3.4633
N13405 X1.3108 Y-3.4762
N13410 X1.3037 Y-3.4904
N13415 X1.2989 Y-3.5056
N13420 X1.2966 Y-3.5214
N13425 X1.2969 Y-3.5373
N13430 X1.2997 Y-3.553
N13435 X1.3042 Y-3.5704
N13440 X1.3071 Y-3.5816
N13445 X1.3122 Y-3.6072
N13450 G3 X1.3574 Y-3.635 Z-0.1795 I0.0365 J0.0087
N13455 X1.3726 Y-3.6274 I-0.0087 J0.0365
N13460 G1 X1.5252 Y-3.5016
N13465 X1.5282 Y-3.4989
N13470 X1.5309 Y-3.4959
N13475 G3 X1.5246 Y-3.4432 Z-0.1875 I-0.0295 J0.0232
N13480 G1 X1.5133 Y-3.435
N13485 X1.471 Y-3.4034
N13490 X1.4654 Y-3.3996
N13495 X1.4602 Y-3.3966
N13500 X1.4548 Y-3.3938
N13505 X1.4489 Y-3.3912
N13510 X1.4427 Y-3.3888
N13515 X1.4359 Y-3.3867
N13520 X1.4285 Y-3.3848
N13525 X1.4207 Y-3.3834
N13530 X1.4127 Y-3.3823
N13535 X1.4043 Y-3.3816
N13540 X1.3965 Y-3.3814
N13545 X1.3878 Y-3.3817
N13550 X1.3794 Y-3.3825
N13555 X1.3717 Y-3.3836
N13560 X1.3631 Y-3.3854
N13565 X1.3551 Y-3.3875
N13570 X1.3476 Y-3.39
N13575 X1.3394 Y-3.3932
N13580 X1.3384 Y-3.3936
N13585 X1.3241 Y-3.4017
N13590 X1.3114 Y-3.4122
N13595 X1.3008 Y-3.4247
N13600 X1.2925 Y-3.4388
N13605 X1.2868 Y-3.4542
N13610 X1.2839 Y-3.4704
N13615 X1.2838 Y-3.4868
N13620 X1.2865 Y-3.503
N13625 X1.2997 Y-3.553
N13630 G3 X1.3464 Y-3.5781 Z-0.1795 I0.0359 J0.0108
N13635 X1.3618 Y-3.569 I-0.0108 J0.0359
N13640 G1 X1.4738 Y-3.4595
N13645 X1.4768 Y-3.4561
N13650 G3 X1.471 Y-3.4034 Z-0.1875 I-0.0293 J0.0234
N13655 G1 X1.4236 Y-3.368
N13660 X1.4186 Y-3.3647
N13665 X1.4134 Y-3.3617
N13670 X1.4081 Y-3.359
N13675 X1.4025 Y-3.3567
N13680 X1.3968 Y-3.3548
N13685 X1.3911 Y-3.3531
N13690 X1.3852 Y-3.3519
N13695 X1.3787 Y-3.3509
N13700 X1.3724 Y-3.3503
N13705 X1.3664 Y-3.35
N13710 X1.3598 Y-3.3501
N13715 X1.353 Y-3.3506
N13720 X1.3468 Y-3.3514
N13725 X1.3404 Y-3.3526
N13730 X1.3334 Y-3.3544
N13735 X1.3322 Y-3.3547
N13740 X1.3187 Y-3.3601
N13745 X1.3064 Y-3.3677
N13750 X1.2955 Y-3.3773
N13755 X1.2865 Y-3.3886
N13760 X1.2794 Y-3.4013
N13765 X1.2746 Y-3.4149
N13770 X1.2722 Y-3.4292
N13775 Y-3.4437
N13780 X1.2747 Y-3.458
N13785 G3 X1.3214 Y-3.4831 Z-0.1795 I0.0359 J0.0108
N13790 G1 X1.3252 Y-3.4817
N13795 X1.3289 Y-3.4799
N13800 X1.4184 Y-3.4301
N13805 G3 X1.4294 Y-3.4207 I-0.0183 J0.0328
N13810 X1.4236 Y-3.368 Z-0.1875 I-0.0293 J0.0234
N13815 G1 X1.3835 Y-3.3381
N13820 X1.3785 Y-3.3348
N13825 X1.3732 Y-3.3319
N13830 X1.3677 Y-3.3294
N13835 X1.3621 Y-3.3275
N13840 X1.3563 Y-3.326
N13845 X1.3504 Y-3.3249
N13850 X1.3444 Y-3.3242
N13855 X1.3384 Y-3.324
N13860 X1.3324 Y-3.3242
N13865 X1.3178 Y-3.327
N13870 X1.304 Y-3.3325
N13875 X1.2915 Y-3.3405
N13880 X1.2809 Y-3.3508
N13885 X1.2723 Y-3.363
N13890 X1.2663 Y-3.3765
N13895 X1.263 Y-3.391
N13900 X1.2625 Y-3.4058
N13905 X1.2649 Y-3.4205
N13910 G3 X1.2914 Y-3.4581 Z-0.1811 I0.0694 J0.0209
N13915 X1.3016 Y-3.4644 Z-0.1795 I0.0448 J0.061
N13920 X1.4113 Y-3.3883 I0.0345 J0.0673
N13925 X1.3835 Y-3.3381 Z-0.1875 I-0.0751 J-0.0088
N13930 G1 X1.3517 Y-3.3144
N13935 X1.3467 Y-3.3111
N13940 X1.3413 Y-3.3084
N13945 X1.3357 Y-3.3063
N13950 X1.3299 Y-3.3048
N13955 X1.3169 Y-3.3041
N13960 X1.304 Y-3.3059
N13965 X1.2917 Y-3.3102
N13970 X1.2805 Y-3.3169
N13975 X1.2708 Y-3.3257
N13980 X1.263 Y-3.3361
N13985 X1.2575 Y-3.348
N13990 X1.2544 Y-3.3606
N13995 X1.2539 Y-3.3737
N14000 X1.2559 Y-3.3865
N14005 G3 X1.2792 Y-3.4169 Z-0.1822 I0.0518 J0.0156
N14010 X1.2973 Y-3.4245 Z-0.1795 I0.0332 J0.0534
N14015 X1.3752 Y-3.3661 I0.015 J0.0611
N14020 X1.3517 Y-3.3144 Z-0.1875 I-0.0628 J0.0026
N14025 G1 X1.3275 Y-3.2964
N14030 X1.3226 Y-3.293
N14035 X1.3171 Y-3.2905
N14040 X1.3114 Y-3.2887
N14045 X1.3055 Y-3.2875
N14050 X1.2939 Y-3.2878
N14055 X1.2826 Y-3.2905
N14060 X1.2721 Y-3.2956
N14065 X1.263 Y-3.3027
N14070 X1.2555 Y-3.3116
N14075 X1.2501 Y-3.3219
N14080 X1.2469 Y-3.3331
N14085 X1.2462 Y-3.3447
N14090 X1.248 Y-3.3562
N14095 G3 X1.2673 Y-3.3815 Z-0.1831 I0.0431 J0.0129
N14100 X1.2922 Y-3.3893 Z-0.1795 I0.0276 J0.0443
N14105 X1.3457 Y-3.3491 I0.0027 J0.0522
N14110 X1.3275 Y-3.2964 Z-0.1875 I-0.0508 J0.012
N14115 G1 X1.3066 Y-3.2808
N14120 X1.3016 Y-3.2774
N14125 X1.2961 Y-3.2751
N14130 X1.2903 Y-3.2735
N14135 X1.279 Y-3.2736
N14140 X1.268 Y-3.2764
N14145 X1.2581 Y-3.2818
N14150 X1.2498 Y-3.2895
N14155 X1.2436 Y-3.299
N14160 X1.24 Y-3.3097
N14165 X1.2391 Y-3.321
N14170 X1.2411 Y-3.3322
N14175 G3 X1.2564 Y-3.3515 I0.0349 J0.012
N14180 X1.3066 Y-3.2808 I0.023 J0.0368
N14185 G1 X1.2997 Y-3.2756
N14190 X1.2885 Y-3.2678
N14195 X1.2866 Y-3.2669
N14200 X1.2819 Y-3.2651
N14205 X1.2772 Y-3.2639
N14210 X1.2716 Y-3.2634
N14215 X1.266 Y-3.2637
N14220 X1.2604 Y-3.2648
N14225 X1.2547 Y-3.2669
N14230 X1.2491 Y-3.2702
N14235 X1.2463 Y-3.2724
N14240 X1.2435 Y-3.2751
N14245 X1.2409 Y-3.2781
N14250 X1.2389 Y-3.2809
N14255 X1.2373 Y-3.2837
N14260 X1.235 Y-3.2893
N14265 X1.2336 Y-3.295
N14270 X1.2332 Y-3.3006
N14275 X1.2335 Y-3.3062
N14280 X1.2348 Y-3.3118
N14285 X1.2383 Y-3.3231
N14290 X1.2452 Y-3.3456
N14295 X1.2865 Y-3.503
N14300 G3 X1.306 Y-3.5259 I0.0359 J0.0108
N14305 G1 X1.3101 Y-3.5278 Z-0.1872
N14310 X1.3141 Y-3.5298 Z-0.1864
N14315 X1.3179 Y-3.5317 Z-0.1851
N14320 X1.3217 Y-3.5335 Z-0.1832
N14325 X1.3251 Y-3.5352 Z-0.1809
N14330 X1.3283 Y-3.5368 Z-0.1781
N14335 X1.3312 Y-3.5382 Z-0.1749
N14340 X1.3337 Y-3.5394 Z-0.1713
N14345 X1.3358 Y-3.5404 Z-0.1674
N14350 X1.3375 Y-3.5412 Z-0.1633
N14355 X1.3387 Y-3.5418 Z-0.159
N14360 X1.3394 Y-3.5422 Z-0.1545
N14365 X1.3397 Y-3.5423 Z-0.15
N14370 G0 Z0.2
N14375 X2.1125 Y-5.2817
N14380 Z-0.1125
N14385 G1 Z-0.15 F80.3
N14390 X2.1127 Y-5.2818 Z-0.1545
N14395 X2.1135 Y-5.2821 Z-0.159
N14400 X2.1147 Y-5.2827 Z-0.1633
N14405 X2.1164 Y-5.2835 Z-0.1674
N14410 X2.1185 Y-5.2845 Z-0.1713
N14415 X2.121 Y-5.2857 Z-0.1749
N14420 X2.1239 Y-5.2871 Z-0.1781
N14425 X2.1271 Y-5.2886 Z-0.1809
N14430 X2.1306 Y-5.2903 Z-0.1832
N14435 X2.1344 Y-5.292 Z-0.1851
N14440 X2.1383 Y-5.2939 Z-0.1864
N14445 X2.1423 Y-5.2958 Z-0.1872
N14450 X2.1464 Y-5.2977 Z-0.1875
N14455 G3 X2.1767 Y-5.3036 I0.0267 J0.0563
N14460 G1 X2.4016 Y-5.2825
N14465 X2.4211 Y-5.2797
N14470 X2.4364 Y-5.2766
N14475 X2.4527 Y-5.2723
N14480 X2.4709 Y-5.2664
N14485 X2.49 Y-5.259
N14490 X2.5117 Y-5.2492
N14495 X2.5333 Y-5.2379
N14500 X2.5571 Y-5.2237
N14505 X2.5824 Y-5.2066
N14510 X2.6071 Y-5.1878
N14515 X2.6328 Y-5.1658
N14520 X2.659 Y-5.1407
N14525 X2.6851 Y-5.1128
N14530 X2.7105 Y-5.0823
N14535 X2.7348 Y-5.0496
N14540 X2.7576 Y-5.015
N14545 X2.7787 Y-4.9785
N14550 X2.7981 Y-4.9403
N14555 X2.8155 Y-4.9005
N14560 X2.8309 Y-4.8593
N14565 X2.844 Y-4.817
N14570 X2.8548 Y-4.7739
N14575 X2.8631 Y-4.73
N14580 X2.8689 Y-4.6857
N14585 X2.8723 Y-4.641
N14590 X2.8732 Y-4.5962
N14595 X2.8715 Y-4.5514
N14600 X2.8673 Y-4.5067
N14605 X2.8606 Y-4.4624
N14610 X2.8514 Y-4.4185
N14615 X2.8397 Y-4.3752
N14620 X2.832 Y-4.3517
N14625 X2.8255 Y-4.3358
N14630 X2.8169 Y-4.321
N14635 X2.8063 Y-4.3075
N14640 X2.794 Y-4.2955
N14645 X2.7802 Y-4.2854
N14650 X2.6538 Y-4.2052
N14655 G3 X2.6025 Y-4.2186 Z-0.1795 I-0.019 J-0.0324
N14660 X2.5983 Y-4.2291 I0.0323 J-0.019
N14665 G1 X2.3629 Y-5.2365
N14670 G3 X2.362 Y-5.2473 I0.0365 J-0.0085
N14675 X2.4016 Y-5.2825 Z-0.1875 I0.0374 J0.0022
N14680 G1 X2.5365 Y-5.2698
N14685 X2.5554 Y-5.2671
N14690 X2.5669 Y-5.2647
N14695 X2.5798 Y-5.2614
N14700 X2.5933 Y-5.257
N14705 X2.6089 Y-5.251
N14710 X2.6246 Y-5.2438
N14715 X2.6426 Y-5.2344
N14720 X2.661 Y-5.2235
N14725 X2.6809 Y-5.21
N14730 X2.7024 Y-5.1936
N14735 X2.7235 Y-5.1756
N14740 X2.7461 Y-5.154
N14745 X2.7696 Y-5.1288
N14750 X2.7923 Y-5.1015
N14755 X2.8146 Y-5.0715
N14760 X2.8366 Y-5.0381
N14765 X2.8578 Y-5.0016
N14770 X2.8776 Y-4.9625
N14775 X2.8957 Y-4.9213
N14780 X2.9114 Y-4.8792
N14785 X2.9248 Y-4.8362
N14790 X2.9359 Y-4.7927
N14795 X2.9447 Y-4.7486
N14800 X2.9511 Y-4.7041
N14805 X2.9551 Y-4.6593
N14810 X2.9568 Y-4.6143
N14815 X2.9563 Y-4.5694
N14820 X2.9534 Y-4.5245
N14825 X2.9482 Y-4.4798
N14830 X2.9413 Y-4.4388
N14835 X2.9384 Y-4.426
N14840 X2.9336 Y-4.4099
N14845 X2.9266 Y-4.3946
N14850 X2.9177 Y-4.3803
N14855 X2.9069 Y-4.3674
N14860 X2.8945 Y-4.356
N14865 X2.8807 Y-4.3464
N14870 X2.8239 Y-4.3124
N14875 X2.7951 Y-4.2947
N14880 X2.7874 Y-4.2899
N14885 X2.7802 Y-4.2854
N14890 G3 X2.7289 Y-4.2987 Z-0.1795 I-0.019 J-0.0324
N14895 X2.7248 Y-4.3087 I0.0323 J-0.019
N14900 G1 X2.4979 Y-5.2233
N14905 G3 X2.4969 Y-5.2346 I0.0364 J-0.009
N14910 X2.5365 Y-5.2698 Z-0.1875 I0.0374 J0.0022
N14915 G1 X2.6265 Y-5.2614
N14920 X2.6377 Y-5.2603
N14925 X2.649 Y-5.2596
N14930 X2.664 Y-5.2579
N14935 X2.6739 Y-5.2562
N14940 X2.6842 Y-5.2538
N14945 X2.6963 Y-5.2503
N14950 X2.7084 Y-5.246
N14955 X2.7227 Y-5.24
N14960 X2.7369 Y-5.2331
N14965 X2.7533 Y-5.224
N14970 X2.7695 Y-5.2137
N14975 X2.7877 Y-5.2007
N14980 X2.8063 Y-5.1858
N14985 X2.8256 Y-5.1683
N14990 X2.8465 Y-5.1472
N14995 X2.8669 Y-5.1242
N15000 X2.8877 Y-5.0977
N15005 X2.9091 Y-5.0673
N15010 X2.9302 Y-5.0333
N15015 X2.9501 Y-4.9967
N15020 X2.9687 Y-4.9575
N15025 X2.9856 Y-4.9159
N15030 X3.0002 Y-4.8733
N15035 X3.0126 Y-4.8301
N15040 X3.0227 Y-4.7863
N15045 X3.0305 Y-4.742
N15050 X3.0362 Y-4.6974
N15055 X3.0398 Y-4.6526
N15060 X3.0411 Y-4.6076
N15065 X3.0404 Y-4.5627
N15070 X3.0378 Y-4.5228
N15075 X3.0345 Y-4.4952
N15080 X3.0331 Y-4.4877
N15085 X3.0288 Y-4.4705
N15090 X3.022 Y-4.454
N15095 X3.013 Y-4.4387
N15100 X3.0019 Y-4.4248
N15105 X2.9889 Y-4.4127
N15110 X2.9743 Y-4.4025
N15115 X2.8807 Y-4.3464
N15120 G3 X2.8298 Y-4.3611 Z-0.1795 I-0.0181 J-0.0328
N15125 G1 X2.8277 Y-4.3654
N15130 X2.8262 Y-4.37
N15135 X2.6115 Y-5.2129
N15140 G3 X2.6104 Y-5.2233 I0.0363 J-0.0093
N15145 X2.649 Y-5.2596 Z-0.1875 I0.0375 J0.0011
N15150 G1 X2.7502 Y-5.2532
N15155 X2.7655 Y-5.2514
N15160 X2.7749 Y-5.2498
N15165 X2.7845 Y-5.2476
N15170 X2.7957 Y-5.2443
N15175 X2.8073 Y-5.2403
N15180 X2.8203 Y-5.2348
N15185 X2.8337 Y-5.2284
N15190 X2.8487 Y-5.22
N15195 X2.8637 Y-5.2105
N15200 X2.8808 Y-5.1983
N15205 X2.8976 Y-5.1848
N15210 X2.9161 Y-5.1681
N15215 X2.9351 Y-5.149
N15220 X2.9542 Y-5.1274
N15225 X2.9745 Y-5.1019
N15230 X2.9947 Y-5.073
N15235 X3.0139 Y-5.0421
N15240 X3.0331 Y-5.0071
N15245 X3.0515 Y-4.9683
N15250 X3.0685 Y-4.9266
N15255 X3.0831 Y-4.8841
N15260 X3.0955 Y-4.8409
N15265 X3.1058 Y-4.7971
N15270 X3.1139 Y-4.7529
N15275 X3.1199 Y-4.7083
N15280 X3.1239 Y-4.6636
N15285 X3.1258 Y-4.6186
N15290 X3.1255 Y-4.584
N15295 X3.1238 Y-4.5587
N15300 X3.1223 Y-4.5471
N15305 X3.1186 Y-4.5286
N15310 X3.1121 Y-4.5109
N15315 X3.103 Y-4.4943
N15320 X3.0915 Y-4.4793
N15325 X3.0779 Y-4.4662
N15330 X3.0625 Y-4.4553
N15335 X2.9743 Y-4.4025
N15340 G3 X2.9234 Y-4.4172 Z-0.1795 I-0.0181 J-0.0328
N15345 G1 X2.9214 Y-4.4213
N15350 X2.9199 Y-4.4257
N15355 X2.7128 Y-5.2061
N15360 G3 X2.7116 Y-5.2168 I0.0362 J-0.0096
N15365 X2.7502 Y-5.2532 Z-0.1875 I0.0375 J0.0011
N15370 G1 X2.8514 Y-5.2467
N15375 X2.8624 Y-5.2455
N15380 X2.8712 Y-5.244
N15385 X2.8807 Y-5.2418
N15390 X2.8913 Y-5.2387
N15395 X2.9023 Y-5.2348
N15400 X2.9147 Y-5.2297
N15405 X2.9275 Y-5.2235
N15410 X2.9417 Y-5.2156
N15415 X2.9563 Y-5.2063
N15420 X2.9721 Y-5.1951
N15425 X2.9888 Y-5.1816
N15430 X3.0056 Y-5.1665
N15435 X3.0241 Y-5.1479
N15440 X3.0421 Y-5.1276
N15445 X3.0609 Y-5.1038
N15450 X3.0805 Y-5.0759
N15455 X3.0993 Y-5.0456
N15460 X3.1177 Y-5.0119
N15465 X3.1357 Y-4.974
N15470 X3.1527 Y-4.9324
N15475 X3.1673 Y-4.8899
N15480 X3.1797 Y-4.8466
N15485 X3.19 Y-4.8029
N15490 X3.1982 Y-4.7586
N15495 X3.2043 Y-4.7141
N15500 X3.208 Y-4.6722
N15505 X3.2089 Y-4.6405
N15510 X3.2083 Y-4.6167
N15515 X3.2072 Y-4.6028
N15520 X3.2047 Y-4.5861
N15525 X3.1999 Y-4.5698
N15530 X3.193 Y-4.5544
N15535 X3.184 Y-4.54
N15540 X3.1732 Y-4.5269
N15545 X3.1607 Y-4.5155
N15550 X3.1468 Y-4.5058
N15555 X3.0625 Y-4.4553
N15560 G3 X3.0116 Y-4.47 Z-0.1795 I-0.0181 J-0.0328
N15565 G1 X3.0096 Y-4.4741
N15570 X3.0082 Y-4.4784
N15575 X2.8141 Y-5.1995
N15580 G3 X2.8128 Y-5.2104 I0.0362 J-0.0097
N15585 X2.8514 Y-5.2467 Z-0.1875 I0.0375 J0.0011
N15590 G1 X2.9475 Y-5.2407
N15595 X2.9566 Y-5.2396
N15600 X2.9648 Y-5.2382
N15605 X2.9742 Y-5.236
N15610 X2.9842 Y-5.2331
N15615 X2.9952 Y-5.2293
N15620 X3.0068 Y-5.2244
N15625 X3.0196 Y-5.2183
N15630 X3.0327 Y-5.2109
N15635 X3.0474 Y-5.2017
N15640 X3.062 Y-5.1912
N15645 X3.0785 Y-5.178
N15650 X3.0945 Y-5.1636
N15655 X3.1119 Y-5.146
N15660 X3.1299 Y-5.1257
N15665 X3.1476 Y-5.1033
N15670 X3.1665 Y-5.0765
N15675 X3.1852 Y-5.0463
N15680 X3.203 Y-5.0137
N15685 X3.2206 Y-4.9766
N15690 X3.2375 Y-4.9352
N15695 X3.2521 Y-4.8927
N15700 X3.2645 Y-4.8495
N15705 X3.2747 Y-4.8057
N15710 X3.2827 Y-4.7614
N15715 X3.2873 Y-4.7248
N15720 X3.2892 Y-4.6953
N15725 X3.2895 Y-4.6714
N15730 X3.2886 Y-4.6517
N15735 X3.2884 Y-4.6491
N15740 X3.2849 Y-4.6301
N15745 X3.2786 Y-4.6118
N15750 X3.2695 Y-4.5947
N15755 X3.2579 Y-4.5793
N15760 X3.244 Y-4.5658
N15765 X3.2282 Y-4.5546
N15770 X3.1468 Y-4.5058
N15775 G3 X3.0959 Y-4.5205 Z-0.1795 I-0.0181 J-0.0328
N15780 G1 X3.094 Y-4.5245
N15785 X3.0925 Y-4.5287
N15790 X2.9103 Y-5.1932
N15795 G3 X2.9089 Y-5.2043 I0.0362 J-0.0099
N15800 X2.9475 Y-5.2407 Z-0.1875 I0.0375 J0.0011
N15805 G1 X3.0374 Y-5.2349
N15810 X3.0486 Y-5.2337
N15815 X3.0566 Y-5.2323
N15820 X3.066 Y-5.2302
N15825 X3.0755 Y-5.2274
N15830 X3.0864 Y-5.2235
N15835 X3.0975 Y-5.2189
N15840 X3.1102 Y-5.2128
N15845 X3.1227 Y-5.2058
N15850 X3.1371 Y-5.1967
N15855 X3.1512 Y-5.1866
N15860 X3.1671 Y-5.1739
N15865 X3.183 Y-5.1596
N15870 X3.1996 Y-5.1428
N15875 X3.2175 Y-5.1227
N15880 X3.2345 Y-5.1011
N15885 X3.2527 Y-5.0752
N15890 X3.2712 Y-5.0454
N15895 X3.2887 Y-5.0134
N15900 X3.3059 Y-4.9771
N15905 X3.3224 Y-4.9368
N15910 X3.337 Y-4.8943
N15915 X3.3491 Y-4.8513
N15920 X3.3581 Y-4.8112
N15925 X3.3638 Y-4.7765
N15930 X3.3667 Y-4.7494
N15935 X3.3678 Y-4.7273
N15940 X3.3677 Y-4.7064
N15945 X3.3672 Y-4.699
N15950 X3.3649 Y-4.6814
N15955 X3.36 Y-4.6644
N15960 X3.3528 Y-4.6482
N15965 X3.3434 Y-4.6331
N15970 X3.332 Y-4.6196
N15975 X3.3187 Y-4.6078
N15980 X3.304 Y-4.598
N15985 X3.2674 Y-4.5773
N15990 X3.2336 Y-4.5578
N15995 X3.2282 Y-4.5546
N16000 G3 X3.1773 Y-4.5692 Z-0.1795 I-0.0181 J-0.0328
N16005 G1 X3.1754 Y-4.5731
N16010 X3.174 Y-4.5771
N16015 X3.0003 Y-5.1872
N16020 G3 X2.9989 Y-5.1986 I0.0361 J-0.0103
N16025 X3.0374 Y-5.2349 Z-0.1875 I0.0375 J0.0011
N16030 G1 X3.11 Y-5.2303
N16035 X3.1274 Y-5.2294
N16040 X3.1371 Y-5.2284
N16045 X3.1449 Y-5.2272
N16050 X3.1539 Y-5.2252
N16055 X3.1631 Y-5.2226
N16060 X3.1738 Y-5.219
N16065 X3.1845 Y-5.2147
N16070 X3.1968 Y-5.2089
N16075 X3.209 Y-5.2023
N16080 X3.2229 Y-5.1937
N16085 X3.2366 Y-5.1841
N16090 X3.2521 Y-5.172
N16095 X3.2674 Y-5.1585
N16100 X3.2837 Y-5.1424
N16105 X3.301 Y-5.1233
N16110 X3.3177 Y-5.1027
N16115 X3.3356 Y-5.0779
N16120 X3.3536 Y-5.0496
N16125 X3.3705 Y-5.0194
N16130 X3.3873 Y-4.9852
N16135 X3.4027 Y-4.9484
N16140 X3.4161 Y-4.9108
N16145 X3.4268 Y-4.8744
N16150 X3.4346 Y-4.8409
N16155 X3.4395 Y-4.8131
N16160 X3.4424 Y-4.7886
N16165 X3.4436 Y-4.7675
N16170 X3.4437 Y-4.7496
N16175 X3.4434 Y-4.7433
N16180 X3.4412 Y-4.7255
N16185 X3.4364 Y-4.7082
N16190 X3.4293 Y-4.6918
N16195 X3.4199 Y-4.6766
N16200 X3.4083 Y-4.6628
N16205 X3.395 Y-4.6509
N16210 X3.3801 Y-4.641
N16215 X3.304 Y-4.598
N16220 G3 X3.2534 Y-4.6139 Z-0.1795 I-0.0173 J-0.0333
N16225 G1 X3.2518 Y-4.6174
N16230 X3.2506 Y-4.621
N16235 X3.0907 Y-5.1816
N16240 G3 X3.0893 Y-5.1926 I0.0361 J-0.0103
N16245 X3.1274 Y-5.2294 Z-0.1875 I0.0375 J0.0007
N16250 G1 X3.1437 Y-5.2286
N16255 X3.1549 Y-5.2281
N16260 X3.2112 Y-5.2263
N16265 X3.2214 Y-5.2254
N16270 X3.2289 Y-5.2244
N16275 X3.2378 Y-5.2226
N16280 X3.2467 Y-5.2203
N16285 X3.2571 Y-5.217
N16290 X3.2676 Y-5.213
N16295 X3.2796 Y-5.2076
N16300 X3.2915 Y-5.2014
N16305 X3.3051 Y-5.1934
N16310 X3.3186 Y-5.1844
N16315 X3.3335 Y-5.1731
N16320 X3.3487 Y-5.1603
N16325 X3.3645 Y-5.1453
N16330 X3.3814 Y-5.1273
N16335 X3.3977 Y-5.108
N16340 X3.4148 Y-5.0851
N16345 X3.4323 Y-5.0588
N16350 X3.4486 Y-5.0309
N16355 X3.4641 Y-5.0008
N16360 X3.4783 Y-4.9687
N16365 X3.4905 Y-4.9364
N16370 X3.5003 Y-4.9053
N16375 X3.5077 Y-4.8763
N16380 X3.5125 Y-4.8515
N16385 X3.5155 Y-4.8297
N16390 X3.5171 Y-4.8098
N16395 X3.5175 Y-4.7928
N16400 X3.5172 Y-4.7859
N16405 X3.5153 Y-4.7681
N16410 X3.5109 Y-4.7508
N16415 X3.5039 Y-4.7343
N16420 X3.4947 Y-4.719
N16425 X3.4833 Y-4.7053
N16430 X3.47 Y-4.6933
N16435 X3.4551 Y-4.6834
N16440 X3.3801 Y-4.641
N16445 G3 X3.3295 Y-4.6569 Z-0.1795 I-0.0173 J-0.0333
N16450 G1 X3.328 Y-4.6602
N16455 X3.3268 Y-4.6637
N16460 X3.1753 Y-5.1782
N16465 G3 X3.1737 Y-5.1887 I0.036 J-0.0106
N16470 X3.2112 Y-5.2263 Z-0.1875 I0.0375 J0.
N16475 G1 X3.3011 Y-5.2233
N16480 X3.3073 Y-5.2228
N16485 X3.3153 Y-5.2217
N16490 X3.3237 Y-5.22
N16495 X3.3331 Y-5.2176
N16500 X3.3431 Y-5.2144
N16505 X3.354 Y-5.2102
N16510 X3.3654 Y-5.2051
N16515 X3.378 Y-5.1986
N16520 X3.3907 Y-5.1911
N16525 X3.4049 Y-5.1816
N16530 X3.4189 Y-5.171
N16535 X3.4343 Y-5.158
N16540 X3.4498 Y-5.1433
N16545 X3.4655 Y-5.1266
N16550 X3.482 Y-5.107
N16555 X3.4982 Y-5.0853
N16560 X3.5137 Y-5.062
N16565 X3.5288 Y-5.0363
N16570 X3.5428 Y-5.0089
N16575 X3.5552 Y-4.9811
N16580 X3.5656 Y-4.9534
N16585 X3.5741 Y-4.9264
N16590 X3.5801 Y-4.9028
N16595 X3.5845 Y-4.8804
N16600 X3.587 Y-4.862
N16605 X3.5884 Y-4.8438
N16610 X3.5888 Y-4.8278
N16615 X3.5869 Y-4.8096
N16620 X3.5823 Y-4.7919
N16625 X3.5752 Y-4.7751
N16630 X3.5658 Y-4.7595
N16635 X3.5541 Y-4.7454
N16640 X3.5406 Y-4.7332
N16645 X3.5254 Y-4.7231
N16650 X3.4551 Y-4.6834
N16655 G3 X3.4046 Y-4.6994 Z-0.1795 I-0.0173 J-0.0333
N16660 G1 X3.403 Y-4.7027
N16665 X3.4018 Y-4.7062
N16670 X3.2652 Y-5.1753
N16675 G3 X3.2637 Y-5.1857 I0.036 J-0.0105
N16680 X3.3011 Y-5.2233 Z-0.1875 I0.0375 J0.
N16685 G1 X3.386 Y-5.2205
N16690 X3.3936 Y-5.2198
N16695 X3.4015 Y-5.2187
N16700 X3.4099 Y-5.2171
N16705 X3.4192 Y-5.2147
N16710 X3.429 Y-5.2116
N16715 X3.4399 Y-5.2074
N16720 X3.451 Y-5.2024
N16725 X3.4635 Y-5.196
N16730 X3.4759 Y-5.1886
N16735 X3.4896 Y-5.1795
N16740 X3.5034 Y-5.169
N16745 X3.5178 Y-5.1569
N16750 X3.5331 Y-5.1424
N16755 X3.5478 Y-5.1267
N16760 X3.5628 Y-5.1088
N16765 X3.5779 Y-5.0887
N16770 X3.5925 Y-5.0668
N16775 X3.6059 Y-5.0438
N16780 X3.6182 Y-5.02
N16785 X3.6288 Y-4.996
N16790 X3.6378 Y-4.9722
N16795 X3.6451 Y-4.9491
N16800 X3.6501 Y-4.9293
N16805 X3.6536 Y-4.9112
N16810 X3.656 Y-4.8939
N16815 X3.6572 Y-4.8783
N16820 X3.6573 Y-4.8729
N16825 X3.6563 Y-4.8538
N16830 X3.6524 Y-4.8351
N16835 X3.6456 Y-4.8173
N16840 X3.6362 Y-4.8007
N16845 X3.6243 Y-4.7857
N16850 X3.6103 Y-4.7727
N16855 X3.5944 Y-4.7621
N16860 X3.5254 Y-4.7231
N16865 G3 X3.4748 Y-4.739 Z-0.1795 I-0.0173 J-0.0333
N16870 G1 X3.4732 Y-4.7425
N16875 X3.472 Y-4.746
N16880 X3.35 Y-5.1727
N16885 G3 X3.3486 Y-5.1829 I0.0361 J-0.0103
N16890 X3.386 Y-5.2205 Z-0.1875 I0.0375 J0.
N16895 G1 X3.4698 Y-5.2177
N16900 X3.479 Y-5.2169
N16905 X3.4868 Y-5.2158
N16910 X3.4949 Y-5.2142
N16915 X3.5042 Y-5.2118
N16920 X3.5136 Y-5.2088
N16925 X3.5243 Y-5.2048
N16930 X3.5351 Y-5.2
N16935 X3.547 Y-5.1938
N16940 X3.5592 Y-5.1866
N16945 X3.572 Y-5.178
N16950 X3.5857 Y-5.1677
N16955 X3.599 Y-5.1564
N16960 X3.613 Y-5.1431
N16965 X3.6273 Y-5.128
N16970 X3.6411 Y-5.1116
N16975 X3.6544 Y-5.0938
N16980 X3.6672 Y-5.0745
N16985 X3.6791 Y-5.0543
N16990 X3.6897 Y-5.0336
N16995 X3.699 Y-5.0126
N17000 X3.7065 Y-4.9926
N17005 X3.7125 Y-4.9738
N17010 X3.7168 Y-4.9568
N17015 X3.72 Y-4.9403
N17020 X3.7221 Y-4.925
N17025 X3.7232 Y-4.9104
N17030 X3.7233 Y-4.9094
N17035 X3.7222 Y-4.8905
N17040 X3.7183 Y-4.872
N17045 X3.7116 Y-4.8543
N17050 X3.7023 Y-4.8379
N17055 X3.6905 Y-4.8231
N17060 X3.6766 Y-4.8102
N17065 X3.6609 Y-4.7997
N17070 X3.5944 Y-4.7621
N17075 G3 X3.5439 Y-4.778 Z-0.1795 I-0.0173 J-0.0333
N17080 G1 X3.5422 Y-4.7816
N17085 X3.541 Y-4.7853
N17090 X3.4337 Y-5.1701
N17095 G3 X3.4323 Y-5.1802 I0.0361 J-0.0101
N17100 X3.4698 Y-5.2177 Z-0.1875 I0.0375 J0.
N17105 G1 X3.5547 Y-5.2149
N17110 X3.5625 Y-5.2143
N17115 X3.5702 Y-5.2132
N17120 X3.5781 Y-5.2116
N17125 X3.587 Y-5.2093
N17130 X3.5962 Y-5.2064
N17135 X3.6063 Y-5.2025
N17140 X3.617 Y-5.1977
N17145 X3.628 Y-5.1921
N17150 X3.6399 Y-5.185
N17155 X3.6518 Y-5.1771
N17160 X3.6643 Y-5.1676
N17165 X3.6772 Y-5.1567
N17170 X3.6898 Y-5.1447
N17175 X3.7025 Y-5.1313
N17180 X3.715 Y-5.1164
N17185 X3.727 Y-5.1004
N17190 X3.7382 Y-5.0836
N17195 X3.7484 Y-5.0661
N17200 X3.7576 Y-5.0481
N17205 X3.7657 Y-5.03
N17210 X3.7717 Y-5.0141
N17215 X3.7769 Y-4.9974
N17220 X3.7805 Y-4.9832
N17225 X3.7835 Y-4.9679
N17230 X3.7853 Y-4.9547
N17235 X3.7864 Y-4.9405
N17240 X3.7854 Y-4.9221
N17245 X3.7815 Y-4.9041
N17250 X3.7748 Y-4.8869
N17255 X3.7655 Y-4.871
N17260 X3.7538 Y-4.8568
N17265 X3.74 Y-4.8445
N17270 X3.7245 Y-4.8346
N17275 X3.7059 Y-4.8247
N17280 X3.6722 Y-4.806
N17285 X3.6609 Y-4.7997
N17290 G3 X3.6104 Y-4.8156 Z-0.1795 I-0.0173 J-0.0333
N17295 G1 X3.6086 Y-4.8195
N17300 X3.6073 Y-4.8236
N17305 X3.5184 Y-5.168
N17310 X3.5175 Y-5.1727
N17315 X3.5172 Y-5.1774
N17320 G3 X3.5547 Y-5.2149 Z-0.1875 I0.0375 J0.
N17325 G1 X3.6159 Y-5.2129
N17330 X3.6272 Y-5.2126
N17335 X3.6334 Y-5.2125
N17340 X3.6409 Y-5.2121
N17345 X3.648 Y-5.2112
N17350 X3.6554 Y-5.21
N17355 X3.6636 Y-5.208
N17360 X3.6723 Y-5.2055
N17365 X3.6815 Y-5.2022
N17370 X3.6915 Y-5.198
N17375 X3.7016 Y-5.193
N17380 X3.7125 Y-5.1869
N17385 X3.7236 Y-5.1798
N17390 X3.7348 Y-5.1718
N17395 X3.7464 Y-5.1623
N17400 X3.7582 Y-5.1517
N17405 X3.7696 Y-5.1401
N17410 X3.7806 Y-5.1276
N17415 X3.7912 Y-5.114
N17420 X3.8012 Y-5.0996
N17425 X3.8105 Y-5.0846
N17430 X3.8189 Y-5.0691
N17435 X3.8262 Y-5.0534
N17440 X3.8319 Y-5.0394
N17445 X3.8369 Y-5.0246
N17450 X3.8405 Y-5.0117
N17455 X3.8435 Y-4.9977
N17460 X3.8455 Y-4.9855
N17465 X3.8468 Y-4.9726
N17470 X3.8462 Y-4.9545
N17475 X3.8426 Y-4.9367
N17480 X3.8363 Y-4.9197
N17485 X3.8273 Y-4.9039
N17490 X3.8159 Y-4.8898
N17495 X3.8024 Y-4.8777
N17500 X3.7871 Y-4.868
N17505 X3.7245 Y-4.8346
N17510 G3 X3.6743 Y-4.8518 Z-0.1795 I-0.0164 J-0.0337
N17515 G1 X3.6727 Y-4.8556
N17520 X3.6716 Y-4.8596
N17525 X3.5978 Y-5.1663
N17530 X3.5971 Y-5.1702
N17535 X3.5968 Y-5.1742
N17540 G3 X3.6334 Y-5.2125 Z-0.1875 I0.0375 J-0.0009
N17545 G1 X3.6497 Y-5.2124
N17550 X3.6609 Y-5.2123
N17555 X3.7059 Y-5.2122
N17560 X3.7162 Y-5.2116
N17565 X3.7226 Y-5.2109
N17570 X3.73 Y-5.2097
N17575 X3.7376 Y-5.208
N17580 X3.7458 Y-5.2056
N17585 X3.7547 Y-5.2025
N17590 X3.7637 Y-5.1988
N17595 X3.7734 Y-5.1942
N17600 X3.7834 Y-5.1887
N17605 X3.7934 Y-5.1824
N17610 X3.8039 Y-5.175
N17615 X3.8146 Y-5.1665
N17620 X3.825 Y-5.1572
N17625 X3.8351 Y-5.1471
N17630 X3.8451 Y-5.1359
N17635 X3.8545 Y-5.124
N17640 X3.8635 Y-5.1114
N17645 X3.8718 Y-5.0982
N17650 X3.8794 Y-5.0845
N17655 X3.8853 Y-5.0722
N17660 X3.8908 Y-5.0588
N17665 X3.895 Y-5.0469
N17670 X3.8985 Y-5.0344
N17675 X3.9013 Y-5.0223
N17680 X3.9031 Y-5.0111
N17685 X3.9037 Y-4.9942
N17690 X3.9018 Y-4.9773
N17695 X3.8974 Y-4.9609
N17700 X3.8906 Y-4.9453
N17705 X3.8816 Y-4.9309
N17710 X3.8705 Y-4.918
N17715 X3.8577 Y-4.9069
N17720 X3.8433 Y-4.8978
N17725 X3.7871 Y-4.868
N17730 G3 X3.737 Y-4.8852 Z-0.1795 I-0.0164 J-0.0337
N17735 G1 X3.7354 Y-4.8891
N17740 X3.7342 Y-4.8932
N17745 X3.6706 Y-5.1662
N17750 X3.6699 Y-5.1698
N17755 X3.6696 Y-5.1735
N17760 G3 X3.7059 Y-5.2122 Z-0.1875 I0.0375 J-0.0012
N17765 G1 X3.7795 Y-5.212
N17770 X3.7887 Y-5.2115
N17775 X3.7952 Y-5.2108
N17780 X3.8018 Y-5.2097
N17785 X3.8092 Y-5.208
N17790 X3.8169 Y-5.2058
N17795 X3.8249 Y-5.203
N17800 X3.8337 Y-5.1994
N17805 X3.8424 Y-5.1952
N17810 X3.8515 Y-5.1902
N17815 X3.8611 Y-5.1842
N17820 X3.8706 Y-5.1775
N17825 X3.8799 Y-5.1701
N17830 X3.8892 Y-5.1617
N17835 X3.8984 Y-5.1526
N17840 X3.9072 Y-5.1427
N17845 X3.9157 Y-5.1321
N17850 X3.9236 Y-5.1209
N17855 X3.9301 Y-5.1105
N17860 X3.9364 Y-5.0991
N17865 X3.9416 Y-5.0885
N17870 X3.946 Y-5.0776
N17875 X3.9499 Y-5.0664
N17880 X3.9529 Y-5.0561
N17885 X3.9555 Y-5.0447
N17890 X3.9572 Y-5.0345
N17895 X3.9577 Y-5.0186
N17900 X3.9559 Y-5.0029
N17905 X3.9518 Y-4.9876
N17910 X3.9455 Y-4.973
N17915 X3.937 Y-4.9596
N17920 X3.9267 Y-4.9475
N17925 X3.9147 Y-4.9372
N17930 X3.9013 Y-4.9287
N17935 X3.8433 Y-4.8978
N17940 G3 X3.7932 Y-4.9151 Z-0.1795 I-0.0164 J-0.0337
N17945 X3.79 Y-4.9246 I0.0337 J-0.0165
N17950 G1 X3.7439 Y-5.1675
N17955 X3.7435 Y-5.1704
N17960 X3.7433 Y-5.1733
N17965 G3 X3.7795 Y-5.212 Z-0.1875 I0.0375 J-0.0012
N17970 G1 X3.8521 Y-5.2118
N17975 X3.8581 Y-5.2115
N17980 X3.864 Y-5.2108
N17985 X3.8705 Y-5.2096
N17990 X3.8772 Y-5.2081
N17995 X3.8845 Y-5.206
N18000 X3.8922 Y-5.2033
N18005 X3.9 Y-5.2
N18010 X3.9081 Y-5.1961
N18015 X3.9165 Y-5.1914
N18020 X3.9249 Y-5.1861
N18025 X3.9332 Y-5.1801
N18030 X3.9415 Y-5.1734
N18035 X3.9498 Y-5.166
N18040 X3.9578 Y-5.1579
N18045 X3.9655 Y-5.1491
N18050 X3.9729 Y-5.1398
N18055 X3.9793 Y-5.1306
N18060 X3.9852 Y-5.1211
N18065 X3.9905 Y-5.1114
N18070 X3.9949 Y-5.1022
N18075 X3.999 Y-5.0919
N18080 X4.0022 Y-5.0826
N18085 X4.005 Y-5.0725
N18090 X4.0056 Y-5.0698
N18095 X4.0079 Y-5.0532
N18100 X4.0075 Y-5.0365
N18105 X4.0043 Y-5.02
N18110 X3.9985 Y-5.0043
N18115 X3.9903 Y-4.9897
N18120 X3.9798 Y-4.9766
N18125 X3.9674 Y-4.9654
N18130 X3.9533 Y-4.9563
N18135 X3.9013 Y-4.9287
N18140 G3 X3.8512 Y-4.9459 Z-0.1795 I-0.0164 J-0.0337
N18145 X3.8478 Y-4.9569 I0.0337 J-0.0165
N18150 G1 X3.8162 Y-5.1688
N18155 X3.8158 Y-5.1731
N18160 G3 X3.8521 Y-5.2118 Z-0.1875 I0.0375 J-0.0012
N18165 G1 X3.9145 Y-5.2116
N18170 X3.9224 Y-5.2112
N18175 X3.9283 Y-5.2105
N18180 X3.9342 Y-5.2095
N18185 X3.9406 Y-5.208
N18190 X3.9471 Y-5.2061
N18195 X3.9539 Y-5.2037
N18200 X3.9611 Y-5.2007
N18205 X3.9684 Y-5.1972
N18210 X3.9757 Y-5.1931
N18215 X3.9832 Y-5.1883
N18220 X3.9907 Y-5.1829
N18225 X3.9982 Y-5.1769
N18230 X4.0054 Y-5.1703
N18235 X4.0123 Y-5.1633
N18240 X4.0185 Y-5.1564
N18245 X4.0248 Y-5.1483
N18250 X4.0302 Y-5.1406
N18255 X4.0351 Y-5.1327
N18260 X4.0398 Y-5.124
N18265 X4.0436 Y-5.116
N18270 X4.0471 Y-5.1073
N18275 X4.0502 Y-5.0983
N18280 X4.0525 Y-5.09
N18285 X4.0546 Y-5.0743
N18290 X4.0542 Y-5.0585
N18295 X4.0512 Y-5.0429
N18300 X4.0458 Y-5.0281
N18305 X4.038 Y-5.0143
N18310 X4.0281 Y-5.0019
N18315 X4.0163 Y-4.9913
N18320 X4.003 Y-4.9828
N18325 X3.9533 Y-4.9563
N18330 G3 X3.9031 Y-4.9736 Z-0.1795 I-0.0164 J-0.0337
