%
O01001
(Using G0 which travels along dogleg path.)
(T1 D=2. CR=0. - ZMIN=-0.0157 - face mill)
(T2 D=0.25 CR=0. TAPER=140deg - ZMIN=-1.08 - drill)
(T3 D=0.315 CR=0. TAPER=140deg - ZMIN=-1.08 - drill)
(T4 D=0.1969 CR=0. TAPER=118deg - ZMIN=-1.08 - drill)
(T5 D=0.5 CR=0. TAPER=118deg - ZMIN=-1.2302 - drill)
(T6 D=0.375 CR=0. - ZMIN=-1.08 - flat end mill)
(T7 D=0.25 CR=0. - ZMIN=-1.08 - flat end mill)
(T8 D=0.1875 CR=0. - ZMIN=-0.8031 - flat end mill)
(T9 D=0.136 CR=0. TAPER=118deg - ZMIN=-0.1157 - drill)
N10 G90 G94 G17
N15 G20
N20 G53 G0 Z0.

(Face1)
N25 T1 M6
N30 S3132 M3
N35 G17 G90 G94
N40 G54
N45 M8
N50 G0 X14.3 Y-6.181
N55 G43 Z0.6 H1
N60 T9
N65 G0 Z0.2
N70 G1 Z0.1843 F25.
N75 G18 G3 X14.1 Z-0.0157 I-0.2 K0. F56.379
N80 G1 X14.0004
N85 X-1.0004
N90 G17 G2 Y-4.877 I0. J0.652
N95 G1 X14.0004
N100 G3 Y-3.573 I0. J0.652
N105 G1 X-1.0004
N110 G2 Y-2.269 I0. J0.652
N115 G1 X14.0004
N120 G3 Y-0.965 I0. J0.652
N125 G1 X-1.0004
N130 G18 G3 X-1.2004 Z0.1843 I0. K0.2
N135 G0 Z0.6
N140 M9
N145 M5
N150 G53 G0 Z0.

(Centerdrill)
N155 M1
N160 T9 M6
N165 S7022 M3
N170 G17 G90 G94
N175 G54
N180 M8
N185 G0 X5.0096 Y-1.3464
N190 G43 Z0.6 H9
N195 T2
N200 G0 Z0.2
N205 G98 G81 X5.0096 Y-1.3464 Z-0.1157 R0.1843 F14.043
N210 X9.5151 Y-1.3533
N215 X9.7625 Y-2.0357
N220 X11.4723 Y-3.7506
N225 X11.3575 Y-4.4673
N230 X8.7347 Y-4.6121
N235 X5.8743 Y-5.5796
N240 X0.9683 Y-4.892
N245 G80
N250 G0 Z0.6
N255 M9
N260 M5
N265 G53 G0 Z0.

(1/4" Drill)
N270 M1
N275 T2 M6
N280 S4507 M3
N285 G17 G90 G94
N290 G54
N295 M8
N300 G0 X5.6395 Y-0.7828
N305 G43 Z0.6 H2
N310 T3
N315 G0 Z0.2
N320 G98 G83 X5.6395 Y-0.7828 Z-1.08 R0.1843 Q0.2 F35.607
N325 X10.4659 Y-1.3191
N330 X10.5096 Y-4.0359
N335 G80
N340 G0 X9.1465 Y-5.0384 Z0.2
N345 G98 G83 X9.1465 Y-5.0384 Z-1.08 R0.1843 Q0.2 F35.607
N350 X6.4661 Y-5.6129
N355 G80
N360 G0 X0.9531 Y-5.7371 Z0.2
N365 G98 G83 X0.9531 Y-5.7371 Z-1.08 R0.1843 Q0.2 F35.607
N370 G80
N375 G0 Z0.6
N380 M9
N385 M5
N390 G53 G0 Z0.

(M8 Drill)
N395 M1
N400 T3 M6
N405 S3396 M3
N410 G17 G90 G94
N415 G54
N420 M8
N425 G0 X0.4183 Y-2.2504
N430 G43 Z0.6 H3
N435 T4
N440 G0 Z0.2
N445 G95
N450 G98 G83 X0.4183 Y-2.2504 Z-1.08 R0.1843 Q0.2 F0.0059
N455 X2.6501 Y-2.6553
N460 X9.859 Y-4.7247
N465 X12.6929 Y-1.3527
N470 G80
N475 G94
N480 G0 Z0.6
N485 M9
N490 M5
N495 G53 G0 Z0.

(M5 Drill)
N500 M1
N505 T4 M6
N510 S4851 M3
N515 G17 G90 G94
N520 G54
N525 M8
N530 G0 X7.6216 Y-5.678
N535 G43 Z0.6 H4
N540 T5
N545 G0 Z0.2
N550 G95
N555 G98 G83 X7.6216 Y-5.678 Z-1.08 R0.1843 Q0.1 F0.004
N560 X9.9505 Y-5.8708
N565 X11.3575 Y-4.4673
N570 X11.4723 Y-3.7506
N575 X9.7625 Y-2.0357
N580 X9.5151 Y-1.3533
N585 X5.0096 Y-1.3464
N590 X0.9683 Y-4.892
N595 G80
N600 G94
N605 G0 Z0.6
N610 M9
N615 M5
N620 G53 G0 Z0.

(1/2" Drill)
N625 M1
N630 T5 M6
N635 S1910 M3
N640 G17 G90 G94
N645 G54
N650 M8
N655 G0 X8.0589 Y-0.7537
N660 G43 Z0.6 H5
N665 T6
N670 G0 Z0.2
N675 G95
N680 G98 G83 X8.0589 Y-0.7537 Z-1.2302 R0.1843 Q0.125 F0.008
N685 X5.8743 Y-5.5796
N690 X8.7347 Y-4.6121
N695 X12.3397 Y-5.6983
N700 G80
N705 G94
N710 G0 Z0.6
N715 M9
N720 M5
N725 G53 G0 Z0.

(3/8" Bore)
N730 M1
N735 T6 M6
N740 S8000 M3
N745 G17 G90 G94
N750 G54
N755 M8
N760 G0 X8.0831 Y-0.7231
N765 G43 Z0.6 H6
N770 T7
N775 G0 Z0.0643
N780 G1 Z0.0218 F80.3
N785 X8.0828 Y-0.723 Z0.0172
N790 X8.0821 Y-0.7227 Z0.0128
N795 X8.0808 Y-0.7222 Z0.0085
N800 X8.0791 Y-0.7215 Z0.0043
N805 X8.0769 Y-0.7206 Z0.0004
N810 X8.0744 Y-0.7195 Z-0.0031
N815 X8.0714 Y-0.7183 Z-0.0063
N820 X8.0681 Y-0.7169 Z-0.0091
N825 X8.0645 Y-0.7155 Z-0.0115
N830 X8.0607 Y-0.7139 Z-0.0133
N835 X8.0567 Y-0.7122 Z-0.0147
N840 X8.0526 Y-0.7105 Z-0.0155
N845 X8.0484 Y-0.7088 Z-0.0157
N850 X8.0311 Y-0.7017
N855 G3 X7.9821 Y-0.7221 I-0.0143 J-0.0347
N860 X7.9852 Y-0.7155 Z-0.0624 I0.0768 J-0.0316
N865 X7.9888 Y-0.7092 Z-0.1091 I0.0738 J-0.0382
N870 X7.9929 Y-0.7033 Z-0.1558 I0.0702 J-0.0445
N875 X7.9976 Y-0.6977 Z-0.2025 I0.066 J-0.0504
N880 X8.0027 Y-0.6926 Z-0.2492 I0.0614 J-0.056
N885 X8.0082 Y-0.6879 Z-0.2959 I0.0563 J-0.0611
N890 X8.0142 Y-0.6837 Z-0.3426 I0.0507 J-0.0658
N895 X8.0204 Y-0.6801 Z-0.3893 I0.0448 J-0.07
N900 X8.027 Y-0.677 Z-0.436 I0.0385 J-0.0736
N905 X8.0338 Y-0.6745 Z-0.4826 I0.032 J-0.0767
N910 X8.0408 Y-0.6726 Z-0.5293 I0.0252 J-0.0792
N915 X8.0479 Y-0.6714 Z-0.576 I0.0182 J-0.0811
N920 X8.0552 Y-0.6707 Z-0.6227 I0.011 J-0.0824
N925 X8.0624 Z-0.6694 I0.0038 J-0.083
N930 X8.0696 Y-0.6713 Z-0.7161 I-0.0035 J-0.083
N935 X8.0768 Y-0.6726 Z-0.7628 I-0.0107 J-0.0824
N940 X8.0838 Y-0.6744 Z-0.8095 I-0.0178 J-0.0812
N945 X8.0906 Y-0.6769 Z-0.8562 I-0.0248 J-0.0793
N950 X8.0972 Y-0.6799 Z-0.9029 I-0.0316 J-0.0768
N955 X8.1034 Y-0.6835 Z-0.9495 I-0.0382 J-0.0738
N960 X8.1094 Y-0.6877 Z-0.9962 I-0.0445 J-0.0702
N965 X8.115 Y-0.6923 Z-1.0429 I-0.0504 J-0.066
N970 X8.1306 Y-0.7958 Z-1.08 I-0.056 J-0.0614
N975 X7.9873 Y-0.7116 I-0.0716 J0.0421
N980 X8.1306 Y-0.7958 I0.0716 J-0.0421
N985 X8.1173 Y-0.7445 I-0.0323 J0.019
N990 G1 X8.1011 Y-0.735
N995 X8.0972 Y-0.7327 Z-1.0797
N1000 X8.0934 Y-0.7304 Z-1.0789
N1005 X8.0896 Y-0.7282 Z-1.0776
N1010 X8.0861 Y-0.7262 Z-1.0757
N1015 X8.0827 Y-0.7242 Z-1.0734
N1020 X8.0796 Y-0.7224 Z-1.0706
N1025 X8.0769 Y-0.7208 Z-1.0674
N1030 X8.0745 Y-0.7193 Z-1.0638
N1035 X8.0725 Y-0.7182 Z-1.0599
N1040 X8.0709 Y-0.7172 Z-1.0558
N1045 X8.0697 Y-0.7165 Z-1.0515
N1050 X8.069 Y-0.7161 Z-1.047
N1055 X8.0688 Y-0.716 Z-1.0425
N1060 G0 Z0.2
N1065 X5.9118 Y-5.5903
N1070 Z0.0643
N1075 G1 Z0.0218 F80.3
N1080 G19 G3 Y-5.5528 Z-0.0157 J0.0375 K0.
N1085 G1 Y-5.534
N1090 G17 G3 X5.8743 Y-5.4965 I-0.0375 J0.
N1095 X5.8816 Y-5.4968 Z-0.0624 I0. J-0.0831
N1100 X5.8888 Y-5.4978 Z-0.1091 I-0.0072 J-0.0828
N1105 X5.8958 Y-5.4993 Z-0.1558 I-0.0144 J-0.0818
N1110 X5.9027 Y-5.5015 Z-0.2025 I-0.0215 J-0.0803
N1115 X5.9094 Y-5.5043 Z-0.2492 I-0.0284 J-0.0781
N1120 X5.9159 Y-5.5076 Z-0.2959 I-0.0351 J-0.0753
N1125 X5.922 Y-5.5115 Z-0.3426 I-0.0415 J-0.072
N1130 X5.9277 Y-5.516 Z-0.3893 I-0.0477 J-0.0681
N1135 X5.9331 Y-5.5208 Z-0.436 I-0.0534 J-0.0637
N1140 X5.938 Y-5.5262 Z-0.4826 I-0.0588 J-0.0588
N1145 X5.9424 Y-5.5319 Z-0.5293 I-0.0637 J-0.0534
N1150 X5.9463 Y-5.5381 Z-0.576 I-0.0681 J-0.0477
N1155 X5.9496 Y-5.5445 Z-0.6227 I-0.072 J-0.0415
N1160 X5.9524 Y-5.5512 Z-0.6694 I-0.0753 J-0.0351
N1165 X5.9546 Y-5.5581 Z-0.7161 I-0.0781 J-0.0284
N1170 X5.9562 Y-5.5652 Z-0.7628 I-0.0803 J-0.0215
N1175 X5.9571 Y-5.5724 Z-0.8095 I-0.0818 J-0.0144
N1180 X5.9574 Y-5.5796 Z-0.8562 I-0.0828 J-0.0072
N1185 X5.9571 Y-5.5868 Z-0.9029 I-0.0831 J0.
N1190 X5.9562 Y-5.594 Z-0.9495 I-0.0828 J0.0072
N1195 X5.9546 Y-5.6011 Z-0.9962 I-0.0818 J0.0144
N1200 X5.9524 Y-5.608 Z-1.0429 I-0.0803 J0.0215
N1205 X5.8627 Y-5.6619 Z-1.08 I-0.0781 J0.0284
N1210 X5.886 Y-5.4973 I0.0117 J0.0823
N1215 X5.8627 Y-5.6619 I-0.0117 J-0.0823
N1220 X5.9051 Y-5.63 I0.0053 J0.0371
N1225 G1 X5.9077 Y-5.6114
N1230 X5.9083 Y-5.607 Z-1.0797
N1235 X5.9089 Y-5.6026 Z-1.0789
N1240 X5.9096 Y-5.5983 Z-1.0776
N1245 X5.9101 Y-5.5942 Z-1.0757
N1250 X5.9107 Y-5.5903 Z-1.0734
N1255 X5.9112 Y-5.5868 Z-1.0706
N1260 X5.9116 Y-5.5836 Z-1.0674
N1265 X5.912 Y-5.5809 Z-1.0638
N1270 X5.9123 Y-5.5786 Z-1.0599
N1275 X5.9126 Y-5.5767 Z-1.0558
N1280 X5.9128 Y-5.5754 Z-1.0515
N1285 X5.9129 Y-5.5746 Z-1.047
N1290 Y-5.5743 Z-1.0425
N1295 G0 Z0.2
N1300 X8.7183 Y-4.5767
N1305 Z0.0643
N1310 G1 Z0.0218 F80.3
N1315 X8.7181 Y-4.5769 Z0.0172
N1320 X8.7175 Y-4.5774 Z0.0128
N1325 X8.7165 Y-4.5783 Z0.0085
N1330 X8.7151 Y-4.5795 Z0.0043
N1335 X8.7133 Y-4.5811 Z0.0004
N1340 X8.7112 Y-4.5829 Z-0.0031
N1345 X8.7087 Y-4.585 Z-0.0063
N1350 X8.706 Y-4.5873 Z-0.0091
N1355 X8.7031 Y-4.5898 Z-0.0115
N1360 X8.7 Y-4.5925 Z-0.0133
N1365 X8.6967 Y-4.5954 Z-0.0147
N1370 X8.6933 Y-4.5983 Z-0.0155
N1375 X8.6899 Y-4.6012 Z-0.0157
N1380 X8.6757 Y-4.6135
N1385 G3 X8.6718 Y-4.6664 I0.0245 J-0.0284
N1390 X8.6673 Y-4.6607 Z-0.0624 I0.0629 J0.0543
N1395 X8.6633 Y-4.6546 Z-0.1091 I0.0674 J0.0486
N1400 X8.6599 Y-4.6482 Z-0.1558 I0.0714 J0.0425
N1405 X8.657 Y-4.6416 Z-0.2025 I0.0748 J0.0361
N1410 X8.6548 Y-4.6347 Z-0.2492 I0.0777 J0.0295
N1415 X8.6531 Y-4.6276 Z-0.2959 I0.08 J0.0226
N1420 X8.6521 Y-4.6205 Z-0.3426 I0.0816 J0.0155
N1425 X8.6516 Y-4.6132 Z-0.3893 I0.0827 J0.0084
N1430 X8.6519 Y-4.606 Z-0.436 I0.0831 J0.0011
N1435 X8.6527 Y-4.5988 Z-0.4826 I0.0829 J-0.0061
N1440 X8.6542 Y-4.5917 Z-0.5293 I0.082 J-0.0133
N1445 X8.6563 Y-4.5847 Z-0.576 I0.0805 J-0.0204
N1450 X8.659 Y-4.578 Z-0.6227 I0.0785 J-0.0274
N1455 X8.6622 Y-4.5715 Z-0.6694 I0.0758 J-0.0341
N1460 X8.666 Y-4.5654 Z-0.7161 I0.0725 J-0.0406
N1465 X8.6704 Y-4.5595 Z-0.7628 I0.0687 J-0.0467
N1470 X8.6752 Y-4.5541 Z-0.8095 I0.0644 J-0.0525
N1475 X8.6805 Y-4.5492 Z-0.8562 I0.0596 J-0.0579
N1480 X8.6861 Y-4.5447 Z-0.9029 I0.0543 J-0.0629
N1485 X8.6922 Y-4.5407 Z-0.9495 I0.0486 J-0.0674
N1490 X8.6986 Y-4.5373 Z-0.9962 I0.0425 J-0.0714
N1495 X8.7052 Y-4.5344 Z-1.0429 I0.0361 J-0.0748
N1500 X8.8046 Y-4.5672 Z-1.08 I0.0295 J-0.0777
N1505 X8.6648 Y-4.657 I-0.0699 J-0.0449
N1510 X8.8046 Y-4.5672 I0.0699 J0.0449
N1515 X8.7528 Y-4.5559 I-0.0315 J-0.0203
N1520 G1 X8.737 Y-4.566
N1525 X8.7332 Y-4.5685 Z-1.0797
N1530 X8.7295 Y-4.5709 Z-1.0789
N1535 X8.7259 Y-4.5732 Z-1.0776
N1540 X8.7224 Y-4.5754 Z-1.0757
N1545 X8.7191 Y-4.5775 Z-1.0734
N1550 X8.7161 Y-4.5795 Z-1.0706
N1555 X8.7134 Y-4.5812 Z-1.0674
N1560 X8.7111 Y-4.5827 Z-1.0638
N1565 X8.7091 Y-4.584 Z-1.0599
N1570 X8.7075 Y-4.585 Z-1.0558
N1575 X8.7064 Y-4.5857 Z-1.0515
N1580 X8.7057 Y-4.5862 Z-1.047
N1585 X8.7055 Y-4.5863 Z-1.0425
N1590 G0 Z0.2
N1595 X12.3038 Y-5.7134
N1600 Z0.0643
N1605 G1 Z0.0218 F80.3
N1610 X12.3039 Y-5.7136 Z0.0172
N1615 X12.3044 Y-5.7142 Z0.0128
N1620 X12.3053 Y-5.7153 Z0.0085
N1625 X12.3064 Y-5.7167 Z0.0043
N1630 X12.3079 Y-5.7185 Z0.0004
N1635 X12.3096 Y-5.7207 Z-0.0031
N1640 X12.3116 Y-5.7232 Z-0.0063
N1645 X12.3139 Y-5.726 Z-0.0091
N1650 X12.3163 Y-5.729 Z-0.0115
N1655 X12.3189 Y-5.7323 Z-0.0133
N1660 X12.3216 Y-5.7357 Z-0.0147
N1665 X12.3243 Y-5.7391 Z-0.0155
N1670 X12.3272 Y-5.7427 Z-0.0157
N1675 X12.3389 Y-5.7573
N1680 G3 X12.3916 Y-5.7632 I0.0293 J0.0234
N1685 X12.3857 Y-5.7675 Z-0.0624 I-0.0518 J0.0649
N1690 X12.3795 Y-5.7713 Z-0.1091 I-0.046 J0.0692
N1695 X12.373 Y-5.7744 Z-0.1558 I-0.0398 J0.073
N1700 X12.3662 Y-5.7771 Z-0.2025 I-0.0332 J0.0761
N1705 X12.3592 Y-5.7791 Z-0.2492 I-0.0265 J0.0788
N1710 X12.3521 Y-5.7805 Z-0.2959 I-0.0195 J0.0808
N1715 X12.3449 Y-5.7812 Z-0.3426 I-0.0124 J0.0822
N1720 X12.3377 Y-5.7814 Z-0.3893 I-0.0052 J0.0829
N1725 X12.3304 Y-5.7809 Z-0.436 I0.002 J0.0831
N1730 X12.3233 Y-5.7797 Z-0.4826 I0.0093 J0.0826
N1735 X12.3162 Y-5.778 Z-0.5293 I0.0164 J0.0814
N1740 X12.3094 Y-5.7757 Z-0.576 I0.0235 J0.0797
N1745 X12.3028 Y-5.7727 Z-0.6227 I0.0303 J0.0774
N1750 X12.2964 Y-5.7692 Z-0.6694 I0.037 J0.0744
N1755 X12.2904 Y-5.7652 Z-0.7161 I0.0433 J0.0709
N1760 X12.2848 Y-5.7606 Z-0.7628 I0.0493 J0.0669
N1765 X12.2795 Y-5.7556 Z-0.8095 I0.055 J0.0623
N1770 X12.2748 Y-5.7501 Z-0.8562 I0.0602 J0.0573
N1775 X12.2705 Y-5.7443 Z-0.9029 I0.0649 J0.0518
N1780 X12.2668 Y-5.7381 Z-0.9495 I0.0692 J0.046
N1785 X12.2636 Y-5.7315 Z-0.9962 I0.073 J0.0398
N1790 X12.261 Y-5.7248 Z-1.0429 I0.0761 J0.0332
N1795 X12.2975 Y-5.6267 Z-1.08 I0.0788 J0.0265
N1800 X12.3819 Y-5.7699 I0.0422 J-0.0716
N1805 X12.2975 Y-5.6267 I-0.0422 J0.0716
N1810 X12.2843 Y-5.6781 I0.019 J-0.0323
N1815 G1 X12.2938 Y-5.6942
N1820 X12.2961 Y-5.6981 Z-1.0797
N1825 X12.2984 Y-5.702 Z-1.0789
N1830 X12.3005 Y-5.7057 Z-1.0776
N1835 X12.3026 Y-5.7092 Z-1.0757
N1840 X12.3046 Y-5.7126 Z-1.0734
N1845 X12.3064 Y-5.7156 Z-1.0706
N1850 X12.308 Y-5.7184 Z-1.0674
N1855 X12.3095 Y-5.7208 Z-1.0638
N1860 X12.3107 Y-5.7228 Z-1.0599
N1865 X12.3116 Y-5.7244 Z-1.0558
N1870 X12.3123 Y-5.7256 Z-1.0515
N1875 X12.3127 Y-5.7263 Z-1.047
N1880 X12.3128 Y-5.7265 Z-1.0425
N1885 G0 Z0.6
N1890 M9
N1895 M5
N1900 G53 G0 Z0.

(1/4" Bore Finish 2)
N1905 M1
N1910 T7 M6
N1915 S10000 M3
N1920 G17 G90 G94
N1925 G54
N1930 M8
N1935 G0 X8.7973 Y-4.6371
N1940 G43 Z0.6 H7
N1945 T6
N1950 G0 Z0.2
N1955 G1 Z0.0394 F13.333
N1960 Z-0.1
N1965 G18 G2 X8.8223 Z-0.125 I0.025 K0. F40.7
N1970 G17
N1975 G1 G41 X8.8473 Y-4.6496 D7
N1980 G3 X8.8848 Y-4.6121 I0. J0.0375
N1985 X8.5846 I-0.1501 J0. F40.
N1990 X8.8848 I0.1501 J0.
N1995 X8.8473 Y-4.5746 I-0.0375 J0. F40.7
N2000 G1 G40 X8.8223 Y-4.5871
N2005 G18 G3 X8.7973 Z-0.1 I0. K0.025
N2010 G0 Z0.2
N2015 Y-4.6371
N2020 G1 Z-0.0856 F13.333
N2025 Z-0.225
N2030 G2 X8.8223 Z-0.25 I0.025 K0. F40.7
N2035 G17
N2040 G1 G41 X8.8473 Y-4.6496 D7
N2045 G3 X8.8848 Y-4.6121 I0. J0.0375
N2050 X8.5846 I-0.1501 J0. F40.
N2055 X8.8848 I0.1501 J0.
N2060 X8.8473 Y-4.5746 I-0.0375 J0. F40.7
N2065 G1 G40 X8.8223 Y-4.5871
N2070 G18 G3 X8.7973 Z-0.225 I0. K0.025
N2075 G0 Z0.2
N2080 Y-4.6371
N2085 G1 Z-0.2106 F13.333
N2090 Z-0.35
N2095 G2 X8.8223 Z-0.375 I0.025 K0. F40.7
N2100 G17
N2105 G1 G41 X8.8473 Y-4.6496 D7
N2110 G3 X8.8848 Y-4.6121 I0. J0.0375
N2115 X8.5846 I-0.1501 J0. F40.
N2120 X8.8848 I0.1501 J0.
N2125 X8.8473 Y-4.5746 I-0.0375 J0. F40.7
N2130 G1 G40 X8.8223 Y-4.5871
N2135 G18 G3 X8.7973 Z-0.35 I0. K0.025
N2140 G0 Z0.2
N2145 Y-4.6371
N2150 G1 Z-0.3356 F13.333
N2155 Z-0.475
N2160 G2 X8.8223 Z-0.5 I0.025 K0. F40.7
N2165 G17
N2170 G1 G41 X8.8473 Y-4.6496 D7
N2175 G3 X8.8848 Y-4.6121 I0. J0.0375
N2180 X8.5846 I-0.1501 J0. F40.
N2185 X8.8848 I0.1501 J0.
N2190 X8.8473 Y-4.5746 I-0.0375 J0. F40.7
N2195 G1 G40 X8.8223 Y-4.5871
N2200 G18 G3 X8.7973 Z-0.475 I0. K0.025
N2205 G0 Z0.2
N2210 Y-4.6371
N2215 G1 Z-0.4606 F13.333
N2220 Z-0.6
N2225 G2 X8.8223 Z-0.625 I0.025 K0. F40.7
N2230 G17
N2235 G1 G41 X8.8473 Y-4.6496 D7
N2240 G3 X8.8848 Y-4.6121 I0. J0.0375
N2245 X8.5846 I-0.1501 J0. F40.
N2250 X8.8848 I0.1501 J0.
N2255 X8.8473 Y-4.5746 I-0.0375 J0. F40.7
N2260 G1 G40 X8.8223 Y-4.5871
N2265 G18 G3 X8.7973 Z-0.6 I0. K0.025
N2270 G0 Z0.2
N2275 Y-4.6371
N2280 G1 Z-0.5856 F13.333
N2285 Z-0.725
N2290 G2 X8.8223 Z-0.75 I0.025 K0. F40.7
N2295 G17
N2300 G1 G41 X8.8473 Y-4.6496 D7
N2305 G3 X8.8848 Y-4.6121 I0. J0.0375
N2310 X8.5846 I-0.1501 J0. F40.
N2315 X8.8848 I0.1501 J0.
N2320 X8.8473 Y-4.5746 I-0.0375 J0. F40.7
N2325 G1 G40 X8.8223 Y-4.5871
N2330 G18 G3 X8.7973 Z-0.725 I0. K0.025
N2335 G0 Z0.2
N2340 Y-4.6371
N2345 G1 Z-0.7106 F13.333
N2350 Z-0.85
N2355 G2 X8.8223 Z-0.875 I0.025 K0. F40.7
N2360 G17
N2365 G1 G41 X8.8473 Y-4.6496 D7
N2370 G3 X8.8848 Y-4.6121 I0. J0.0375
N2375 X8.5846 I-0.1501 J0. F40.
N2380 X8.8848 I0.1501 J0.
N2385 X8.8473 Y-4.5746 I-0.0375 J0. F40.7
N2390 G1 G40 X8.8223 Y-4.5871
N2395 G18 G3 X8.7973 Z-0.85 I0. K0.025
N2400 G0 Z0.2
N2405 Y-4.6371
N2410 G1 Z-0.8356 F13.333
N2415 Z-0.975
N2420 G2 X8.8223 Z-1. I0.025 K0. F40.7
N2425 G17
N2430 G1 G41 X8.8473 Y-4.6496 D7
N2435 G3 X8.8848 Y-4.6121 I0. J0.0375
N2440 X8.5846 I-0.1501 J0. F40.
N2445 X8.8848 I0.1501 J0.
N2450 X8.8473 Y-4.5746 I-0.0375 J0. F40.7
N2455 G1 G40 X8.8223 Y-4.5871
N2460 G18 G3 X8.7973 Z-0.975 I0. K0.025
N2465 G0 Z0.2
N2470 Y-4.6371
N2475 G1 Z-0.9606 F13.333
N2480 Z-1.055
N2485 G2 X8.8223 Z-1.08 I0.025 K0. F40.7
N2490 G17
N2495 G1 G41 X8.8473 Y-4.6496 D7
N2500 G3 X8.8848 Y-4.6121 I0. J0.0375
N2505 X8.5846 I-0.1501 J0. F40.
N2510 X8.8848 I0.1501 J0.
N2515 X8.8473 Y-4.5746 I-0.0375 J0. F40.7
N2520 G1 G40 X8.8223 Y-4.5871
N2525 G18 G3 X8.7973 Z-1.055 I0. K0.025
N2530 G0 Z0.2
N2535 X5.9369 Y-5.6046
N2540 G1 Z0.0394 F13.333
N2545 Z-0.1
N2550 G2 X5.9619 Z-0.125 I0.025 K0. F40.7
N2555 G17
N2560 G1 G41 X5.9869 Y-5.6171 D7
N2565 G3 X6.0244 Y-5.5796 I0. J0.0375
N2570 X5.7242 I-0.1501 J0. F40.
N2575 X6.0244 I0.1501 J0.
N2580 X5.9869 Y-5.5421 I-0.0375 J0. F40.7
N2585 G1 G40 X5.9619 Y-5.5546
N2590 G18 G3 X5.9369 Z-0.1 I0. K0.025
N2595 G0 Z0.2
N2600 Y-5.6046
N2605 G1 Z-0.0856 F13.333
N2610 Z-0.225
N2615 G2 X5.9619 Z-0.25 I0.025 K0. F40.7
N2620 G17
N2625 G1 G41 X5.9869 Y-5.6171 D7
N2630 G3 X6.0244 Y-5.5796 I0. J0.0375
N2635 X5.7242 I-0.1501 J0. F40.
N2640 X6.0244 I0.1501 J0.
N2645 X5.9869 Y-5.5421 I-0.0375 J0. F40.7
N2650 G1 G40 X5.9619 Y-5.5546
N2655 G18 G3 X5.9369 Z-0.225 I0. K0.025
N2660 G0 Z0.2
N2665 Y-5.6046
N2670 G1 Z-0.2106 F13.333
N2675 Z-0.35
N2680 G2 X5.9619 Z-0.375 I0.025 K0. F40.7
N2685 G17
N2690 G1 G41 X5.9869 Y-5.6171 D7
N2695 G3 X6.0244 Y-5.5796 I0. J0.0375
N2700 X5.7242 I-0.1501 J0. F40.
N2705 X6.0244 I0.1501 J0.
N2710 X5.9869 Y-5.5421 I-0.0375 J0. F40.7
N2715 G1 G40 X5.9619 Y-5.5546
N2720 G18 G3 X5.9369 Z-0.35 I0. K0.025
N2725 G0 Z0.2
N2730 Y-5.6046
N2735 G1 Z-0.3356 F13.333
N2740 Z-0.475
N2745 G2 X5.9619 Z-0.5 I0.025 K0. F40.7
N2750 G17
N2755 G1 G41 X5.9869 Y-5.6171 D7
N2760 G3 X6.0244 Y-5.5796 I0. J0.0375
N2765 X5.7242 I-0.1501 J0. F40.
N2770 X6.0244 I0.1501 J0.
N2775 X5.9869 Y-5.5421 I-0.0375 J0. F40.7
N2780 G1 G40 X5.9619 Y-5.5546
N2785 G18 G3 X5.9369 Z-0.475 I0. K0.025
N2790 G0 Z0.2
N2795 Y-5.6046
N2800 G1 Z-0.4606 F13.333
N2805 Z-0.6
N2810 G2 X5.9619 Z-0.625 I0.025 K0. F40.7
N2815 G17
N2820 G1 G41 X5.9869 Y-5.6171 D7
N2825 G3 X6.0244 Y-5.5796 I0. J0.0375
N2830 X5.7242 I-0.1501 J0. F40.
N2835 X6.0244 I0.1501 J0.
N2840 X5.9869 Y-5.5421 I-0.0375 J0. F40.7
N2845 G1 G40 X5.9619 Y-5.5546
N2850 G18 G3 X5.9369 Z-0.6 I0. K0.025
N2855 G0 Z0.2
N2860 Y-5.6046
N2865 G1 Z-0.5856 F13.333
N2870 Z-0.725
N2875 G2 X5.9619 Z-0.75 I0.025 K0. F40.7
N2880 G17
N2885 G1 G41 X5.9869 Y-5.6171 D7
N2890 G3 X6.0244 Y-5.5796 I0. J0.0375
N2895 X5.7242 I-0.1501 J0. F40.
N2900 X6.0244 I0.1501 J0.
N2905 X5.9869 Y-5.5421 I-0.0375 J0. F40.7
N2910 G1 G40 X5.9619 Y-5.5546
N2915 G18 G3 X5.9369 Z-0.725 I0. K0.025
N2920 G0 Z0.2
N2925 Y-5.6046
N2930 G1 Z-0.7106 F13.333
N2935 Z-0.85
N2940 G2 X5.9619 Z-0.875 I0.025 K0. F40.7
N2945 G17
N2950 G1 G41 X5.9869 Y-5.6171 D7
N2955 G3 X6.0244 Y-5.5796 I0. J0.0375
N2960 X5.7242 I-0.1501 J0. F40.
N2965 X6.0244 I0.1501 J0.
N2970 X5.9869 Y-5.5421 I-0.0375 J0. F40.7
N2975 G1 G40 X5.9619 Y-5.5546
N2980 G18 G3 X5.9369 Z-0.85 I0. K0.025
N2985 G0 Z0.2
N2990 Y-5.6046
N2995 G1 Z-0.8356 F13.333
N3000 Z-0.975
N3005 G2 X5.9619 Z-1. I0.025 K0. F40.7
N3010 G17
N3015 G1 G41 X5.9869 Y-5.6171 D7
N3020 G3 X6.0244 Y-5.5796 I0. J0.0375
N3025 X5.7242 I-0.1501 J0. F40.
N3030 X6.0244 I0.1501 J0.
N3035 X5.9869 Y-5.5421 I-0.0375 J0. F40.7
N3040 G1 G40 X5.9619 Y-5.5546
N3045 G18 G3 X5.9369 Z-0.975 I0. K0.025
N3050 G0 Z0.2
N3055 Y-5.6046
N3060 G1 Z-0.9606 F13.333
N3065 Z-1.055
N3070 G2 X5.9619 Z-1.08 I0.025 K0. F40.7
N3075 G17
N3080 G1 G41 X5.9869 Y-5.6171 D7
N3085 G3 X6.0244 Y-5.5796 I0. J0.0375
N3090 X5.7242 I-0.1501 J0. F40.
N3095 X6.0244 I0.1501 J0.
N3100 X5.9869 Y-5.5421 I-0.0375 J0. F40.7
N3105 G1 G40 X5.9619 Y-5.5546
N3110 G18 G3 X5.9369 Z-1.055 I0. K0.025
N3115 G0 Z0.2
N3120 X8.1073 Y-0.8007
N3125 G1 Z0.0394 F13.333
N3130 Z-0.1
N3135 X8.1076 Y-0.8008 Z-0.1039 F40.7
N3140 X8.1084 Y-0.8011 Z-0.1077
N3145 X8.1098 Y-0.8017 Z-0.1113
N3150 X8.1117 Y-0.8025 Z-0.1147
N3155 X8.1141 Y-0.8035 Z-0.1177
N3160 X8.1168 Y-0.8046 Z-0.1202
N3165 X8.1199 Y-0.8059 Z-0.1223
N3170 X8.1233 Y-0.8073 Z-0.1238
N3175 X8.1268 Y-0.8087 Z-0.1247
N3180 X8.1304 Y-0.8102 Z-0.125
N3185 G17
N3190 G1 G41 X8.1488 Y-0.8313 D7
N3195 G3 X8.1977 Y-0.8109 I0.0143 J0.0347
N3200 X7.9202 Y-0.6966 I-0.1388 J0.0571 F40.
N3205 X8.1977 Y-0.8109 I0.1388 J-0.0571
N3210 X8.1773 Y-0.7619 I-0.0347 J0.0143 F40.7
N3215 G1 G40 X8.1495 Y-0.764
N3220 X8.1458 Y-0.7625 Z-0.1247
N3225 X8.1423 Y-0.761 Z-0.1238
N3230 X8.139 Y-0.7596 Z-0.1223
N3235 X8.1359 Y-0.7584 Z-0.1202
N3240 X8.1331 Y-0.7572 Z-0.1177
N3245 X8.1308 Y-0.7563 Z-0.1147
N3250 X8.1289 Y-0.7555 Z-0.1113
N3255 X8.1275 Y-0.7549 Z-0.1077
N3260 X8.1266 Y-0.7546 Z-0.1039
N3265 X8.1263 Y-0.7544 Z-0.1
N3270 G0 Z0.2
N3275 X8.1073 Y-0.8007
N3280 G1 Z-0.0856 F13.333
N3285 Z-0.225
N3290 X8.1076 Y-0.8008 Z-0.2289 F40.7
N3295 X8.1084 Y-0.8011 Z-0.2327
N3300 X8.1098 Y-0.8017 Z-0.2363
N3305 X8.1117 Y-0.8025 Z-0.2397
N3310 X8.1141 Y-0.8035 Z-0.2427
N3315 X8.1168 Y-0.8046 Z-0.2452
N3320 X8.1199 Y-0.8059 Z-0.2473
N3325 X8.1233 Y-0.8073 Z-0.2488
N3330 X8.1268 Y-0.8087 Z-0.2497
N3335 X8.1304 Y-0.8102 Z-0.25
N3340 G41 X8.1488 Y-0.8313 D7
N3345 G3 X8.1977 Y-0.8109 I0.0143 J0.0347
N3350 X7.9202 Y-0.6966 I-0.1388 J0.0571 F40.
N3355 X8.1977 Y-0.8109 I0.1388 J-0.0571
N3360 X8.1773 Y-0.7619 I-0.0347 J0.0143 F40.7
N3365 G1 G40 X8.1495 Y-0.764
N3370 X8.1458 Y-0.7625 Z-0.2497
N3375 X8.1423 Y-0.761 Z-0.2488
N3380 X8.139 Y-0.7596 Z-0.2473
N3385 X8.1359 Y-0.7584 Z-0.2452
N3390 X8.1331 Y-0.7572 Z-0.2427
N3395 X8.1308 Y-0.7563 Z-0.2397
N3400 X8.1289 Y-0.7555 Z-0.2363
N3405 X8.1275 Y-0.7549 Z-0.2327
N3410 X8.1266 Y-0.7546 Z-0.2289
N3415 X8.1263 Y-0.7544 Z-0.225
N3420 G0 Z0.2
N3425 X8.1073 Y-0.8007
N3430 G1 Z-0.2106 F13.333
N3435 Z-0.35
N3440 X8.1076 Y-0.8008 Z-0.3539 F40.7
N3445 X8.1084 Y-0.8011 Z-0.3577
N3450 X8.1098 Y-0.8017 Z-0.3613
N3455 X8.1117 Y-0.8025 Z-0.3647
N3460 X8.1141 Y-0.8035 Z-0.3677
N3465 X8.1168 Y-0.8046 Z-0.3702
N3470 X8.1199 Y-0.8059 Z-0.3723
N3475 X8.1233 Y-0.8073 Z-0.3738
N3480 X8.1268 Y-0.8087 Z-0.3747
N3485 X8.1304 Y-0.8102 Z-0.375
N3490 G41 X8.1488 Y-0.8313 D7
N3495 G3 X8.1977 Y-0.8109 I0.0143 J0.0347
N3500 X7.9202 Y-0.6966 I-0.1388 J0.0571 F40.
N3505 X8.1977 Y-0.8109 I0.1388 J-0.0571
N3510 X8.1773 Y-0.7619 I-0.0347 J0.0143 F40.7
N3515 G1 G40 X8.1495 Y-0.764
N3520 X8.1458 Y-0.7625 Z-0.3747
N3525 X8.1423 Y-0.761 Z-0.3738
N3530 X8.139 Y-0.7596 Z-0.3723
N3535 X8.1359 Y-0.7584 Z-0.3702
N3540 X8.1331 Y-0.7572 Z-0.3677
N3545 X8.1308 Y-0.7563 Z-0.3647
N3550 X8.1289 Y-0.7555 Z-0.3613
N3555 X8.1275 Y-0.7549 Z-0.3577
N3560 X8.1266 Y-0.7546 Z-0.3539
N3565 X8.1263 Y-0.7544 Z-0.35
N3570 G0 Z0.2
N3575 X8.1073 Y-0.8007
N3580 G1 Z-0.3356 F13.333
N3585 Z-0.475
N3590 X8.1076 Y-0.8008 Z-0.4789 F40.7
N3595 X8.1084 Y-0.8011 Z-0.4827
N3600 X8.1098 Y-0.8017 Z-0.4863
N3605 X8.1117 Y-0.8025 Z-0.4897
N3610 X8.1141 Y-0.8035 Z-0.4927
N3615 X8.1168 Y-0.8046 Z-0.4952
N3620 X8.1199 Y-0.8059 Z-0.4973
N3625 X8.1233 Y-0.8073 Z-0.4988
N3630 X8.1268 Y-0.8087 Z-0.4997
N3635 X8.1304 Y-0.8102 Z-0.5
N3640 G41 X8.1488 Y-0.8313 D7
N3645 G3 X8.1977 Y-0.8109 I0.0143 J0.0347
N3650 X7.9202 Y-0.6966 I-0.1388 J0.0571 F40.
N3655 X8.1977 Y-0.8109 I0.1388 J-0.0571
N3660 X8.1773 Y-0.7619 I-0.0347 J0.0143 F40.7
N3665 G1 G40 X8.1495 Y-0.764
N3670 X8.1458 Y-0.7625 Z-0.4997
N3675 X8.1423 Y-0.761 Z-0.4988
N3680 X8.139 Y-0.7596 Z-0.4973
N3685 X8.1359 Y-0.7584 Z-0.4952
N3690 X8.1331 Y-0.7572 Z-0.4927
N3695 X8.1308 Y-0.7563 Z-0.4897
N3700 X8.1289 Y-0.7555 Z-0.4863
N3705 X8.1275 Y-0.7549 Z-0.4827
N3710 X8.1266 Y-0.7546 Z-0.4789
N3715 X8.1263 Y-0.7544 Z-0.475
N3720 G0 Z0.2
N3725 X8.1073 Y-0.8007
N3730 G1 Z-0.4606 F13.333
N3735 Z-0.6
N3740 X8.1076 Y-0.8008 Z-0.6039 F40.7
N3745 X8.1084 Y-0.8011 Z-0.6077
N3750 X8.1098 Y-0.8017 Z-0.6113
N3755 X8.1117 Y-0.8025 Z-0.6147
N3760 X8.1141 Y-0.8035 Z-0.6177
N3765 X8.1168 Y-0.8046 Z-0.6202
N3770 X8.1199 Y-0.8059 Z-0.6223
N3775 X8.1233 Y-0.8073 Z-0.6238
N3780 X8.1268 Y-0.8087 Z-0.6247
N3785 X8.1304 Y-0.8102 Z-0.625
N3790 G41 X8.1488 Y-0.8313 D7
N3795 G3 X8.1977 Y-0.8109 I0.0143 J0.0347
N3800 X7.9202 Y-0.6966 I-0.1388 J0.0571 F40.
N3805 X8.1977 Y-0.8109 I0.1388 J-0.0571
N3810 X8.1773 Y-0.7619 I-0.0347 J0.0143 F40.7
N3815 G1 G40 X8.1495 Y-0.764
N3820 X8.1458 Y-0.7625 Z-0.6247
N3825 X8.1423 Y-0.761 Z-0.6238
N3830 X8.139 Y-0.7596 Z-0.6223
N3835 X8.1359 Y-0.7584 Z-0.6202
N3840 X8.1331 Y-0.7572 Z-0.6177
N3845 X8.1308 Y-0.7563 Z-0.6147
N3850 X8.1289 Y-0.7555 Z-0.6113
N3855 X8.1275 Y-0.7549 Z-0.6077
N3860 X8.1266 Y-0.7546 Z-0.6039
N3865 X8.1263 Y-0.7544 Z-0.6
N3870 G0 Z0.2
N3875 X8.1073 Y-0.8007
N3880 G1 Z-0.5856 F13.333
N3885 Z-0.725
N3890 X8.1076 Y-0.8008 Z-0.7289 F40.7
N3895 X8.1084 Y-0.8011 Z-0.7327
N3900 X8.1098 Y-0.8017 Z-0.7363
N3905 X8.1117 Y-0.8025 Z-0.7397
N3910 X8.1141 Y-0.8035 Z-0.7427
N3915 X8.1168 Y-0.8046 Z-0.7452
N3920 X8.1199 Y-0.8059 Z-0.7473
N3925 X8.1233 Y-0.8073 Z-0.7488
N3930 X8.1268 Y-0.8087 Z-0.7497
N3935 X8.1304 Y-0.8102 Z-0.75
N3940 G41 X8.1488 Y-0.8313 D7
N3945 G3 X8.1977 Y-0.8109 I0.0143 J0.0347
N3950 X7.9202 Y-0.6966 I-0.1388 J0.0571 F40.
N3955 X8.1977 Y-0.8109 I0.1388 J-0.0571
N3960 X8.1773 Y-0.7619 I-0.0347 J0.0143 F40.7
N3965 G1 G40 X8.1495 Y-0.764
N3970 X8.1458 Y-0.7625 Z-0.7497
N3975 X8.1423 Y-0.761 Z-0.7488
N3980 X8.139 Y-0.7596 Z-0.7473
N3985 X8.1359 Y-0.7584 Z-0.7452
N3990 X8.1331 Y-0.7572 Z-0.7427
N3995 X8.1308 Y-0.7563 Z-0.7397
N4000 X8.1289 Y-0.7555 Z-0.7363
N4005 X8.1275 Y-0.7549 Z-0.7327
N4010 X8.1266 Y-0.7546 Z-0.7289
N4015 X8.1263 Y-0.7544 Z-0.725
N4020 G0 Z0.2
N4025 X8.1073 Y-0.8007
N4030 G1 Z-0.7106 F13.333
N4035 Z-0.85
N4040 X8.1076 Y-0.8008 Z-0.8539 F40.7
N4045 X8.1084 Y-0.8011 Z-0.8577
N4050 X8.1098 Y-0.8017 Z-0.8613
N4055 X8.1117 Y-0.8025 Z-0.8647
N4060 X8.1141 Y-0.8035 Z-0.8677
N4065 X8.1168 Y-0.8046 Z-0.8702
N4070 X8.1199 Y-0.8059 Z-0.8723
N4075 X8.1233 Y-0.8073 Z-0.8738
N4080 X8.1268 Y-0.8087 Z-0.8747
N4085 X8.1304 Y-0.8102 Z-0.875
N4090 G41 X8.1488 Y-0.8313 D7
N4095 G3 X8.1977 Y-0.8109 I0.0143 J0.0347
N4100 X7.9202 Y-0.6966 I-0.1388 J0.0571 F40.
N4105 X8.1977 Y-0.8109 I0.1388 J-0.0571
N4110 X8.1773 Y-0.7619 I-0.0347 J0.0143 F40.7
N4115 G1 G40 X8.1495 Y-0.764
N4120 X8.1458 Y-0.7625 Z-0.8747
N4125 X8.1423 Y-0.761 Z-0.8738
N4130 X8.139 Y-0.7596 Z-0.8723
N4135 X8.1359 Y-0.7584 Z-0.8702
N4140 X8.1331 Y-0.7572 Z-0.8677
N4145 X8.1308 Y-0.7563 Z-0.8647
N4150 X8.1289 Y-0.7555 Z-0.8613
N4155 X8.1275 Y-0.7549 Z-0.8577
N4160 X8.1266 Y-0.7546 Z-0.8539
N4165 X8.1263 Y-0.7544 Z-0.85
N4170 G0 Z0.2
N4175 X8.1073 Y-0.8007
N4180 G1 Z-0.8356 F13.333
N4185 Z-0.975
N4190 X8.1076 Y-0.8008 Z-0.9789 F40.7
N4195 X8.1084 Y-0.8011 Z-0.9827
N4200 X8.1098 Y-0.8017 Z-0.9863
N4205 X8.1117 Y-0.8025 Z-0.9897
N4210 X8.1141 Y-0.8035 Z-0.9927
N4215 X8.1168 Y-0.8046 Z-0.9952
N4220 X8.1199 Y-0.8059 Z-0.9973
N4225 X8.1233 Y-0.8073 Z-0.9988
N4230 X8.1268 Y-0.8087 Z-0.9997
N4235 X8.1304 Y-0.8102 Z-1.
N4240 G41 X8.1488 Y-0.8313 D7
N4245 G3 X8.1977 Y-0.8109 I0.0143 J0.0347
N4250 X7.9202 Y-0.6966 I-0.1388 J0.0571 F40.
N4255 X8.1977 Y-0.8109 I0.1388 J-0.0571
N4260 X8.1773 Y-0.7619 I-0.0347 J0.0143 F40.7
N4265 G1 G40 X8.1495 Y-0.764
N4270 X8.1458 Y-0.7625 Z-0.9997
N4275 X8.1423 Y-0.761 Z-0.9988
N4280 X8.139 Y-0.7596 Z-0.9973
N4285 X8.1359 Y-0.7584 Z-0.9952
N4290 X8.1331 Y-0.7572 Z-0.9927
N4295 X8.1308 Y-0.7563 Z-0.9897
N4300 X8.1289 Y-0.7555 Z-0.9863
N4305 X8.1275 Y-0.7549 Z-0.9827
N4310 X8.1266 Y-0.7546 Z-0.9789
N4315 X8.1263 Y-0.7544 Z-0.975
N4320 G0 Z0.2
N4325 X8.1073 Y-0.8007
N4330 G1 Z-0.9606 F13.333
N4335 Z-1.055
N4340 X8.1076 Y-0.8008 Z-1.0589 F40.7
N4345 X8.1084 Y-0.8011 Z-1.0627
N4350 X8.1098 Y-0.8017 Z-1.0663
N4355 X8.1117 Y-0.8025 Z-1.0697
N4360 X8.1141 Y-0.8035 Z-1.0727
N4365 X8.1168 Y-0.8046 Z-1.0752
N4370 X8.1199 Y-0.8059 Z-1.0773
N4375 X8.1233 Y-0.8073 Z-1.0788
N4380 X8.1268 Y-0.8087 Z-1.0797
N4385 X8.1304 Y-0.8102 Z-1.08
N4390 G41 X8.1488 Y-0.8313 D7
N4395 G3 X8.1977 Y-0.8109 I0.0143 J0.0347
N4400 X7.9202 Y-0.6966 I-0.1388 J0.0571 F40.
N4405 X8.1977 Y-0.8109 I0.1388 J-0.0571
N4410 X8.1773 Y-0.7619 I-0.0347 J0.0143 F40.7
N4415 G1 G40 X8.1495 Y-0.764
N4420 X8.1458 Y-0.7625 Z-1.0797
N4425 X8.1423 Y-0.761 Z-1.0788
N4430 X8.139 Y-0.7596 Z-1.0773
N4435 X8.1359 Y-0.7584 Z-1.0752
N4440 X8.1331 Y-0.7572 Z-1.0727
N4445 X8.1308 Y-0.7563 Z-1.0697
N4450 X8.1289 Y-0.7555 Z-1.0663
N4455 X8.1275 Y-0.7549 Z-1.0627
N4460 X8.1266 Y-0.7546 Z-1.0589
N4465 X8.1263 Y-0.7544 Z-1.055
N4470 G0 Z0.2
N4475 X12.4023 Y-5.7233
N4480 G1 Z0.0394 F13.333
N4485 Z-0.1
N4490 G18 G2 X12.4273 Z-0.125 I0.025 K0. F40.7
N4495 G17
N4500 G1 G41 X12.4523 Y-5.7358 D7
N4505 G3 X12.4898 Y-5.6983 I0. J0.0375
N4510 X12.1896 I-0.1501 J0. F40.
N4515 X12.4898 I0.1501 J0.
N4520 X12.4523 Y-5.6608 I-0.0375 J0. F40.7
N4525 G1 G40 X12.4273 Y-5.6733
N4530 G18 G3 X12.4023 Z-0.1 I0. K0.025
N4535 G0 Z0.2
N4540 Y-5.7233
N4545 G1 Z-0.0856 F13.333
N4550 Z-0.225
N4555 G2 X12.4273 Z-0.25 I0.025 K0. F40.7
N4560 G17
N4565 G1 G41 X12.4523 Y-5.7358 D7
N4570 G3 X12.4898 Y-5.6983 I0. J0.0375
N4575 X12.1896 I-0.1501 J0. F40.
N4580 X12.4898 I0.1501 J0.
N4585 X12.4523 Y-5.6608 I-0.0375 J0. F40.7
N4590 G1 G40 X12.4273 Y-5.6733
N4595 G18 G3 X12.4023 Z-0.225 I0. K0.025
N4600 G0 Z0.2
N4605 Y-5.7233
N4610 G1 Z-0.2106 F13.333
N4615 Z-0.35
N4620 G2 X12.4273 Z-0.375 I0.025 K0. F40.7
N4625 G17
N4630 G1 G41 X12.4523 Y-5.7358 D7
N4635 G3 X12.4898 Y-5.6983 I0. J0.0375
N4640 X12.1896 I-0.1501 J0. F40.
N4645 X12.4898 I0.1501 J0.
N4650 X12.4523 Y-5.6608 I-0.0375 J0. F40.7
N4655 G1 G40 X12.4273 Y-5.6733
N4660 G18 G3 X12.4023 Z-0.35 I0. K0.025
N4665 G0 Z0.2
N4670 Y-5.7233
N4675 G1 Z-0.3356 F13.333
N4680 Z-0.475
N4685 G2 X12.4273 Z-0.5 I0.025 K0. F40.7
N4690 G17
N4695 G1 G41 X12.4523 Y-5.7358 D7
N4700 G3 X12.4898 Y-5.6983 I0. J0.0375
N4705 X12.1896 I-0.1501 J0. F40.
N4710 X12.4898 I0.1501 J0.
N4715 X12.4523 Y-5.6608 I-0.0375 J0. F40.7
N4720 G1 G40 X12.4273 Y-5.6733
N4725 G18 G3 X12.4023 Z-0.475 I0. K0.025
N4730 G0 Z0.2
N4735 Y-5.7233
N4740 G1 Z-0.4606 F13.333
N4745 Z-0.6
N4750 G2 X12.4273 Z-0.625 I0.025 K0. F40.7
N4755 G17
N4760 G1 G41 X12.4523 Y-5.7358 D7
N4765 G3 X12.4898 Y-5.6983 I0. J0.0375
N4770 X12.1896 I-0.1501 J0. F40.
N4775 X12.4898 I0.1501 J0.
N4780 X12.4523 Y-5.6608 I-0.0375 J0. F40.7
N4785 G1 G40 X12.4273 Y-5.6733
N4790 G18 G3 X12.4023 Z-0.6 I0. K0.025
N4795 G0 Z0.2
N4800 Y-5.7233
N4805 G1 Z-0.5856 F13.333
N4810 Z-0.725
N4815 G2 X12.4273 Z-0.75 I0.025 K0. F40.7
N4820 G17
N4825 G1 G41 X12.4523 Y-5.7358 D7
N4830 G3 X12.4898 Y-5.6983 I0. J0.0375
N4835 X12.1896 I-0.1501 J0. F40.
N4840 X12.4898 I0.1501 J0.
N4845 X12.4523 Y-5.6608 I-0.0375 J0. F40.7
N4850 G1 G40 X12.4273 Y-5.6733
N4855 G18 G3 X12.4023 Z-0.725 I0. K0.025
N4860 G0 Z0.2
N4865 Y-5.7233
N4870 G1 Z-0.7106 F13.333
N4875 Z-0.85
N4880 G2 X12.4273 Z-0.875 I0.025 K0. F40.7
N4885 G17
N4890 G1 G41 X12.4523 Y-5.7358 D7
N4895 G3 X12.4898 Y-5.6983 I0. J0.0375
N4900 X12.1896 I-0.1501 J0. F40.
N4905 X12.4898 I0.1501 J0.
N4910 X12.4523 Y-5.6608 I-0.0375 J0. F40.7
N4915 G1 G40 X12.4273 Y-5.6733
N4920 G18 G3 X12.4023 Z-0.85 I0. K0.025
N4925 G0 Z0.2
N4930 Y-5.7233
N4935 G1 Z-0.8356 F13.333
N4940 Z-0.975
N4945 G2 X12.4273 Z-1. I0.025 K0. F40.7
N4950 G17
N4955 G1 G41 X12.4523 Y-5.7358 D7
N4960 G3 X12.4898 Y-5.6983 I0. J0.0375
N4965 X12.1896 I-0.1501 J0. F40.
N4970 X12.4898 I0.1501 J0.
N4975 X12.4523 Y-5.6608 I-0.0375 J0. F40.7
N4980 G1 G40 X12.4273 Y-5.6733
N4985 G18 G3 X12.4023 Z-0.975 I0. K0.025
N4990 G0 Z0.2
N4995 Y-5.7233
N5000 G1 Z-0.9606 F13.333
N5005 Z-1.055
N5010 G2 X12.4273 Z-1.08 I0.025 K0. F40.7
N5015 G17
N5020 G1 G41 X12.4523 Y-5.7358 D7
N5025 G3 X12.4898 Y-5.6983 I0. J0.0375
N5030 X12.1896 I-0.1501 J0. F40.
N5035 X12.4898 I0.1501 J0.
N5040 X12.4523 Y-5.6608 I-0.0375 J0. F40.7
N5045 G1 G40 X12.4273 Y-5.6733
N5050 G18 G3 X12.4023 Z-1.055 I0. K0.025
N5055 G0 Z0.6
N5060 M9
N5065 M5
N5070 G53 G0 Z0.

(3/8" Adaptive)
N5075 M1
N5080 T6 M6
N5085 S8000 M3
N5090 G17 G90 G94
N5095 G54
N5100 M8
N5105 G0 X2.1795 Y-4.7944
N5110 G43 Z0.6 H6
N5115 T7
N5120 G0 Z0.2
N5125 Z0.1
N5130 G3 X2.204 Y-4.5004 Z0.088 I-0.0957 J0.1559 F13.333
N5135 X1.9166 Y-4.5651 Z0.076 I-0.12 J-0.1378
N5140 X2.0642 Y-4.8197 Z0.0641 I0.1673 J-0.0731
N5145 X2.2626 Y-4.6028 Z0.0521 I0.0196 J0.1813
N5150 X1.9965 Y-4.4786 Z0.0401 I-0.1786 J-0.0356
N5155 X1.9579 Y-4.7693 Z0.0281 I0.0874 J-0.1595
N5160 X2.2465 Y-4.7192 Z0.0161 I0.1259 J0.131
N5165 X2.1123 Y-4.4592 Z0.0042 I-0.1625 J0.0807
N5170 X1.9047 Y-4.6649 Z-0.0078 I-0.0283 J-0.179
N5175 X2.1628 Y-4.8011 Z-0.0198 I0.1791 J0.0266
N5180 X2.2154 Y-4.5143 Z-0.0318 I-0.079 J0.1627
N5185 X1.9264 Y-4.5501 Z-0.0438 I-0.1314 J-0.1239
N5190 X2.0469 Y-4.8148 Z-0.0557 I0.1574 J-0.0881
N5195 X2.2632 Y-4.6207 Z-0.0677 I0.0369 J0.1764
N5200 X2.0135 Y-4.4728 Z-0.0797 I-0.1791 J-0.0177
N5205 X1.9472 Y-4.755 Z-0.0917 I0.0705 J-0.1654
N5210 X2.236 Y-4.7336 Z-0.1036 I0.1365 J0.1167
N5215 X2.1292 Y-4.4648 Z-0.1156 I-0.152 J0.0952
N5220 X1.905 Y-4.647 Z-0.1276 I-0.0452 J-0.1734
N5225 X2.1458 Y-4.8061 Z-0.1396 I0.1788 J0.0088
N5230 X2.2253 Y-4.5291 Z-0.1516 I-0.0619 J0.1677
N5235 X1.9375 Y-4.5362 Z-0.1635 I-0.1413 J-0.1092
N5240 X2.0304 Y-4.8083 Z-0.1755 I0.1463 J-0.102
N5245 X2.2619 Y-4.6384 Z-0.1875 I0.0534 J0.1699
N5250 X1.9057 I-0.1781 J0.
N5255 X2.2619 I0.1781 J0.
N5260 G1 X2.2621 Y-4.6271 F80.3
N5265 X2.2668 Y-4.5824
N5270 X2.2681 Y-4.5766
N5275 X2.2689 Y-4.5706
N5280 X2.2693 Y-4.5646
N5285 Y-4.5586
N5290 X2.269 Y-4.5526
N5295 X2.2682 Y-4.5463
N5300 X2.267 Y-4.5397
N5305 X2.2654 Y-4.5328
N5310 X2.2633 Y-4.5257
N5315 X2.2607 Y-4.5183
N5320 X2.2575 Y-4.5108
N5325 X2.2537 Y-4.5032
N5330 X2.2494 Y-4.4955
N5335 X2.2445 Y-4.4878
N5340 X2.2389 Y-4.4801
N5345 X2.2328 Y-4.4726
N5350 X2.2261 Y-4.4652
N5355 X2.2187 Y-4.458
N5360 X2.2108 Y-4.4511
N5365 X2.2024 Y-4.4444
N5370 X2.1934 Y-4.4382
N5375 X2.1838 Y-4.4323
N5380 X2.1738 Y-4.4269
N5385 X2.1634 Y-4.422
N5390 X2.1525 Y-4.4177
N5395 X2.1413 Y-4.4139
N5400 X2.1297 Y-4.4107
N5405 X2.1179 Y-4.4081
N5410 X2.1058 Y-4.4062
N5415 X2.0935 Y-4.405
N5420 X2.0811 Y-4.4044
N5425 X2.0685 Y-4.4046
N5430 X2.056 Y-4.4055
N5435 X2.0434 Y-4.4071
N5440 X2.0308 Y-4.4094
N5445 X2.0184 Y-4.4124
N5450 X2.006 Y-4.4161
N5455 X1.9939 Y-4.4205
N5460 X1.982 Y-4.4257
N5465 X1.9704 Y-4.4315
N5470 X1.9591 Y-4.438
N5475 X1.9481 Y-4.4451
N5480 X1.9375 Y-4.4528
N5485 X1.9274 Y-4.4612
N5490 X1.9177 Y-4.4701
N5495 X1.9085 Y-4.4795
N5500 X1.8999 Y-4.4895
N5505 X1.8918 Y-4.5
N5510 X1.8844 Y-4.5109
N5515 X1.8775 Y-4.5222
N5520 X1.8713 Y-4.5339
N5525 X1.8657 Y-4.5459
N5530 X1.8609 Y-4.5583
N5535 X1.8567 Y-4.5709
N5540 X1.8532 Y-4.5837
N5545 X1.8505 Y-4.5968
N5550 X1.8485 Y-4.6099
N5555 X1.8473 Y-4.6232
N5560 X1.8468 Y-4.6365
N5565 X1.847 Y-4.6498
N5570 X1.848 Y-4.6631
N5575 X1.8498 Y-4.6763
N5580 X1.8523 Y-4.6894
N5585 X1.8555 Y-4.7023
N5590 X1.8594 Y-4.715
N5595 X1.8641 Y-4.7275
N5600 X1.8695 Y-4.7398
N5605 X1.8755 Y-4.7517
N5610 X1.8822 Y-4.7632
N5615 X1.8895 Y-4.7743
N5620 X1.8975 Y-4.7851
N5625 X1.906 Y-4.7953
N5630 X1.9151 Y-4.8051
N5635 X1.9248 Y-4.8143
N5640 X1.9349 Y-4.823
N5645 X1.9456 Y-4.8311
N5650 X1.9566 Y-4.8385
N5655 X1.9681 Y-4.8454
N5660 X1.9799 Y-4.8516
N5665 X1.9921 Y-4.8571
N5670 X2.0045 Y-4.8619
N5675 X2.0172 Y-4.866
N5680 X2.0302 Y-4.8694
N5685 X2.0432 Y-4.872
N5690 X2.0565 Y-4.874
N5695 X2.0698 Y-4.8751
N5700 X2.0831 Y-4.8755
N5705 X2.0965 Y-4.8752
N5710 X2.1098 Y-4.8741
N5715 X2.123 Y-4.8723
N5720 X2.1361 Y-4.8697
N5725 X2.1491 Y-4.8664
N5730 X2.1618 Y-4.8624
N5735 X2.1743 Y-4.8576
N5740 X2.1865 Y-4.8522
N5745 X2.1983 Y-4.846
N5750 X2.2099 Y-4.8393
N5755 X2.221 Y-4.8319
N5760 X2.2316 Y-4.8238
N5765 X2.2418 Y-4.8152
N5770 X2.2516 Y-4.806
N5775 X2.2607 Y-4.7963
N5780 X2.2693 Y-4.7861
N5785 X2.2774 Y-4.7754
N5790 X2.2848 Y-4.7643
N5795 X2.2915 Y-4.7528
N5800 X2.2988 Y-4.7387
N5805 X2.3094 Y-4.7148
N5810 X2.3185 Y-4.691
N5815 X2.3248 Y-4.671
N5820 X2.3293 Y-4.6534
N5825 X2.3326 Y-4.6368
N5830 X2.3347 Y-4.6211
N5835 X2.3359 Y-4.6061
N5840 X2.3363 Y-4.5916
N5845 X2.3359 Y-4.5774
N5850 X2.3346 Y-4.5635
N5855 X2.3326 Y-4.5498
N5860 X2.3299 Y-4.5364
N5865 X2.3265 Y-4.5233
N5870 X2.3223 Y-4.5104
N5875 X2.3174 Y-4.4977
N5880 X2.3118 Y-4.4854
N5885 X2.3054 Y-4.4732
N5890 X2.2984 Y-4.4614
N5895 X2.2906 Y-4.45
N5900 X2.2822 Y-4.4389
N5905 X2.273 Y-4.4282
N5910 X2.2632 Y-4.418
N5915 X2.2527 Y-4.4082
N5920 X2.2416 Y-4.3989
N5925 X2.2299 Y-4.3902
N5930 X2.2176 Y-4.3822
N5935 X2.2047 Y-4.3747
N5940 X2.1914 Y-4.3679
N5945 X2.1776 Y-4.3619
N5950 X2.1633 Y-4.3566
N5955 X2.1487 Y-4.3521
N5960 X2.1337 Y-4.3483
N5965 X2.1184 Y-4.3455
N5970 X2.1029 Y-4.3434
N5975 X2.0873 Y-4.3422
N5980 X2.0714 Y-4.3419
N5985 X2.0555 Y-4.3426
N5990 X2.0396 Y-4.3441
N5995 X2.0237 Y-4.3465
N6000 X2.0079 Y-4.3498
N6005 X1.9922 Y-4.354
N6010 X1.9768 Y-4.3591
N6015 X1.9616 Y-4.3651
N6020 X1.9467 Y-4.372
N6025 X1.9321 Y-4.3798
N6030 X1.918 Y-4.3883
N6035 X1.9043 Y-4.3977
N6040 X1.8912 Y-4.4078
N6045 X1.8786 Y-4.4187
N6050 X1.8667 Y-4.4303
N6055 X1.8554 Y-4.4426
N6060 X1.8447 Y-4.4555
N6065 X1.8348 Y-4.4691
N6070 X1.8257 Y-4.4832
N6075 X1.8174 Y-4.4978
N6080 X1.8099 Y-4.5128
N6085 X1.8032 Y-4.5283
N6090 X1.7974 Y-4.5441
N6095 X1.7926 Y-4.5603
N6100 X1.7886 Y-4.5767
N6105 X1.7855 Y-4.5933
N6110 X1.7834 Y-4.6101
N6115 X1.7823 Y-4.627
N6120 X1.7821 Y-4.6439
N6125 X1.7828 Y-4.6608
N6130 X1.7845 Y-4.6777
N6135 X1.7872 Y-4.6944
N6140 X1.7908 Y-4.711
N6145 X1.7953 Y-4.7273
N6150 X1.8007 Y-4.7434
N6155 X1.8071 Y-4.7592
N6160 X1.8143 Y-4.7745
N6165 X1.8224 Y-4.7895
N6170 X1.8313 Y-4.8039
N6175 X1.841 Y-4.8179
N6180 X1.8514 Y-4.8313
N6185 X1.8626 Y-4.844
N6190 X1.8745 Y-4.8561
N6195 X1.8871 Y-4.8676
N6200 X1.9003 Y-4.8783
N6205 X1.9141 Y-4.8882
N6210 X1.9284 Y-4.8974
N6215 X1.9432 Y-4.9057
N6220 X1.9585 Y-4.9132
N6225 X1.9742 Y-4.9198
N6230 X1.9902 Y-4.9256
N6235 X2.0065 Y-4.9304
N6240 X2.0231 Y-4.9343
N6245 X2.0398 Y-4.9372
N6250 X2.0567 Y-4.9392
N6255 X2.0737 Y-4.9403
N6260 X2.0907 Y-4.9404
N6265 X2.1077 Y-4.9395
N6270 X2.1246 Y-4.9377
N6275 X2.1414 Y-4.9349
N6280 X2.158 Y-4.9312
N6285 X2.1743 Y-4.9266
N6290 X2.1904 Y-4.921
N6295 X2.2061 Y-4.9146
N6300 X2.2215 Y-4.9072
N6305 X2.2364 Y-4.8991
N6310 X2.2509 Y-4.8901
N6315 X2.2648 Y-4.8803
N6320 X2.2781 Y-4.8697
N6325 X2.2911 Y-4.8582
N6330 X2.3044 Y-4.8449
N6335 X2.3173 Y-4.8305
N6340 X2.3302 Y-4.8144
N6345 X2.3425 Y-4.797
N6350 X2.354 Y-4.7789
N6355 X2.3643 Y-4.7602
N6360 X2.3735 Y-4.7412
N6365 X2.3815 Y-4.722
N6370 X2.3882 Y-4.7027
N6375 X2.3938 Y-4.6835
N6380 X2.3981 Y-4.6643
N6385 X2.4014 Y-4.6453
N6390 X2.4035 Y-4.6265
N6395 X2.4045 Y-4.6078
N6400 Y-4.5893
N6405 X2.4035 Y-4.571
N6410 X2.4014 Y-4.5529
N6415 X2.3983 Y-4.5351
N6420 X2.3943 Y-4.5175
N6425 X2.3893 Y-4.5002
N6430 X2.3833 Y-4.4833
N6435 X2.3764 Y-4.4668
N6440 X2.3686 Y-4.4506
N6445 X2.3598 Y-4.4349
N6450 X2.3502 Y-4.4196
N6455 X2.3397 Y-4.4049
N6460 X2.3283 Y-4.3907
N6465 X2.3161 Y-4.3772
N6470 X2.3031 Y-4.3643
N6475 X2.2893 Y-4.3521
N6480 X2.2748 Y-4.3406
N6485 X2.2596 Y-4.3299
N6490 X2.2437 Y-4.3201
N6495 X2.2272 Y-4.3111
N6500 X2.2102 Y-4.303
N6505 X2.1926 Y-4.2959
N6510 X2.1746 Y-4.2897
N6515 X2.1562 Y-4.2845
N6520 X2.1374 Y-4.2803
N6525 X2.1183 Y-4.2772
N6530 X2.099 Y-4.2751
N6535 X2.0794 Y-4.2742
N6540 X2.0598 Y-4.2743
N6545 X2.0402 Y-4.2756
N6550 X2.0205 Y-4.278
N6555 X2.001 Y-4.2814
N6560 X1.9815 Y-4.286
N6565 X1.9624 Y-4.2917
N6570 X1.9434 Y-4.2985
N6575 X1.9249 Y-4.3064
N6580 X1.9068 Y-4.3154
N6585 X1.8891 Y-4.3253
N6590 X1.872 Y-4.3363
N6595 X1.8555 Y-4.3483
N6600 X1.8397 Y-4.3612
N6605 X1.8245 Y-4.375
N6610 X1.8102 Y-4.3896
N6615 X1.7967 Y-4.4051
N6620 X1.784 Y-4.4213
N6625 X1.7723 Y-4.4382
N6630 X1.7615 Y-4.4558
N6635 X1.7517 Y-4.474
N6640 X1.743 Y-4.4928
N6645 X1.7353 Y-4.512
N6650 X1.7287 Y-4.5316
N6655 X1.7232 Y-4.5516
N6660 X1.7188 Y-4.5719
N6665 X1.7156 Y-4.5925
N6670 X1.7135 Y-4.6132
N6675 X1.7127 Y-4.634
N6680 X1.7129 Y-4.6548
N6685 X1.7144 Y-4.6755
N6690 X1.717 Y-4.6962
N6695 X1.7208 Y-4.7167
N6700 X1.7258 Y-4.737
N6705 X1.7318 Y-4.7569
N6710 X1.739 Y-4.7765
N6715 X1.7473 Y-4.7957
N6720 X1.7566 Y-4.8144
N6725 X1.767 Y-4.8325
N6730 X1.7784 Y-4.85
N6735 X1.7908 Y-4.8668
N6740 X1.8041 Y-4.883
N6745 X1.8183 Y-4.8983
N6750 X1.8333 Y-4.9128
N6755 X1.8491 Y-4.9265
N6760 X1.8657 Y-4.9392
N6765 X1.883 Y-4.951
N6770 X1.9009 Y-4.9619
N6775 X1.9194 Y-4.9716
N6780 X1.9384 Y-4.9804
N6785 X1.9578 Y-4.988
N6790 X1.9777 Y-4.9946
N6795 X1.9979 Y-5.
N6800 X2.0184 Y-5.0042
N6805 X2.0391 Y-5.0073
N6810 X2.0599 Y-5.0093
N6815 X2.0809 Y-5.01
N6820 X2.1018 Y-5.0096
N6825 X2.1226 Y-5.008
N6830 X2.1434 Y-5.0052
N6835 X2.1639 Y-5.0013
N6840 X2.1842 Y-4.9962
N6845 X2.2042 Y-4.99
N6850 X2.2238 Y-4.9827
N6855 X2.243 Y-4.9742
N6860 X2.262 Y-4.9646
N6865 X2.2806 Y-4.9537
N6870 X2.299 Y-4.9416
N6875 X2.3171 Y-4.9281
N6880 X2.3348 Y-4.9134
N6885 X2.3518 Y-4.8975
N6890 X2.3681 Y-4.8804
N6895 X2.3835 Y-4.8623
N6900 X2.3979 Y-4.8433
N6905 X2.4114 Y-4.8234
N6910 X2.4236 Y-4.8027
N6915 X2.4347 Y-4.7815
N6920 X2.4445 Y-4.7598
N6925 X2.453 Y-4.7378
N6930 X2.4602 Y-4.7154
N6935 X2.466 Y-4.6929
N6940 X2.4706 Y-4.6702
N6945 X2.4739 Y-4.6475
N6950 X2.4758 Y-4.6248
N6955 X2.4765 Y-4.6022
N6960 X2.4759 Y-4.5796
N6965 X2.4741 Y-4.5572
N6970 X2.4709 Y-4.535
N6975 X2.4666 Y-4.5131
N6980 X2.4611 Y-4.4916
N6985 X2.4543 Y-4.4704
N6990 X2.4464 Y-4.4496
N6995 X2.4373 Y-4.4293
N7000 X2.4271 Y-4.4095
N7005 X2.4158 Y-4.3903
N7010 X2.4034 Y-4.3718
N7015 X2.3899 Y-4.354
N7020 X2.3754 Y-4.3369
N7025 X2.36 Y-4.3206
N7030 X2.3436 Y-4.3051
N7035 X2.3263 Y-4.2906
N7040 X2.3082 Y-4.277
N7045 X2.2892 Y-4.2644
N7050 X2.2695 Y-4.2528
N7055 X2.2491 Y-4.2424
N7060 X2.2281 Y-4.2331
N7065 X2.2065 Y-4.2249
N7070 X2.1844 Y-4.2179
N7075 X2.1619 Y-4.2122
N7080 X2.139 Y-4.2077
N7085 X2.1158 Y-4.2046
N7090 X2.0923 Y-4.2027
N7095 X2.0687 Y-4.2021
N7100 X2.045 Y-4.2029
N7105 X2.0214 Y-4.205
N7110 X1.9978 Y-4.2085
N7115 X1.9743 Y-4.2133
N7120 X1.9511 Y-4.2194
N7125 X1.9282 Y-4.2269
N7130 X1.9057 Y-4.2356
N7135 X1.8837 Y-4.2456
N7140 X1.8622 Y-4.2569
N7145 X1.8413 Y-4.2694
N7150 X1.8211 Y-4.2831
N7155 X1.8017 Y-4.298
N7160 X1.7831 Y-4.3139
N7165 X1.7654 Y-4.3309
N7170 X1.7487 Y-4.3489
N7175 X1.733 Y-4.3678
N7180 X1.7183 Y-4.3876
N7185 X1.7048 Y-4.4083
N7190 X1.6924 Y-4.4297
N7195 X1.6813 Y-4.4518
N7200 X1.6714 Y-4.4745
N7205 X1.6627 Y-4.4978
N7210 X1.6554 Y-4.5215
N7215 X1.6495 Y-4.5456
N7220 X1.6449 Y-4.57
N7225 X1.6417 Y-4.5947
N7230 X1.6398 Y-4.6195
N7235 X1.6394 Y-4.6445
N7240 X1.6404 Y-4.6694
N7245 X1.6428 Y-4.6942
N7250 X1.6465 Y-4.7189
N7255 X1.6517 Y-4.7433
N7260 X1.6582 Y-4.7674
N7265 X1.6661 Y-4.7911
N7270 X1.6753 Y-4.8143
N7275 X1.6858 Y-4.837
N7280 X1.6976 Y-4.8591
N7285 X1.7106 Y-4.8804
N7290 X1.7247 Y-4.901
N7295 X1.7401 Y-4.9208
N7300 X1.7565 Y-4.9397
N7305 X1.7739 Y-4.9577
N7310 X1.7924 Y-4.9746
N7315 X1.8117 Y-4.9905
N7320 X1.832 Y-5.0052
N7325 X1.853 Y-5.0188
N7330 X1.8747 Y-5.0312
N7335 X1.8972 Y-5.0423
N7340 X1.9202 Y-5.0522
N7345 X1.9437 Y-5.0608
N7350 X1.9677 Y-5.068
N7355 X1.9921 Y-5.0739
N7360 X2.0167 Y-5.0783
N7365 X2.0416 Y-5.0814
N7370 X2.0666 Y-5.0831
N7375 X2.0917 Y-5.0834
N7380 X2.1167 Y-5.0822
N7385 X2.1416 Y-5.0797
N7390 X2.1664 Y-5.0757
N7395 X2.1909 Y-5.0704
N7400 X2.2152 Y-5.0636
N7405 X2.2393 Y-5.0554
N7410 X2.2631 Y-5.0458
N7415 X2.2865 Y-5.0348
N7420 X2.3096 Y-5.0223
N7425 X2.3321 Y-5.0084
N7430 X2.3541 Y-4.9931
N7435 X2.3753 Y-4.9764
N7440 X2.3958 Y-4.9584
N7445 X2.4153 Y-4.9392
N7450 X2.4338 Y-4.9188
N7455 X2.4512 Y-4.8973
N7460 X2.4673 Y-4.8749
N7465 X2.4822 Y-4.8515
N7470 X2.4958 Y-4.8274
N7475 X2.5079 Y-4.8026
N7480 X2.5186 Y-4.7772
N7485 X2.5278 Y-4.7514
N7490 X2.5355 Y-4.7252
N7495 X2.5417 Y-4.6987
N7500 X2.5463 Y-4.6719
N7505 X2.5495 Y-4.6451
N7510 X2.5511 Y-4.6182
N7515 X2.5512 Y-4.5913
N7520 X2.5498 Y-4.5646
N7525 X2.547 Y-4.538
N7530 X2.5426 Y-4.5117
N7535 X2.5367 Y-4.4857
N7540 X2.5295 Y-4.4601
N7545 X2.5208 Y-4.435
N7550 X2.5106 Y-4.4104
N7555 X2.4992 Y-4.3865
N7560 X2.4864 Y-4.3632
N7565 X2.4722 Y-4.3406
N7570 X2.4569 Y-4.3188
N7575 X2.4403 Y-4.2979
N7580 X2.4225 Y-4.278
N7585 X2.4036 Y-4.259
N7590 X2.3835 Y-4.2411
N7595 X2.3625 Y-4.2243
N7600 X2.3405 Y-4.2087
N7605 X2.3176 Y-4.1943
N7610 X2.2939 Y-4.1812
N7615 X2.2693 Y-4.1694
N7620 X2.2441 Y-4.159
N7625 X2.2183 Y-4.1499
N7630 X2.1919 Y-4.1424
N7635 X2.165 Y-4.1363
N7640 X2.1378 Y-4.1317
N7645 X2.1103 Y-4.1286
N7650 X2.0825 Y-4.1271
N7655 X2.0546 Y-4.1272
N7660 X2.0267 Y-4.1288
N7665 X1.9989 Y-4.132
N7670 X1.9712 Y-4.1368
N7675 X1.9437 Y-4.1432
N7680 X1.9166 Y-4.1511
N7685 X1.8899 Y-4.1605
N7690 X1.8637 Y-4.1715
N7695 X1.8381 Y-4.184
N7700 X1.8132 Y-4.1979
N7705 X1.789 Y-4.2132
N7710 X1.7657 Y-4.2299
N7715 X1.7434 Y-4.2479
N7720 X1.7221 Y-4.2671
N7725 X1.7018 Y-4.2876
N7730 X1.6827 Y-4.3092
N7735 X1.6648 Y-4.3319
N7740 X1.6483 Y-4.3556
N7745 X1.633 Y-4.3802
N7750 X1.6192 Y-4.4056
N7755 X1.6067 Y-4.4318
N7760 X1.5958 Y-4.4588
N7765 X1.5864 Y-4.4863
N7770 X1.5786 Y-4.5143
N7775 X1.5723 Y-4.5427
N7780 X1.5676 Y-4.5715
N7785 X1.5646 Y-4.6005
N7790 X1.5632 Y-4.6296
N7795 X1.5635 Y-4.6588
N7800 X1.5654 Y-4.688
N7805 X1.5689 Y-4.717
N7810 X1.5741 Y-4.7458
N7815 X1.5808 Y-4.7742
N7820 X1.5892 Y-4.8022
N7825 X1.5991 Y-4.8298
N7830 X1.6106 Y-4.8567
N7835 X1.6236 Y-4.883
N7840 X1.638 Y-4.9085
N7845 X1.6539 Y-4.9331
N7850 X1.6711 Y-4.9568
N7855 X1.6897 Y-4.9795
N7860 X1.7094 Y-5.0012
N7865 X1.7304 Y-5.0216
N7870 X1.7525 Y-5.0409
N7875 X1.7757 Y-5.0589
N7880 X1.7998 Y-5.0756
N7885 X1.8249 Y-5.0909
N7890 X1.8507 Y-5.1048
N7895 X1.8773 Y-5.1172
N7900 X1.9046 Y-5.128
N7905 X1.9324 Y-5.1373
N7910 X1.9607 Y-5.1451
N7915 X1.9894 Y-5.1512
N7920 X2.0184 Y-5.1557
N7925 X2.0477 Y-5.1586
N7930 X2.077 Y-5.1598
N7935 X2.1064 Y-5.1594
N7940 X2.1358 Y-5.1573
N7945 X2.1651 Y-5.1535
N7950 X2.1943 Y-5.1481
N7955 X2.2232 Y-5.141
N7960 X2.2519 Y-5.1322
N7965 X2.2802 Y-5.1218
N7970 X2.308 Y-5.1097
N7975 X2.3353 Y-5.096
N7980 X2.362 Y-5.0807
N7985 X2.3879 Y-5.0637
N7990 X2.413 Y-5.0453
N7995 X2.4371 Y-5.0253
N8000 X2.4602 Y-5.0039
N8005 X2.4822 Y-4.9812
N8010 X2.5028 Y-4.9572
N8015 X2.5222 Y-4.932
N8020 X2.5401 Y-4.9057
N8025 X2.5565 Y-4.8785
N8030 X2.5713 Y-4.8504
N8035 X2.5845 Y-4.8215
N8040 X2.5961 Y-4.792
N8045 X2.6059 Y-4.762
N8050 X2.614 Y-4.7315
N8055 X2.6204 Y-4.7006
N8060 X2.625 Y-4.6696
N8065 X2.6279 Y-4.6384
N8070 X2.629 Y-4.6071
N8075 X2.6283 Y-4.5759
N8080 X2.6259 Y-4.5448
N8085 X2.6218 Y-4.514
N8090 X2.6159 Y-4.4835
N8095 X2.6083 Y-4.4534
N8100 X2.599 Y-4.4238
N8105 X2.5881 Y-4.3947
N8110 X2.5756 Y-4.3664
N8115 X2.5615 Y-4.3387
N8120 X2.5459 Y-4.3119
N8125 X2.5287 Y-4.286
N8130 X2.5101 Y-4.2611
N8135 X2.4901 Y-4.2372
N8140 X2.4688 Y-4.2145
N8145 X2.4462 Y-4.1929
N8150 X2.4223 Y-4.1726
N8155 X2.3973 Y-4.1537
N8160 X2.3712 Y-4.1362
N8165 X2.3442 Y-4.1201
N8170 X2.3161 Y-4.1056
N8175 X2.2873 Y-4.0926
N8180 X2.2577 Y-4.0812
N8185 X2.2274 Y-4.0715
N8190 X2.1965 Y-4.0635
N8195 X2.1652 Y-4.0572
N8200 X2.1335 Y-4.0527
N8205 X2.1014 Y-4.05
N8210 X2.0692 Y-4.049
N8215 X2.0369 Y-4.0499
N8220 X2.0047 Y-4.0527
N8225 X1.9725 Y-4.0572
N8230 X1.9406 Y-4.0636
N8235 X1.9091 Y-4.0717
N8240 X1.8779 Y-4.0817
N8245 X1.8474 Y-4.0934
N8250 X1.8174 Y-4.1068
N8255 X1.7882 Y-4.122
N8260 X1.7599 Y-4.1387
N8265 X1.7325 Y-4.1571
N8270 X1.7061 Y-4.1771
N8275 X1.6809 Y-4.1985
N8280 X1.6569 Y-4.2213
N8285 X1.6341 Y-4.2455
N8290 X1.6127 Y-4.271
N8295 X1.5928 Y-4.2976
N8300 X1.5744 Y-4.3254
N8305 X1.5576 Y-4.3542
N8310 X1.5423 Y-4.384
N8315 X1.5288 Y-4.4145
N8320 X1.517 Y-4.4458
N8325 X1.507 Y-4.4778
N8330 X1.4988 Y-4.5103
N8335 X1.4924 Y-4.5432
N8340 X1.4879 Y-4.5765
N8345 X1.4853 Y-4.6099
N8350 X1.4845 Y-4.6435
N8355 X1.4857 Y-4.6771
N8360 X1.4887 Y-4.7106
N8365 X1.4936 Y-4.7439
N8370 X1.5004 Y-4.7769
N8375 X1.5091 Y-4.8094
N8380 X1.5195 Y-4.8414
N8385 X1.5318 Y-4.8728
N8390 X1.5458 Y-4.9035
N8395 X1.5615 Y-4.9333
N8400 X1.5789 Y-4.9622
N8405 X1.5978 Y-4.9901
N8410 X1.6183 Y-5.0169
N8415 X1.6403 Y-5.0425
N8420 X1.6637 Y-5.0668
N8425 X1.6885 Y-5.0897
N8430 X1.7145 Y-5.1113
N8435 X1.7417 Y-5.1313
N8440 X1.7699 Y-5.1498
N8445 X1.7992 Y-5.1667
N8450 X1.8293 Y-5.1818
N8455 X1.8603 Y-5.1953
N8460 X1.892 Y-5.207
N8465 X1.9243 Y-5.2169
N8470 X1.9571 Y-5.225
N8475 X1.9903 Y-5.2312
N8480 X2.0239 Y-5.2355
N8485 X2.0576 Y-5.238
N8490 X2.0915 Y-5.2385
N8495 X2.1255 Y-5.2371
N8500 X2.1594 Y-5.2338
N8505 X2.1932 Y-5.2286
N8510 X2.2268 Y-5.2215
N8515 X2.2601 Y-5.2124
N8520 X2.2929 Y-5.2015
N8525 X2.3253 Y-5.1886
N8530 X2.357 Y-5.1738
N8535 X2.388 Y-5.1573
N8540 X2.4182 Y-5.1389
N8545 X2.4474 Y-5.1187
N8550 X2.4756 Y-5.0969
N8555 X2.5025 Y-5.0734
N8560 X2.5282 Y-5.0483
N8565 X2.5525 Y-5.0218
N8570 X2.5754 Y-4.9939
N8575 X2.5966 Y-4.9647
N8580 X2.6161 Y-4.9344
N8585 X2.634 Y-4.903
N8590 X2.65 Y-4.8706
N8595 X2.6642 Y-4.8374
N8600 X2.6764 Y-4.8036
N8605 X2.6868 Y-4.7691
N8610 X2.6951 Y-4.7342
N8615 X2.7015 Y-4.6988
N8620 X2.7058 Y-4.6633
N8625 X2.7082 Y-4.6276
N8630 X2.7085 Y-4.5918
N8635 X2.7069 Y-4.5562
N8640 X2.7032 Y-4.5207
N8645 X2.6975 Y-4.4856
N8650 X2.6899 Y-4.4508
N8655 X2.6803 Y-4.4166
N8660 X2.6689 Y-4.3829
N8665 X2.6555 Y-4.35
N8670 X2.6403 Y-4.3178
N8675 X2.6234 Y-4.2865
N8680 X2.6046 Y-4.2563
N8685 X2.5842 Y-4.2271
N8690 X2.5622 Y-4.1991
N8695 X2.5386 Y-4.1723
N8700 X2.5134 Y-4.1469
N8705 X2.4869 Y-4.1228
N8710 X2.459 Y-4.1003
N8715 X2.4298 Y-4.0794
N8720 X2.3995 Y-4.0601
N8725 X2.368 Y-4.0425
N8730 X2.3355 Y-4.0267
N8735 X2.3022 Y-4.0127
N8740 X2.268 Y-4.0005
N8745 X2.2331 Y-3.9903
N8750 X2.1976 Y-3.9821
N8755 X2.1616 Y-3.9758
N8760 X2.1253 Y-3.9716
N8765 X2.0887 Y-3.9694
N8770 X2.0519 Y-3.9693
N8775 X2.0151 Y-3.9713
N8780 X1.9784 Y-3.9753
N8785 X1.9419 Y-3.9814
N8790 X1.9058 Y-3.9896
N8795 X1.8701 Y-3.9998
N8800 X1.8349 Y-4.012
N8805 X1.8005 Y-4.0263
N8810 X1.7668 Y-4.0424
N8815 X1.7341 Y-4.0605
N8820 X1.7023 Y-4.0804
N8825 X1.6717 Y-4.1021
N8830 X1.6423 Y-4.1255
N8835 X1.6143 Y-4.1506
N8840 X1.5876 Y-4.1772
N8845 X1.5625 Y-4.2054
N8850 X1.539 Y-4.2349
N8855 X1.5171 Y-4.2658
N8860 X1.497 Y-4.2979
N8865 X1.4787 Y-4.3311
N8870 X1.4623 Y-4.3653
N8875 X1.4478 Y-4.4004
N8880 X1.4354 Y-4.4362
N8885 X1.4249 Y-4.4728
N8890 X1.4165 Y-4.5099
N8895 X1.4153 Y-4.5174
N8900 X1.4143 Y-4.5248
N8905 X1.4137 Y-4.5323
N8910 X1.4136 Y-4.5399
N8915 X1.414 Y-4.571
N8920 X1.4142 Y-4.5822
N8925 X1.4141 Y-4.5935
N8930 X1.4127 Y-4.6272
N8935 X1.4122 Y-4.6384
N8940 X1.4124 Y-4.6834
N8945 X1.4138 Y-4.7144
N8950 X1.417 Y-4.7467
N8955 X1.4222 Y-4.7799
N8960 X1.4295 Y-4.8138
N8965 X1.4389 Y-4.8478
N8970 X1.4503 Y-4.8819
N8975 X1.4639 Y-4.9157
N8980 X1.4794 Y-4.9489
N8985 X1.497 Y-4.9815
N8990 X1.5164 Y-5.0133
N8995 X1.5378 Y-5.0441
N9000 X1.561 Y-5.0738
N9005 X1.5859 Y-5.1023
N9010 X1.6125 Y-5.1294
N9015 X1.6406 Y-5.155
N9020 X1.6701 Y-5.179
N9025 X1.7011 Y-5.2014
N9030 X1.7332 Y-5.222
N9035 X1.7665 Y-5.2408
N9040 X1.8008 Y-5.2577
N9045 X1.8361 Y-5.2726
N9050 X1.8721 Y-5.2856
N9055 X1.9088 Y-5.2965
N9060 X1.9462 Y-5.3053
N9065 X1.9839 Y-5.312
N9070 X2.0221 Y-5.3166
N9075 X2.0384 Y-5.3176
N9080 X2.0462 Y-5.3179
N9085 X2.054 Y-5.3176
N9090 X2.0618 Y-5.3169
N9095 X2.1205 Y-5.3096
N9100 X2.1317 Y-5.3082
N9105 X2.143 Y-5.3069
N9110 X2.1542 Y-5.3058
N9115 X2.1767 Y-5.3036
N9120 X2.2212 Y-5.2972
N9125 X2.2509 Y-5.292
N9130 X2.2822 Y-5.2848
N9135 X2.3145 Y-5.2753
N9140 X2.3475 Y-5.2636
N9145 X2.3807 Y-5.2496
N9150 X2.4139 Y-5.2334
N9155 X2.4468 Y-5.215
N9160 X2.4791 Y-5.1944
N9165 X2.5105 Y-5.1719
N9170 X2.5409 Y-5.1473
N9175 X2.5701 Y-5.1209
N9180 X2.598 Y-5.0927
N9185 X2.6244 Y-5.0627
N9190 X2.6492 Y-5.0312
N9195 X2.6722 Y-4.9982
N9200 X2.6934 Y-4.9639
N9205 X2.7127 Y-4.9283
N9210 X2.73 Y-4.8918
N9215 X2.7452 Y-4.8542
N9220 X2.7582 Y-4.8159
N9225 X2.7691 Y-4.7769
N9230 X2.7777 Y-4.7374
N9235 X2.7841 Y-4.6975
N9240 X2.7883 Y-4.6574
N9245 X2.7902 Y-4.6171
N9250 X2.7898 Y-4.5768
N9255 X2.7871 Y-4.5366
N9260 X2.7822 Y-4.4967
N9265 X2.775 Y-4.4571
N9270 X2.7657 Y-4.418
N9275 X2.7541 Y-4.3795
N9280 X2.7404 Y-4.3417
N9285 X2.7246 Y-4.3048
N9290 X2.7068 Y-4.2688
N9295 X2.6956 Y-4.2491
N9300 X2.6872 Y-4.2363
N9305 X2.6774 Y-4.2246
N9310 X2.6662 Y-4.2142
N9315 X2.6538 Y-4.2052
N9320 X2.3904 Y-4.0382
N9325 X2.3791 Y-4.031
N9330 X2.3566 Y-4.0163
N9335 X2.2667 Y-3.9561
N9340 X2.2462 Y-3.9438
N9345 X2.2319 Y-3.9363
N9350 X2.2146 Y-3.9284
N9355 X2.1964 Y-3.9213
N9360 X2.1747 Y-3.9142
N9365 X2.1517 Y-3.9082
N9370 X2.1263 Y-3.903
N9375 X2.0979 Y-3.8988
N9380 X2.0676 Y-3.8961
N9385 X2.0364 Y-3.895
N9390 X2.003 Y-3.8958
N9395 X1.9679 Y-3.8986
N9400 X1.9316 Y-3.9035
N9405 X1.8945 Y-3.9107
N9410 X1.857 Y-3.9203
N9415 X1.8193 Y-3.9321
N9420 X1.7819 Y-3.9462
N9425 X1.745 Y-3.9626
N9430 X1.7087 Y-3.9812
N9435 X1.6733 Y-4.0019
N9440 X1.6388 Y-4.0248
N9445 X1.6056 Y-4.0497
N9450 X1.5736 Y-4.0766
N9455 X1.543 Y-4.1054
N9460 X1.5141 Y-4.1359
N9465 X1.4868 Y-4.1681
N9470 X1.4613 Y-4.2018
N9475 X1.4377 Y-4.237
N9480 X1.4268 Y-4.2555
N9485 X1.4188 Y-4.2717
N9490 X1.4131 Y-4.2888
N9495 X1.41 Y-4.3066
N9500 X1.4095 Y-4.3246
N9505 X1.4104 Y-4.3461
N9510 X1.4108 Y-4.3574
N9515 X1.4136 Y-4.5399
N9520 G3 X1.4516 Y-4.5768 Z-0.1795 I0.0375 J0.0006
N9525 X1.4136 Y-4.5403 I-0.0005 J0.0375
N9530 G1 X1.4161 Y-4.6308
N9535 G3 X1.4442 Y-4.5935 I0.0375 J0.001
N9540 X1.4223 Y-4.6092 Z-0.1833 I0.0094 J-0.0363
N9545 G1 X1.4219 Y-4.6097
N9550 G3 X1.4122 Y-4.6384 Z-0.1875 I0.0524 J-0.0337
N9555 G1 X1.4041 Y-4.8183
N9560 X1.4034 Y-4.8296
N9565 X1.4019 Y-4.852
N9570 X1.4013 Y-4.8669
N9575 X1.4016 Y-4.8804
N9580 X1.4028 Y-4.8963
N9585 X1.4051 Y-4.913
N9590 X1.4088 Y-4.9322
N9595 X1.4137 Y-4.9519
N9600 X1.4207 Y-4.9744
N9605 X1.4293 Y-4.9974
N9610 X1.4402 Y-5.022
N9615 X1.4536 Y-5.0484
N9620 X1.4695 Y-5.0757
N9625 X1.4873 Y-5.1027
N9630 X1.5079 Y-5.1303
N9635 X1.5313 Y-5.1582
N9640 X1.5571 Y-5.1858
N9645 X1.5853 Y-5.2126
N9650 X1.6156 Y-5.2384
N9655 X1.6478 Y-5.2629
N9660 X1.6819 Y-5.2859
N9665 X1.7175 Y-5.307
N9670 X1.7546 Y-5.3263
N9675 X1.7728 Y-5.3345
N9680 X1.7888 Y-5.3405
N9685 X1.8055 Y-5.3442
N9690 X1.8225 Y-5.3456
N9695 X1.8396 Y-5.3446
N9700 X2.0618 Y-5.3169
N9705 G3 X2.0929 Y-5.274 Z-0.1795 I-0.0059 J0.037
N9710 X2.077 Y-5.249 I-0.037 J-0.0059
N9715 G1 X1.4603 Y-4.8256
N9720 G3 X1.4436 Y-4.8193 I-0.0212 J-0.0309
N9725 X1.4019 Y-4.852 Z-0.1875 I-0.0045 J-0.0372
N9730 G1 X1.4009 Y-4.8633
N9735 X1.3896 Y-4.9693
N9740 X1.3887 Y-4.9863
N9745 Y-4.9972
N9750 X1.3894 Y-5.0094
N9755 X1.3909 Y-5.0226
N9760 X1.3934 Y-5.0374
N9765 X1.397 Y-5.0531
N9770 X1.4021 Y-5.0705
N9775 X1.4087 Y-5.0892
N9780 X1.4169 Y-5.1089
N9785 X1.4276 Y-5.131
N9790 X1.4397 Y-5.1528
N9795 X1.4548 Y-5.1766
N9800 X1.4728 Y-5.2019
N9805 X1.4929 Y-5.2269
N9810 X1.5158 Y-5.2522
N9815 X1.5418 Y-5.2781
N9820 X1.5709 Y-5.3039
N9825 X1.6028 Y-5.3291
N9830 X1.6178 Y-5.3396
N9835 X1.6336 Y-5.3491
N9840 X1.6506 Y-5.3561
N9845 X1.6684 Y-5.3605
N9850 X1.6867 Y-5.3623
N9855 X1.7051 Y-5.3614
N9860 X1.8396 Y-5.3446
N9865 G3 X1.8707 Y-5.3017 Z-0.1795 I-0.0059 J0.037
N9870 X1.8574 Y-5.2786 I-0.037 J-0.0059
N9875 G1 X1.4505 Y-4.9455
N9880 G3 X1.432 Y-4.9374 I-0.0238 J-0.029
N9885 X1.3896 Y-4.9693 Z-0.1875 I-0.0052 J-0.0371
N9890 G1 X1.3806 Y-5.0544
N9895 X1.3795 Y-5.0656
N9900 X1.3775 Y-5.0881
N9905 X1.3772 Y-5.0991
N9910 X1.3776 Y-5.1097
N9915 X1.3785 Y-5.1207
N9920 X1.3803 Y-5.1334
N9925 X1.383 Y-5.1467
N9930 X1.3869 Y-5.1619
N9935 X1.3919 Y-5.1773
N9940 X1.3988 Y-5.1951
N9945 X1.4068 Y-5.2129
N9950 X1.4172 Y-5.2329
N9955 X1.4295 Y-5.2536
N9960 X1.4441 Y-5.2752
N9965 X1.4619 Y-5.2987
N9970 X1.48 Y-5.32
N9975 X1.4827 Y-5.3228
N9980 X1.4939 Y-5.3331
N9985 X1.5062 Y-5.342
N9990 X1.5195 Y-5.3494
N9995 X1.5336 Y-5.3551
N10000 G3 X1.5802 Y-5.3298 Z-0.1795 I0.0106 J0.036
N10005 X1.5768 Y-5.3005 I-0.036 J0.0107
N10010 G1 X1.4473 Y-5.0741
N10015 G3 X1.4193 Y-5.0555 I-0.0326 J-0.0186
N10020 X1.3775 Y-5.0881 Z-0.1875 I-0.0045 J-0.0372
N10025 G1 X1.3767 Y-5.0994
N10030 X1.3752 Y-5.1331
N10035 Y-5.1443
N10040 X1.3784 Y-5.1673
N10045 X1.3799 Y-5.1781
N10050 X1.3808 Y-5.1837
N10055 X1.3822 Y-5.1893
N10060 X1.3936 Y-5.223
N10065 X1.3958 Y-5.2287
N10070 X1.3989 Y-5.2343
N10075 X1.4121 Y-5.258
N10080 X1.4183 Y-5.268
N10085 X1.437 Y-5.2905
N10090 X1.4459 Y-5.3007
N10095 X1.447 Y-5.3017
N10100 X1.4741 Y-5.3242
N10105 X1.4796 Y-5.3285
N10110 X1.4919 Y-5.3355
N10115 X1.5133 Y-5.3473
N10120 X1.519 Y-5.3501
N10125 X1.5246 Y-5.3521
N10130 X1.5471 Y-5.3596
N10135 X1.5583 Y-5.3633
N10140 X1.5695 Y-5.3651
N10145 X1.5988 Y-5.3692
N10150 X1.6033 Y-5.3696
N10155 X1.6145 Y-5.3693
N10160 X1.6483 Y-5.3677
N10165 X1.6595 Y-5.3666
N10170 X1.682 Y-5.3642
N10175 X1.6932 Y-5.3629
N10180 X1.7051 Y-5.3614
N10185 G3 X1.7339 Y-5.3385 Z-0.1823 I-0.0059 J0.037
N10190 G1 X1.7416 Y-5.3196 Z-0.1795
N10195 X2.2761 Y-4.0089
N10200 X2.2794 Y-4.0006 Z-0.1807
N10205 G3 X2.2667 Y-3.9561 Z-0.1875 I-0.0347 J0.0142
N10210 G1 X2.1441 Y-3.874
N10215 X2.131 Y-3.8661
N10220 X2.1207 Y-3.8607
N10225 X2.1081 Y-3.855
N10230 X2.0949 Y-3.8498
N10235 X2.0788 Y-3.8445
N10240 X2.062 Y-3.8401
N10245 X2.042 Y-3.836
N10250 X2.0208 Y-3.8329
N10255 X1.9971 Y-3.8308
N10260 X1.9703 Y-3.8299
N10265 X1.9429 Y-3.8305
N10270 X1.9126 Y-3.8329
N10275 X1.8797 Y-3.8374
N10280 X1.8451 Y-3.8441
N10285 X1.8103 Y-3.8529
N10290 X1.7741 Y-3.8643
N10295 X1.7367 Y-3.8784
N10300 X1.6988 Y-3.8952
N10305 X1.6609 Y-3.9147
N10310 X1.6233 Y-3.9367
N10315 X1.5864 Y-3.9612
N10320 X1.5504 Y-3.9882
N10325 X1.516 Y-4.0171
N10330 X1.4832 Y-4.0479
N10335 X1.4522 Y-4.0804
N10340 X1.4262 Y-4.1109
N10345 X1.4251 Y-4.1123
N10350 X1.4152 Y-4.1275
N10355 X1.4076 Y-4.1439
N10360 X1.4025 Y-4.1613
N10365 X1.3999 Y-4.1793
N10370 X1.4 Y-4.1974
N10375 X1.4087 Y-4.3124
N10380 X1.4095 Y-4.3236
N10385 Y-4.3246
N10390 G3 X1.4498 Y-4.359 Z-0.1795 I0.0374 J0.0029
N10395 X1.4666 Y-4.3535 I-0.0029 J0.0374
N10400 G1 X2.1419 Y-3.9363
N10405 G3 X2.1526 Y-3.9263 I-0.0197 J0.0319
N10410 X2.1441 Y-3.874 Z-0.1875 I-0.0304 J0.0219
N10415 G1 X2.0434 Y-3.8065
N10420 X2.0354 Y-3.8017
N10425 X2.0266 Y-3.7971
N10430 X2.0159 Y-3.7922
N10435 X2.0044 Y-3.7877
N10440 X1.9909 Y-3.7833
N10445 X1.9761 Y-3.7794
N10450 X1.9591 Y-3.7759
N10455 X1.9408 Y-3.7732
N10460 X1.9196 Y-3.7713
N10465 X1.8979 Y-3.7706
N10470 X1.8728 Y-3.7712
N10475 X1.8458 Y-3.7733
N10480 X1.8175 Y-3.7772
N10485 X1.7861 Y-3.7833
N10490 X1.7522 Y-3.7918
N10495 X1.7182 Y-3.8025
N10500 X1.6825 Y-3.816
N10505 X1.6451 Y-3.8326
N10510 X1.6067 Y-3.8523
N10515 X1.5681 Y-3.8749
N10520 X1.5307 Y-3.8998
N10525 X1.4946 Y-3.9266
N10530 X1.4601 Y-3.9554
N10535 X1.4349 Y-3.9787
N10540 X1.4246 Y-3.9894
N10545 X1.4132 Y-4.0031
N10550 X1.4039 Y-4.0184
N10555 X1.397 Y-4.0348
N10560 X1.3926 Y-4.052
N10565 X1.3908 Y-4.0698
N10570 X1.3916 Y-4.0876
N10575 X1.3968 Y-4.155
N10580 X1.4 Y-4.1974
N10585 G3 X1.4414 Y-4.2306 Z-0.1795 I0.0373 J0.0041
N10590 X1.4568 Y-4.2253 I-0.0041 J0.0373
N10595 G1 X2.041 Y-3.8689
N10600 G3 X2.0519 Y-3.8588 I-0.0195 J0.032
N10605 X2.0434 Y-3.8065 Z-0.1875 I-0.0304 J0.0219
N10610 G1 X1.9595 Y-3.7503
N10615 X1.9483 Y-3.7436
N10620 X1.9397 Y-3.739
N10625 X1.9304 Y-3.7348
N10630 X1.9195 Y-3.7306
N10635 X1.9076 Y-3.7267
N10640 X1.8939 Y-3.723
N10645 X1.8789 Y-3.72
N10650 X1.8617 Y-3.7174
N10655 X1.8434 Y-3.7158
N10660 X1.8222 Y-3.7151
N10665 X1.8005 Y-3.7156
N10670 X1.7755 Y-3.7176
N10675 X1.7487 Y-3.7212
N10680 X1.7205 Y-3.7267
N10685 X1.6891 Y-3.7347
N10690 X1.6553 Y-3.7453
N10695 X1.6216 Y-3.758
N10700 X1.5854 Y-3.774
N10705 X1.5477 Y-3.7934
N10710 X1.5091 Y-3.816
N10715 X1.473 Y-3.84
N10720 X1.4463 Y-3.8599
N10725 X1.4276 Y-3.8757
N10730 X1.4172 Y-3.8854
N10735 X1.4057 Y-3.8979
N10740 X1.3959 Y-3.9118
N10745 X1.3881 Y-3.9269
N10750 X1.3825 Y-3.9429
N10755 X1.3791 Y-3.9595
N10760 X1.3779 Y-3.9765
N10765 X1.3791 Y-3.9934
N10770 X1.3873 Y-4.0538
N10775 X1.3903 Y-4.0763
N10780 X1.3916 Y-4.0876
N10785 G3 X1.4344 Y-4.1189 Z-0.1795 I0.0371 J0.0057
N10790 X1.4478 Y-4.1141 I-0.0057 J0.0371
N10795 G1 X1.9567 Y-3.813
N10800 G3 X1.968 Y-3.8026 I-0.0191 J0.0323
N10805 X1.9595 Y-3.7503 Z-0.1875 I-0.0304 J0.0219
N10810 G1 X1.9428 Y-3.739
N10815 X1.9406 Y-3.7375
N10820 X1.8844 Y-3.6978
N10825 X1.8728 Y-3.6904
N10830 X1.865 Y-3.6861
N10835 X1.8566 Y-3.682
N10840 X1.8466 Y-3.6778
N10845 X1.8358 Y-3.674
N10850 X1.8233 Y-3.6703
N10855 X1.8098 Y-3.6672
N10860 X1.7943 Y-3.6645
N10865 X1.7777 Y-3.6626
N10870 X1.7584 Y-3.6615
N10875 X1.7386 Y-3.6614
N10880 X1.7156 Y-3.6627
N10885 X1.6915 Y-3.6653
N10890 X1.6653 Y-3.6697
N10895 X1.6358 Y-3.6764
N10900 X1.6057 Y-3.6851
N10905 X1.5732 Y-3.6964
N10910 X1.5387 Y-3.7107
N10915 X1.5049 Y-3.7269
N10920 X1.4738 Y-3.7441
N10925 X1.4487 Y-3.7598
N10930 X1.4298 Y-3.7733
N10935 X1.4133 Y-3.7864
N10940 X1.4071 Y-3.792
N10945 X1.3949 Y-3.8045
N10950 X1.3846 Y-3.8186
N10955 X1.3764 Y-3.834
N10960 X1.3704 Y-3.8503
N10965 X1.3667 Y-3.8674
N10970 X1.3654 Y-3.8848
N10975 X1.3666 Y-3.9022
N10980 X1.3791 Y-3.9934
N10985 G3 X1.4224 Y-4.024 Z-0.1795 I0.037 J0.0064
N10990 X1.4349 Y-4.0194 I-0.0064 J0.037
N10995 G1 X1.8805 Y-3.76
N11000 G3 X1.8915 Y-3.7503 I-0.0189 J0.0324
N11005 X1.8844 Y-3.6978 Z-0.1875 I-0.0299 J0.0227
N11010 G1 X1.8057 Y-3.6421
N11015 X1.7972 Y-3.6367
N11020 X1.7901 Y-3.6328
N11025 X1.7814 Y-3.6285
N11030 X1.7722 Y-3.6247
N11035 X1.7612 Y-3.6208
N11040 X1.7496 Y-3.6174
N11045 X1.7359 Y-3.6142
N11050 X1.7215 Y-3.6117
N11055 X1.7046 Y-3.6098
N11060 X1.6872 Y-3.6088
N11065 X1.667 Y-3.6087
N11070 X1.6456 Y-3.6099
N11075 X1.6222 Y-3.6125
N11080 X1.596 Y-3.6169
N11085 X1.5695 Y-3.6229
N11090 X1.5415 Y-3.6309
N11095 X1.513 Y-3.6408
N11100 X1.4856 Y-3.6521
N11105 X1.4609 Y-3.664
N11110 X1.4397 Y-3.6757
N11115 X1.423 Y-3.6863
N11120 X1.4073 Y-3.6974
N11125 X1.3942 Y-3.7079
N11130 X1.3818 Y-3.7206
N11135 X1.3715 Y-3.735
N11140 X1.3632 Y-3.7507
N11145 X1.3573 Y-3.7674
N11150 X1.3539 Y-3.7848
N11155 X1.3529 Y-3.8024
N11160 X1.3545 Y-3.8201
N11165 X1.3578 Y-3.8402
N11170 X1.3596 Y-3.8515
N11175 X1.3666 Y-3.9022
N11180 G3 X1.4099 Y-3.9327 Z-0.1795 I0.037 J0.0064
N11185 X1.4226 Y-3.9281 I-0.0064 J0.037
N11190 G1 X1.802 Y-3.7042
N11195 G3 X1.8128 Y-3.6946 I-0.0191 J0.0323
N11200 X1.8057 Y-3.6421 Z-0.1875 I-0.0299 J0.0227
N11205 G1 X1.7311 Y-3.5893
N11210 X1.7231 Y-3.5843
N11215 X1.7161 Y-3.5804
N11220 X1.7077 Y-3.5763
N11225 X1.6987 Y-3.5725
N11230 X1.6879 Y-3.5687
N11235 X1.6766 Y-3.5654
N11240 X1.6632 Y-3.5623
N11245 X1.6493 Y-3.5599
N11250 X1.6333 Y-3.558
N11255 X1.616 Y-3.557
N11260 X1.5975
N11265 X1.5769 Y-3.5581
N11270 X1.5556 Y-3.5604
N11275 X1.5336 Y-3.5642
N11280 X1.5108 Y-3.5693
N11285 X1.4882 Y-3.5758
N11290 X1.4661 Y-3.5835
N11295 X1.4463 Y-3.5917
N11300 X1.4287 Y-3.6002
N11305 X1.414 Y-3.6083
N11310 X1.3996 Y-3.6173
N11315 X1.3877 Y-3.6257
N11320 X1.3853 Y-3.6277
N11325 X1.371 Y-3.641
N11330 X1.359 Y-3.6564
N11335 X1.3496 Y-3.6735
N11340 X1.3429 Y-3.6918
N11345 X1.3391 Y-3.7109
N11350 X1.3384 Y-3.7304
N11355 X1.3407 Y-3.7498
N11360 X1.352 Y-3.8065
N11365 X1.3542 Y-3.8177
N11370 X1.3545 Y-3.8201
N11375 G3 X1.3986 Y-3.8495 Z-0.1795 I0.0368 J0.0073
N11380 X1.4109 Y-3.8448 I-0.0073 J0.0368
N11385 G1 X1.7279 Y-3.6512
N11390 G3 X1.7382 Y-3.6419 I-0.0195 J0.032
N11395 X1.7311 Y-3.5893 Z-0.1875 I-0.0299 J0.0227
N11400 G1 X1.6595 Y-3.5387
N11405 X1.6504 Y-3.533
N11410 X1.6434 Y-3.5291
N11415 X1.6355 Y-3.5252
N11420 X1.6265 Y-3.5214
N11425 X1.6167 Y-3.5179
N11430 X1.6054 Y-3.5147
N11435 X1.5935 Y-3.5119
N11440 X1.5799 Y-3.5095
N11445 X1.5657 Y-3.5079
N11450 X1.5503 Y-3.507
N11455 X1.5335
N11460 X1.5163 Y-3.5079
N11465 X1.4987 Y-3.5098
N11470 X1.4809 Y-3.5128
N11475 X1.463 Y-3.5169
N11480 X1.4458 Y-3.5218
N11485 X1.4305 Y-3.5272
N11490 X1.4154 Y-3.5334
N11495 X1.4026 Y-3.5395
N11500 X1.3894 Y-3.5468
N11505 X1.3786 Y-3.5537
N11510 X1.3672 Y-3.5617
N11515 X1.354 Y-3.5741
N11520 X1.3428 Y-3.5884
N11525 X1.334 Y-3.6042
N11530 X1.3278 Y-3.6212
N11535 X1.3243 Y-3.639
N11540 X1.3236 Y-3.6571
N11545 X1.3258 Y-3.675
N11550 X1.3407 Y-3.7498
N11555 G3 X1.3857 Y-3.7777 Z-0.1795 I0.0365 J0.0086
N11560 X1.3979 Y-3.7724 I-0.0086 J0.0365
N11565 G1 X1.6576 Y-3.5998
N11570 G3 X1.6666 Y-3.5912 I-0.0208 J0.0312
N11575 X1.6595 Y-3.5387 Z-0.1875 I-0.0299 J0.0227
N11580 G1 X1.5886 Y-3.4886
N11585 X1.581 Y-3.4837
N11590 X1.5743 Y-3.48
N11595 X1.5671 Y-3.4765
N11600 X1.5589 Y-3.4731
N11605 X1.5498 Y-3.4698
N11610 X1.5401 Y-3.467
N11615 X1.5292 Y-3.4645
N11620 X1.5176 Y-3.4625
N11625 X1.5056 Y-3.4611
N11630 X1.4926 Y-3.4603
N11635 X1.4791
N11640 X1.4652 Y-3.461
N11645 X1.4511 Y-3.4626
N11650 X1.4368 Y-3.465
N11655 X1.4233 Y-3.4681
N11660 X1.4106 Y-3.4717
N11665 X1.398 Y-3.4761
N11670 X1.387 Y-3.4806
N11675 X1.3754 Y-3.4862
N11680 X1.3655 Y-3.4917
N11685 X1.3555 Y-3.498
N11690 X1.3419 Y-3.5094
N11695 X1.3304 Y-3.5229
N11700 X1.3213 Y-3.5381
N11705 X1.3148 Y-3.5546
N11710 X1.311 Y-3.5719
N11715 X1.3102 Y-3.5896
N11720 X1.3122 Y-3.6072
N11725 X1.3229 Y-3.6603
N11730 X1.3258 Y-3.675
N11735 G3 X1.3709 Y-3.7029 Z-0.1795 I0.0365 J0.0086
N11740 X1.3843 Y-3.6968 I-0.0086 J0.0365
N11745 G1 X1.588 Y-3.5488
N11750 G3 X1.5958 Y-3.5411 I-0.022 J0.0303
N11755 X1.5886 Y-3.4886 Z-0.1875 I-0.0299 J0.0227
N11760 G1 X1.5295 Y-3.4467
N11765 X1.5246 Y-3.4432
N11770 X1.5188 Y-3.4394
N11775 X1.5134 Y-3.4363
N11780 X1.507 Y-3.4331
N11785 X1.5001 Y-3.43
N11790 X1.4926 Y-3.4272
N11795 X1.4843 Y-3.4247
N11800 X1.4755 Y-3.4225
N11805 X1.4662 Y-3.4207
N11810 X1.4563 Y-3.4194
N11815 X1.4458 Y-3.4186
N11820 X1.435 Y-3.4184
N11825 X1.4238 Y-3.4188
N11830 X1.4131 Y-3.4198
N11835 X1.4029 Y-3.4214
N11840 X1.392 Y-3.4237
N11845 X1.3825 Y-3.4262
N11850 X1.3727 Y-3.4295
N11855 X1.363 Y-3.4333
N11860 X1.3545 Y-3.4372
N11865 X1.3454 Y-3.442
N11870 X1.3444 Y-3.4427
N11875 X1.3314 Y-3.452
N11880 X1.3202 Y-3.4633
N11885 X1.3108 Y-3.4762
N11890 X1.3037 Y-3.4904
N11895 X1.2989 Y-3.5056
N11900 X1.2966 Y-3.5214
N11905 X1.2969 Y-3.5373
N11910 X1.2997 Y-3.553
N11915 X1.3042 Y-3.5704
N11920 X1.3071 Y-3.5816
N11925 X1.3122 Y-3.6072
N11930 G3 X1.3574 Y-3.635 Z-0.1795 I0.0365 J0.0087
N11935 X1.3726 Y-3.6274 I-0.0087 J0.0365
N11940 G1 X1.5252 Y-3.5016
N11945 X1.5282 Y-3.4989
N11950 X1.5309 Y-3.4959
N11955 G3 X1.5246 Y-3.4432 Z-0.1875 I-0.0295 J0.0232
N11960 G1 X1.5133 Y-3.435
N11965 X1.471 Y-3.4034
N11970 X1.4654 Y-3.3996
N11975 X1.4602 Y-3.3966
N11980 X1.4548 Y-3.3938
N11985 X1.4489 Y-3.3912
N11990 X1.4427 Y-3.3888
N11995 X1.4359 Y-3.3867
N12000 X1.4285 Y-3.3848
N12005 X1.4207 Y-3.3834
N12010 X1.4127 Y-3.3823
N12015 X1.4043 Y-3.3816
N12020 X1.3965 Y-3.3814
N12025 X1.3878 Y-3.3817
N12030 X1.3794 Y-3.3825
N12035 X1.3717 Y-3.3836
N12040 X1.3631 Y-3.3854
N12045 X1.3551 Y-3.3875
N12050 X1.3476 Y-3.39
N12055 X1.3394 Y-3.3932
N12060 X1.3384 Y-3.3936
N12065 X1.3241 Y-3.4017
N12070 X1.3114 Y-3.4122
N12075 X1.3008 Y-3.4247
N12080 X1.2925 Y-3.4388
N12085 X1.2868 Y-3.4542
N12090 X1.2839 Y-3.4704
N12095 X1.2838 Y-3.4868
N12100 X1.2865 Y-3.503
N12105 X1.2997 Y-3.553
N12110 G3 X1.3464 Y-3.5781 Z-0.1795 I0.0359 J0.0108
N12115 X1.3618 Y-3.569 I-0.0108 J0.0359
N12120 G1 X1.4738 Y-3.4595
N12125 X1.4768 Y-3.4561
N12130 G3 X1.471 Y-3.4034 Z-0.1875 I-0.0293 J0.0234
N12135 G1 X1.4236 Y-3.368
N12140 X1.4186 Y-3.3647
N12145 X1.4134 Y-3.3617
N12150 X1.4081 Y-3.359
N12155 X1.4025 Y-3.3567
N12160 X1.3968 Y-3.3548
N12165 X1.3911 Y-3.3531
N12170 X1.3852 Y-3.3519
N12175 X1.3787 Y-3.3509
N12180 X1.3724 Y-3.3503
N12185 X1.3664 Y-3.35
N12190 X1.3598 Y-3.3501
N12195 X1.353 Y-3.3506
N12200 X1.3468 Y-3.3514
N12205 X1.3404 Y-3.3526
N12210 X1.3334 Y-3.3544
N12215 X1.3322 Y-3.3547
N12220 X1.3187 Y-3.3601
N12225 X1.3064 Y-3.3677
N12230 X1.2955 Y-3.3773
N12235 X1.2865 Y-3.3886
N12240 X1.2794 Y-3.4013
N12245 X1.2746 Y-3.4149
N12250 X1.2722 Y-3.4292
N12255 Y-3.4437
N12260 X1.2747 Y-3.458
N12265 G3 X1.3214 Y-3.4831 Z-0.1795 I0.0359 J0.0108
N12270 G1 X1.3252 Y-3.4817
N12275 X1.3289 Y-3.4799
N12280 X1.4184 Y-3.4301
N12285 G3 X1.4294 Y-3.4207 I-0.0183 J0.0328
N12290 X1.4236 Y-3.368 Z-0.1875 I-0.0293 J0.0234
N12295 G1 X1.3835 Y-3.3381
N12300 X1.3785 Y-3.3348
N12305 X1.3732 Y-3.3319
N12310 X1.3677 Y-3.3294
N12315 X1.3621 Y-3.3275
N12320 X1.3563 Y-3.326
N12325 X1.3504 Y-3.3249
N12330 X1.3444 Y-3.3242
N12335 X1.3384 Y-3.324
N12340 X1.3324 Y-3.3242
N12345 X1.3178 Y-3.327
N12350 X1.304 Y-3.3325
N12355 X1.2915 Y-3.3405
N12360 X1.2809 Y-3.3508
N12365 X1.2723 Y-3.363
N12370 X1.2663 Y-3.3765
N12375 X1.263 Y-3.391
N12380 X1.2625 Y-3.4058
N12385 X1.2649 Y-3.4205
N12390 G3 X1.2914 Y-3.4581 Z-0.1811 I0.0694 J0.0209
N12395 X1.3016 Y-3.4644 Z-0.1795 I0.0448 J0.061
N12400 X1.4113 Y-3.3883 I0.0345 J0.0673
N12405 X1.3835 Y-3.3381 Z-0.1875 I-0.0751 J-0.0088
N12410 G1 X1.3517 Y-3.3144
N12415 X1.3467 Y-3.3111
N12420 X1.3413 Y-3.3084
N12425 X1.3357 Y-3.3063
N12430 X1.3299 Y-3.3048
N12435 X1.3169 Y-3.3041
N12440 X1.304 Y-3.3059
N12445 X1.2917 Y-3.3102
N12450 X1.2805 Y-3.3169
N12455 X1.2708 Y-3.3257
N12460 X1.263 Y-3.3361
N12465 X1.2575 Y-3.348
N12470 X1.2544 Y-3.3606
N12475 X1.2539 Y-3.3737
N12480 X1.2559 Y-3.3865
N12485 G3 X1.2792 Y-3.4169 Z-0.1822 I0.0518 J0.0156
N12490 X1.2973 Y-3.4245 Z-0.1795 I0.0332 J0.0534
N12495 X1.3752 Y-3.3661 I0.015 J0.0611
N12500 X1.3517 Y-3.3144 Z-0.1875 I-0.0628 J0.0026
N12505 G1 X1.3275 Y-3.2964
N12510 X1.3226 Y-3.293
N12515 X1.3171 Y-3.2905
N12520 X1.3114 Y-3.2887
N12525 X1.3055 Y-3.2875
N12530 X1.2939 Y-3.2878
N12535 X1.2826 Y-3.2905
N12540 X1.2721 Y-3.2956
N12545 X1.263 Y-3.3027
N12550 X1.2555 Y-3.3116
N12555 X1.2501 Y-3.3219
N12560 X1.2469 Y-3.3331
N12565 X1.2462 Y-3.3447
N12570 X1.248 Y-3.3562
N12575 G3 X1.2673 Y-3.3815 Z-0.1831 I0.0431 J0.0129
N12580 X1.2922 Y-3.3893 Z-0.1795 I0.0276 J0.0443
N12585 X1.3457 Y-3.3491 I0.0027 J0.0522
N12590 X1.3275 Y-3.2964 Z-0.1875 I-0.0508 J0.012
N12595 G1 X1.3066 Y-3.2808
N12600 X1.3016 Y-3.2774
N12605 X1.2961 Y-3.2751
N12610 X1.2903 Y-3.2735
N12615 X1.279 Y-3.2736
N12620 X1.268 Y-3.2764
N12625 X1.2581 Y-3.2818
N12630 X1.2498 Y-3.2895
N12635 X1.2436 Y-3.299
N12640 X1.24 Y-3.3097
N12645 X1.2391 Y-3.321
N12650 X1.2411 Y-3.3322
N12655 G3 X1.2564 Y-3.3515 I0.0349 J0.012
N12660 X1.3066 Y-3.2808 I0.023 J0.0368
N12665 G1 X1.2997 Y-3.2756
N12670 X1.2885 Y-3.2678
N12675 X1.2866 Y-3.2669
N12680 X1.2819 Y-3.2651
N12685 X1.2772 Y-3.2639
N12690 X1.2716 Y-3.2634
N12695 X1.266 Y-3.2637
N12700 X1.2604 Y-3.2648
N12705 X1.2547 Y-3.2669
N12710 X1.2491 Y-3.2702
N12715 X1.2463 Y-3.2724
N12720 X1.2435 Y-3.2751
N12725 X1.2409 Y-3.2781
N12730 X1.2389 Y-3.2809
N12735 X1.2373 Y-3.2837
N12740 X1.235 Y-3.2893
N12745 X1.2336 Y-3.295
N12750 X1.2332 Y-3.3006
N12755 X1.2335 Y-3.3062
N12760 X1.2348 Y-3.3118
N12765 X1.2383 Y-3.3231
N12770 X1.2452 Y-3.3456
N12775 X1.2865 Y-3.503
N12780 G3 X1.306 Y-3.5259 I0.0359 J0.0108
N12785 G1 X1.3101 Y-3.5278 Z-0.1872
N12790 X1.3141 Y-3.5298 Z-0.1864
N12795 X1.3179 Y-3.5317 Z-0.1851
N12800 X1.3217 Y-3.5335 Z-0.1832
N12805 X1.3251 Y-3.5352 Z-0.1809
N12810 X1.3283 Y-3.5368 Z-0.1781
N12815 X1.3312 Y-3.5382 Z-0.1749
N12820 X1.3337 Y-3.5394 Z-0.1713
N12825 X1.3358 Y-3.5404 Z-0.1674
N12830 X1.3375 Y-3.5412 Z-0.1633
N12835 X1.3387 Y-3.5418 Z-0.159
N12840 X1.3394 Y-3.5422 Z-0.1545
N12845 X1.3397 Y-3.5423 Z-0.15
N12850 G0 Z0.2
N12855 X2.1125 Y-5.2817
N12860 Z-0.1125
N12865 G1 Z-0.15 F80.3
N12870 X2.1127 Y-5.2818 Z-0.1545
N12875 X2.1135 Y-5.2821 Z-0.159
N12880 X2.1147 Y-5.2827 Z-0.1633
N12885 X2.1164 Y-5.2835 Z-0.1674
N12890 X2.1185 Y-5.2845 Z-0.1713
N12895 X2.121 Y-5.2857 Z-0.1749
N12900 X2.1239 Y-5.2871 Z-0.1781
N12905 X2.1271 Y-5.2886 Z-0.1809
N12910 X2.1306 Y-5.2903 Z-0.1832
N12915 X2.1344 Y-5.292 Z-0.1851
N12920 X2.1383 Y-5.2939 Z-0.1864
N12925 X2.1423 Y-5.2958 Z-0.1872
N12930 X2.1464 Y-5.2977 Z-0.1875
N12935 G3 X2.1767 Y-5.3036 I0.0267 J0.0563
N12940 G1 X2.4016 Y-5.2825
N12945 X2.4211 Y-5.2797
N12950 X2.4364 Y-5.2766
N12955 X2.4527 Y-5.2723
N12960 X2.4709 Y-5.2664
N12965 X2.49 Y-5.259
N12970 X2.5117 Y-5.2492
N12975 X2.5333 Y-5.2379
N12980 X2.5571 Y-5.2237
N12985 X2.5824 Y-5.2066
N12990 X2.6071 Y-5.1878
N12995 X2.6328 Y-5.1658
N13000 X2.659 Y-5.1407
N13005 X2.6851 Y-5.1128
N13010 X2.7105 Y-5.0823
N13015 X2.7348 Y-5.0496
N13020 X2.7576 Y-5.015
N13025 X2.7787 Y-4.9785
N13030 X2.7981 Y-4.9403
N13035 X2.8155 Y-4.9005
N13040 X2.8309 Y-4.8593
N13045 X2.844 Y-4.817
N13050 X2.8548 Y-4.7739
N13055 X2.8631 Y-4.73
N13060 X2.8689 Y-4.6857
N13065 X2.8723 Y-4.641
N13070 X2.8732 Y-4.5962
N13075 X2.8715 Y-4.5514
N13080 X2.8673 Y-4.5067
N13085 X2.8606 Y-4.4624
N13090 X2.8514 Y-4.4185
N13095 X2.8397 Y-4.3752
N13100 X2.832 Y-4.3517
N13105 X2.8255 Y-4.3358
N13110 X2.8169 Y-4.321
N13115 X2.8063 Y-4.3075
N13120 X2.794 Y-4.2955
N13125 X2.7802 Y-4.2854
N13130 X2.6538 Y-4.2052
N13135 G3 X2.6025 Y-4.2186 Z-0.1795 I-0.019 J-0.0324
N13140 X2.5983 Y-4.2291 I0.0323 J-0.019
N13145 G1 X2.3629 Y-5.2365
N13150 G3 X2.362 Y-5.2473 I0.0365 J-0.0085
N13155 X2.4016 Y-5.2825 Z-0.1875 I0.0374 J0.0022
N13160 G1 X2.5365 Y-5.2698
N13165 X2.5554 Y-5.2671
N13170 X2.5669 Y-5.2647
N13175 X2.5798 Y-5.2614
N13180 X2.5933 Y-5.257
N13185 X2.6089 Y-5.251
N13190 X2.6246 Y-5.2438
N13195 X2.6426 Y-5.2344
N13200 X2.661 Y-5.2235
N13205 X2.6809 Y-5.21
N13210 X2.7024 Y-5.1936
N13215 X2.7235 Y-5.1756
N13220 X2.7461 Y-5.154
N13225 X2.7696 Y-5.1288
N13230 X2.7923 Y-5.1015
N13235 X2.8146 Y-5.0715
N13240 X2.8366 Y-5.0381
N13245 X2.8578 Y-5.0016
N13250 X2.8776 Y-4.9625
N13255 X2.8957 Y-4.9213
N13260 X2.9114 Y-4.8792
N13265 X2.9248 Y-4.8362
N13270 X2.9359 Y-4.7927
N13275 X2.9447 Y-4.7486
N13280 X2.9511 Y-4.7041
N13285 X2.9551 Y-4.6593
N13290 X2.9568 Y-4.6143
N13295 X2.9563 Y-4.5694
N13300 X2.9534 Y-4.5245
N13305 X2.9482 Y-4.4798
N13310 X2.9413 Y-4.4388
N13315 X2.9384 Y-4.426
N13320 X2.9336 Y-4.4099
N13325 X2.9266 Y-4.3946
N13330 X2.9177 Y-4.3803
N13335 X2.9069 Y-4.3674
N13340 X2.8945 Y-4.356
N13345 X2.8807 Y-4.3464
N13350 X2.8239 Y-4.3124
N13355 X2.7951 Y-4.2947
N13360 X2.7874 Y-4.2899
N13365 X2.7802 Y-4.2854
N13370 G3 X2.7289 Y-4.2987 Z-0.1795 I-0.019 J-0.0324
N13375 X2.7248 Y-4.3087 I0.0323 J-0.019
N13380 G1 X2.4979 Y-5.2233
N13385 G3 X2.4969 Y-5.2346 I0.0364 J-0.009
N13390 X2.5365 Y-5.2698 Z-0.1875 I0.0374 J0.0022
N13395 G1 X2.6265 Y-5.2614
N13400 X2.6377 Y-5.2603
N13405 X2.649 Y-5.2596
N13410 X2.664 Y-5.2579
N13415 X2.6739 Y-5.2562
N13420 X2.6842 Y-5.2538
N13425 X2.6963 Y-5.2503
N13430 X2.7084 Y-5.246
N13435 X2.7227 Y-5.24
N13440 X2.7369 Y-5.2331
N13445 X2.7533 Y-5.224
N13450 X2.7695 Y-5.2137
N13455 X2.7877 Y-5.2007
N13460 X2.8063 Y-5.1858
N13465 X2.8256 Y-5.1683
N13470 X2.8465 Y-5.1472
N13475 X2.8669 Y-5.1242
N13480 X2.8877 Y-5.0977
N13485 X2.9091 Y-5.0673
N13490 X2.9302 Y-5.0333
N13495 X2.9501 Y-4.9967
N13500 X2.9687 Y-4.9575
N13505 X2.9856 Y-4.9159
N13510 X3.0002 Y-4.8733
N13515 X3.0126 Y-4.8301
N13520 X3.0227 Y-4.7863
N13525 X3.0305 Y-4.742
N13530 X3.0362 Y-4.6974
N13535 X3.0398 Y-4.6526
N13540 X3.0411 Y-4.6076
N13545 X3.0404 Y-4.5627
N13550 X3.0378 Y-4.5228
N13555 X3.0345 Y-4.4952
N13560 X3.0331 Y-4.4877
N13565 X3.0288 Y-4.4705
N13570 X3.022 Y-4.454
N13575 X3.013 Y-4.4387
N13580 X3.0019 Y-4.4248
N13585 X2.9889 Y-4.4127
N13590 X2.9743 Y-4.4025
N13595 X2.8807 Y-4.3464
N13600 G3 X2.8298 Y-4.3611 Z-0.1795 I-0.0181 J-0.0328
N13605 G1 X2.8277 Y-4.3654
N13610 X2.8262 Y-4.37
N13615 X2.6115 Y-5.2129
N13620 G3 X2.6104 Y-5.2233 I0.0363 J-0.0093
N13625 X2.649 Y-5.2596 Z-0.1875 I0.0375 J0.0011
N13630 G1 X2.7502 Y-5.2532
N13635 X2.7655 Y-5.2514
N13640 X2.7749 Y-5.2498
N13645 X2.7845 Y-5.2476
N13650 X2.7957 Y-5.2443
N13655 X2.8073 Y-5.2403
N13660 X2.8203 Y-5.2348
N13665 X2.8337 Y-5.2284
N13670 X2.8487 Y-5.22
N13675 X2.8637 Y-5.2105
N13680 X2.8808 Y-5.1983
N13685 X2.8976 Y-5.1848
N13690 X2.9161 Y-5.1681
N13695 X2.9351 Y-5.149
N13700 X2.9542 Y-5.1274
N13705 X2.9745 Y-5.1019
N13710 X2.9947 Y-5.073
N13715 X3.0139 Y-5.0421
N13720 X3.0331 Y-5.0071
N13725 X3.0515 Y-4.9683
N13730 X3.0685 Y-4.9266
N13735 X3.0831 Y-4.8841
N13740 X3.0955 Y-4.8409
N13745 X3.1058 Y-4.7971
N13750 X3.1139 Y-4.7529
N13755 X3.1199 Y-4.7083
N13760 X3.1239 Y-4.6636
N13765 X3.1258 Y-4.6186
N13770 X3.1255 Y-4.584
N13775 X3.1238 Y-4.5587
N13780 X3.1223 Y-4.5471
N13785 X3.1186 Y-4.5286
N13790 X3.1121 Y-4.5109
N13795 X3.103 Y-4.4943
N13800 X3.0915 Y-4.4793
N13805 X3.0779 Y-4.4662
N13810 X3.0625 Y-4.4553
N13815 X2.9743 Y-4.4025
N13820 G3 X2.9234 Y-4.4172 Z-0.1795 I-0.0181 J-0.0328
N13825 G1 X2.9214 Y-4.4213
N13830 X2.9199 Y-4.4257
N13835 X2.7128 Y-5.2061
N13840 G3 X2.7116 Y-5.2168 I0.0362 J-0.0096
N13845 X2.7502 Y-5.2532 Z-0.1875 I0.0375 J0.0011
N13850 G1 X2.8514 Y-5.2467
N13855 X2.8624 Y-5.2455
N13860 X2.8712 Y-5.244
N13865 X2.8807 Y-5.2418
N13870 X2.8913 Y-5.2387
N13875 X2.9023 Y-5.2348
N13880 X2.9147 Y-5.2297
N13885 X2.9275 Y-5.2235
N13890 X2.9417 Y-5.2156
N13895 X2.9563 Y-5.2063
N13900 X2.9721 Y-5.1951
N13905 X2.9888 Y-5.1816
N13910 X3.0056 Y-5.1665
N13915 X3.0241 Y-5.1479
N13920 X3.0421 Y-5.1276
N13925 X3.0609 Y-5.1038
N13930 X3.0805 Y-5.0759
N13935 X3.0993 Y-5.0456
N13940 X3.1177 Y-5.0119
N13945 X3.1357 Y-4.974
N13950 X3.1527 Y-4.9324
N13955 X3.1673 Y-4.8899
N13960 X3.1797 Y-4.8466
N13965 X3.19 Y-4.8029
N13970 X3.1982 Y-4.7586
N13975 X3.2043 Y-4.7141
N13980 X3.208 Y-4.6722
N13985 X3.2089 Y-4.6405
N13990 X3.2083 Y-4.6167
N13995 X3.2072 Y-4.6028
N14000 X3.2047 Y-4.5861
N14005 X3.1999 Y-4.5698
N14010 X3.193 Y-4.5544
N14015 X3.184 Y-4.54
N14020 X3.1732 Y-4.5269
N14025 X3.1607 Y-4.5155
N14030 X3.1468 Y-4.5058
N14035 X3.0625 Y-4.4553
N14040 G3 X3.0116 Y-4.47 Z-0.1795 I-0.0181 J-0.0328
N14045 G1 X3.0096 Y-4.4741
N14050 X3.0082 Y-4.4784
N14055 X2.8141 Y-5.1995
N14060 G3 X2.8128 Y-5.2104 I0.0362 J-0.0097
N14065 X2.8514 Y-5.2467 Z-0.1875 I0.0375 J0.0011
N14070 G1 X2.9475 Y-5.2407
N14075 X2.9566 Y-5.2396
N14080 X2.9648 Y-5.2382
N14085 X2.9742 Y-5.236
N14090 X2.9842 Y-5.2331
N14095 X2.9952 Y-5.2293
N14100 X3.0068 Y-5.2244
N14105 X3.0196 Y-5.2183
N14110 X3.0327 Y-5.2109
N14115 X3.0474 Y-5.2017
N14120 X3.062 Y-5.1912
N14125 X3.0785 Y-5.178
N14130 X3.0945 Y-5.1636
N14135 X3.1119 Y-5.146
N14140 X3.1299 Y-5.1257
N14145 X3.1476 Y-5.1033
N14150 X3.1665 Y-5.0765
N14155 X3.1852 Y-5.0463
N14160 X3.203 Y-5.0137
N14165 X3.2206 Y-4.9766
N14170 X3.2375 Y-4.9352
N14175 X3.2521 Y-4.8927
N14180 X3.2645 Y-4.8495
N14185 X3.2747 Y-4.8057
N14190 X3.2827 Y-4.7614
N14195 X3.2873 Y-4.7248
N14200 X3.2892 Y-4.6953
N14205 X3.2895 Y-4.6714
N14210 X3.2886 Y-4.6517
N14215 X3.2884 Y-4.6491
N14220 X3.2849 Y-4.6301
N14225 X3.2786 Y-4.6118
N14230 X3.2695 Y-4.5947
N14235 X3.2579 Y-4.5793
N14240 X3.244 Y-4.5658
N14245 X3.2282 Y-4.5546
N14250 X3.1468 Y-4.5058
N14255 G3 X3.0959 Y-4.5205 Z-0.1795 I-0.0181 J-0.0328
N14260 G1 X3.094 Y-4.5245
N14265 X3.0925 Y-4.5287
N14270 X2.9103 Y-5.1932
N14275 G3 X2.9089 Y-5.2043 I0.0362 J-0.0099
N14280 X2.9475 Y-5.2407 Z-0.1875 I0.0375 J0.0011
N14285 G1 X3.0374 Y-5.2349
N14290 X3.0486 Y-5.2337
N14295 X3.0566 Y-5.2323
N14300 X3.066 Y-5.2302
N14305 X3.0755 Y-5.2274
N14310 X3.0864 Y-5.2235
N14315 X3.0975 Y-5.2189
N14320 X3.1102 Y-5.2128
N14325 X3.1227 Y-5.2058
N14330 X3.1371 Y-5.1967
N14335 X3.1512 Y-5.1866
N14340 X3.1671 Y-5.1739
N14345 X3.183 Y-5.1596
N14350 X3.1996 Y-5.1428
N14355 X3.2175 Y-5.1227
N14360 X3.2345 Y-5.1011
N14365 X3.2527 Y-5.0752
N14370 X3.2712 Y-5.0454
N14375 X3.2887 Y-5.0134
N14380 X3.3059 Y-4.9771
N14385 X3.3224 Y-4.9368
N14390 X3.337 Y-4.8943
N14395 X3.3491 Y-4.8513
N14400 X3.3581 Y-4.8112
N14405 X3.3638 Y-4.7765
N14410 X3.3667 Y-4.7494
N14415 X3.3678 Y-4.7273
N14420 X3.3677 Y-4.7064
N14425 X3.3672 Y-4.699
N14430 X3.3649 Y-4.6814
N14435 X3.36 Y-4.6644
N14440 X3.3528 Y-4.6482
N14445 X3.3434 Y-4.6331
N14450 X3.332 Y-4.6196
N14455 X3.3187 Y-4.6078
N14460 X3.304 Y-4.598
N14465 X3.2674 Y-4.5773
N14470 X3.2336 Y-4.5578
N14475 X3.2282 Y-4.5546
N14480 G3 X3.1773 Y-4.5692 Z-0.1795 I-0.0181 J-0.0328
N14485 G1 X3.1754 Y-4.5731
N14490 X3.174 Y-4.5771
N14495 X3.0003 Y-5.1872
N14500 G3 X2.9989 Y-5.1986 I0.0361 J-0.0103
N14505 X3.0374 Y-5.2349 Z-0.1875 I0.0375 J0.0011
N14510 G1 X3.11 Y-5.2303
N14515 X3.1274 Y-5.2294
N14520 X3.1371 Y-5.2284
N14525 X3.1449 Y-5.2272
N14530 X3.1539 Y-5.2252
N14535 X3.1631 Y-5.2226
N14540 X3.1738 Y-5.219
N14545 X3.1845 Y-5.2147
N14550 X3.1968 Y-5.2089
N14555 X3.209 Y-5.2023
N14560 X3.2229 Y-5.1937
N14565 X3.2366 Y-5.1841
N14570 X3.2521 Y-5.172
N14575 X3.2674 Y-5.1585
N14580 X3.2837 Y-5.1424
N14585 X3.301 Y-5.1233
N14590 X3.3177 Y-5.1027
N14595 X3.3356 Y-5.0779
N14600 X3.3536 Y-5.0496
N14605 X3.3705 Y-5.0194
N14610 X3.3873 Y-4.9852
N14615 X3.4027 Y-4.9484
N14620 X3.4161 Y-4.9108
N14625 X3.4268 Y-4.8744
N14630 X3.4346 Y-4.8409
N14635 X3.4395 Y-4.8131
N14640 X3.4424 Y-4.7886
N14645 X3.4436 Y-4.7675
N14650 X3.4437 Y-4.7496
N14655 X3.4434 Y-4.7433
N14660 X3.4412 Y-4.7255
N14665 X3.4364 Y-4.7082
N14670 X3.4293 Y-4.6918
N14675 X3.4199 Y-4.6766
N14680 X3.4083 Y-4.6628
N14685 X3.395 Y-4.6509
N14690 X3.3801 Y-4.641
N14695 X3.304 Y-4.598
N14700 G3 X3.2534 Y-4.6139 Z-0.1795 I-0.0173 J-0.0333
N14705 G1 X3.2518 Y-4.6174
N14710 X3.2506 Y-4.621
N14715 X3.0907 Y-5.1816
N14720 G3 X3.0893 Y-5.1926 I0.0361 J-0.0103
N14725 X3.1274 Y-5.2294 Z-0.1875 I0.0375 J0.0007
N14730 G1 X3.1437 Y-5.2286
N14735 X3.1549 Y-5.2281
N14740 X3.2112 Y-5.2263
N14745 X3.2214 Y-5.2254
N14750 X3.2289 Y-5.2244
N14755 X3.2378 Y-5.2226
N14760 X3.2467 Y-5.2203
N14765 X3.2571 Y-5.217
N14770 X3.2676 Y-5.213
N14775 X3.2796 Y-5.2076
N14780 X3.2915 Y-5.2014
N14785 X3.3051 Y-5.1934
N14790 X3.3186 Y-5.1844
N14795 X3.3335 Y-5.1731
N14800 X3.3487 Y-5.1603
N14805 X3.3645 Y-5.1453
N14810 X3.3814 Y-5.1273
N14815 X3.3977 Y-5.108
N14820 X3.4148 Y-5.0851
N14825 X3.4323 Y-5.0588
N14830 X3.4486 Y-5.0309
N14835 X3.4641 Y-5.0008
N14840 X3.4783 Y-4.9687
N14845 X3.4905 Y-4.9364
N14850 X3.5003 Y-4.9053
N14855 X3.5077 Y-4.8763
N14860 X3.5125 Y-4.8515
N14865 X3.5155 Y-4.8297
N14870 X3.5171 Y-4.8098
N14875 X3.5175 Y-4.7928
N14880 X3.5172 Y-4.7859
N14885 X3.5153 Y-4.7681
N14890 X3.5109 Y-4.7508
N14895 X3.5039 Y-4.7343
N14900 X3.4947 Y-4.719
N14905 X3.4833 Y-4.7053
N14910 X3.47 Y-4.6933
N14915 X3.4551 Y-4.6834
N14920 X3.3801 Y-4.641
N14925 G3 X3.3295 Y-4.6569 Z-0.1795 I-0.0173 J-0.0333
N14930 G1 X3.328 Y-4.6602
N14935 X3.3268 Y-4.6637
N14940 X3.1753 Y-5.1782
N14945 G3 X3.1737 Y-5.1887 I0.036 J-0.0106
N14950 X3.2112 Y-5.2263 Z-0.1875 I0.0375 J0.
N14955 G1 X3.3011 Y-5.2233
N14960 X3.3073 Y-5.2228
N14965 X3.3153 Y-5.2217
N14970 X3.3237 Y-5.22
N14975 X3.3331 Y-5.2176
N14980 X3.3431 Y-5.2144
N14985 X3.354 Y-5.2102
N14990 X3.3654 Y-5.2051
N14995 X3.378 Y-5.1986
N15000 X3.3907 Y-5.1911
N15005 X3.4049 Y-5.1816
N15010 X3.4189 Y-5.171
N15015 X3.4343 Y-5.158
N15020 X3.4498 Y-5.1433
N15025 X3.4655 Y-5.1266
N15030 X3.482 Y-5.107
N15035 X3.4982 Y-5.0853
N15040 X3.5137 Y-5.062
N15045 X3.5288 Y-5.0363
N15050 X3.5428 Y-5.0089
N15055 X3.5552 Y-4.9811
N15060 X3.5656 Y-4.9534
N15065 X3.5741 Y-4.9264
N15070 X3.5801 Y-4.9028
N15075 X3.5845 Y-4.8804
N15080 X3.587 Y-4.862
N15085 X3.5884 Y-4.8438
N15090 X3.5888 Y-4.8278
N15095 X3.5869 Y-4.8096
N15100 X3.5823 Y-4.7919
N15105 X3.5752 Y-4.7751
N15110 X3.5658 Y-4.7595
N15115 X3.5541 Y-4.7454
N15120 X3.5406 Y-4.7332
N15125 X3.5254 Y-4.7231
N15130 X3.4551 Y-4.6834
N15135 G3 X3.4046 Y-4.6994 Z-0.1795 I-0.0173 J-0.0333
N15140 G1 X3.403 Y-4.7027
N15145 X3.4018 Y-4.7062
N15150 X3.2652 Y-5.1753
N15155 G3 X3.2637 Y-5.1857 I0.036 J-0.0105
N15160 X3.3011 Y-5.2233 Z-0.1875 I0.0375 J0.
N15165 G1 X3.386 Y-5.2205
N15170 X3.3936 Y-5.2198
N15175 X3.4015 Y-5.2187
N15180 X3.4099 Y-5.2171
N15185 X3.4192 Y-5.2147
N15190 X3.429 Y-5.2116
N15195 X3.4399 Y-5.2074
N15200 X3.451 Y-5.2024
N15205 X3.4635 Y-5.196
N15210 X3.4759 Y-5.1886
N15215 X3.4896 Y-5.1795
N15220 X3.5034 Y-5.169
N15225 X3.5178 Y-5.1569
N15230 X3.5331 Y-5.1424
N15235 X3.5478 Y-5.1267
N15240 X3.5628 Y-5.1088
N15245 X3.5779 Y-5.0887
N15250 X3.5925 Y-5.0668
N15255 X3.6059 Y-5.0438
N15260 X3.6182 Y-5.02
N15265 X3.6288 Y-4.996
N15270 X3.6378 Y-4.9722
N15275 X3.6451 Y-4.9491
N15280 X3.6501 Y-4.9293
N15285 X3.6536 Y-4.9112
N15290 X3.656 Y-4.8939
N15295 X3.6572 Y-4.8783
N15300 X3.6573 Y-4.8729
N15305 X3.6563 Y-4.8538
N15310 X3.6524 Y-4.8351
N15315 X3.6456 Y-4.8173
N15320 X3.6362 Y-4.8007
N15325 X3.6243 Y-4.7857
N15330 X3.6103 Y-4.7727
N15335 X3.5944 Y-4.7621
N15340 X3.5254 Y-4.7231
N15345 G3 X3.4748 Y-4.739 Z-0.1795 I-0.0173 J-0.0333
N15350 G1 X3.4732 Y-4.7425
N15355 X3.472 Y-4.746
N15360 X3.35 Y-5.1727
N15365 G3 X3.3486 Y-5.1829 I0.0361 J-0.0103
N15370 X3.386 Y-5.2205 Z-0.1875 I0.0375 J0.
N15375 G1 X3.4698 Y-5.2177
N15380 X3.479 Y-5.2169
N15385 X3.4868 Y-5.2158
N15390 X3.4949 Y-5.2142
N15395 X3.5042 Y-5.2118
N15400 X3.5136 Y-5.2088
N15405 X3.5243 Y-5.2048
N15410 X3.5351 Y-5.2
N15415 X3.547 Y-5.1938
N15420 X3.5592 Y-5.1866
N15425 X3.572 Y-5.178
N15430 X3.5857 Y-5.1677
N15435 X3.599 Y-5.1564
N15440 X3.613 Y-5.1431
N15445 X3.6273 Y-5.128
N15450 X3.6411 Y-5.1116
N15455 X3.6544 Y-5.0938
N15460 X3.6672 Y-5.0745
N15465 X3.6791 Y-5.0543
N15470 X3.6897 Y-5.0336
N15475 X3.699 Y-5.0126
N15480 X3.7065 Y-4.9926
N15485 X3.7125 Y-4.9738
N15490 X3.7168 Y-4.9568
N15495 X3.72 Y-4.9403
N15500 X3.7221 Y-4.925
N15505 X3.7232 Y-4.9104
N15510 X3.7233 Y-4.9094
N15515 X3.7222 Y-4.8905
N15520 X3.7183 Y-4.872
N15525 X3.7116 Y-4.8543
N15530 X3.7023 Y-4.8379
N15535 X3.6905 Y-4.8231
N15540 X3.6766 Y-4.8102
N15545 X3.6609 Y-4.7997
N15550 X3.5944 Y-4.7621
N15555 G3 X3.5439 Y-4.778 Z-0.1795 I-0.0173 J-0.0333
N15560 G1 X3.5422 Y-4.7816
N15565 X3.541 Y-4.7853
N15570 X3.4337 Y-5.1701
N15575 G3 X3.4323 Y-5.1802 I0.0361 J-0.0101
N15580 X3.4698 Y-5.2177 Z-0.1875 I0.0375 J0.
N15585 G1 X3.5547 Y-5.2149
N15590 X3.5625 Y-5.2143
N15595 X3.5702 Y-5.2132
N15600 X3.5781 Y-5.2116
N15605 X3.587 Y-5.2093
N15610 X3.5962 Y-5.2064
N15615 X3.6063 Y-5.2025
N15620 X3.617 Y-5.1977
N15625 X3.628 Y-5.1921
N15630 X3.6399 Y-5.185
N15635 X3.6518 Y-5.1771
N15640 X3.6643 Y-5.1676
N15645 X3.6772 Y-5.1567
N15650 X3.6898 Y-5.1447
N15655 X3.7025 Y-5.1313
N15660 X3.715 Y-5.1164
N15665 X3.727 Y-5.1004
N15670 X3.7382 Y-5.0836
N15675 X3.7484 Y-5.0661
N15680 X3.7576 Y-5.0481
N15685 X3.7657 Y-5.03
N15690 X3.7717 Y-5.0141
N15695 X3.7769 Y-4.9974
N15700 X3.7805 Y-4.9832
N15705 X3.7835 Y-4.9679
N15710 X3.7853 Y-4.9547
N15715 X3.7864 Y-4.9405
N15720 X3.7854 Y-4.9221
N15725 X3.7815 Y-4.9041
N15730 X3.7748 Y-4.8869
N15735 X3.7655 Y-4.871
N15740 X3.7538 Y-4.8568
N15745 X3.74 Y-4.8445
N15750 X3.7245 Y-4.8346
N15755 X3.7059 Y-4.8247
N15760 X3.6722 Y-4.806
N15765 X3.6609 Y-4.7997
N15770 G3 X3.6104 Y-4.8156 Z-0.1795 I-0.0173 J-0.0333
N15775 G1 X3.6086 Y-4.8195
N15780 X3.6073 Y-4.8236
N15785 X3.5184 Y-5.168
N15790 X3.5175 Y-5.1727
N15795 X3.5172 Y-5.1774
N15800 G3 X3.5547 Y-5.2149 Z-0.1875 I0.0375 J0.
N15805 G1 X3.6159 Y-5.2129
N15810 X3.6272 Y-5.2126
N15815 X3.6334 Y-5.2125
N15820 X3.6409 Y-5.2121
N15825 X3.648 Y-5.2112
N15830 X3.6554 Y-5.21
N15835 X3.6636 Y-5.208
N15840 X3.6723 Y-5.2055
N15845 X3.6815 Y-5.2022
N15850 X3.6915 Y-5.198
N15855 X3.7016 Y-5.193
N15860 X3.7125 Y-5.1869
N15865 X3.7236 Y-5.1798
N15870 X3.7348 Y-5.1718
N15875 X3.7464 Y-5.1623
N15880 X3.7582 Y-5.1517
N15885 X3.7696 Y-5.1401
N15890 X3.7806 Y-5.1276
N15895 X3.7912 Y-5.114
N15900 X3.8012 Y-5.0996
N15905 X3.8105 Y-5.0846
N15910 X3.8189 Y-5.0691
N15915 X3.8262 Y-5.0534
N15920 X3.8319 Y-5.0394
N15925 X3.8369 Y-5.0246
N15930 X3.8405 Y-5.0117
N15935 X3.8435 Y-4.9977
N15940 X3.8455 Y-4.9855
N15945 X3.8468 Y-4.9726
N15950 X3.8462 Y-4.9545
N15955 X3.8426 Y-4.9367
N15960 X3.8363 Y-4.9197
N15965 X3.8273 Y-4.9039
N15970 X3.8159 Y-4.8898
N15975 X3.8024 Y-4.8777
N15980 X3.7871 Y-4.868
N15985 X3.7245 Y-4.8346
N15990 G3 X3.6743 Y-4.8518 Z-0.1795 I-0.0164 J-0.0337
N15995 G1 X3.6727 Y-4.8556
N16000 X3.6716 Y-4.8596
N16005 X3.5978 Y-5.1663
N16010 X3.5971 Y-5.1702
N16015 X3.5968 Y-5.1742
N16020 G3 X3.6334 Y-5.2125 Z-0.1875 I0.0375 J-0.0009
N16025 G1 X3.6497 Y-5.2124
N16030 X3.6609 Y-5.2123
N16035 X3.7059 Y-5.2122
N16040 X3.7162 Y-5.2116
N16045 X3.7226 Y-5.2109
N16050 X3.73 Y-5.2097
N16055 X3.7376 Y-5.208
N16060 X3.7458 Y-5.2056
N16065 X3.7547 Y-5.2025
N16070 X3.7637 Y-5.1988
N16075 X3.7734 Y-5.1942
N16080 X3.7834 Y-5.1887
N16085 X3.7934 Y-5.1824
N16090 X3.8039 Y-5.175
N16095 X3.8146 Y-5.1665
N16100 X3.825 Y-5.1572
N16105 X3.8351 Y-5.1471
N16110 X3.8451 Y-5.1359
N16115 X3.8545 Y-5.124
N16120 X3.8635 Y-5.1114
N16125 X3.8718 Y-5.0982
N16130 X3.8794 Y-5.0845
N16135 X3.8853 Y-5.0722
N16140 X3.8908 Y-5.0588
N16145 X3.895 Y-5.0469
N16150 X3.8985 Y-5.0344
N16155 X3.9013 Y-5.0223
N16160 X3.9031 Y-5.0111
N16165 X3.9037 Y-4.9942
N16170 X3.9018 Y-4.9773
N16175 X3.8974 Y-4.9609
N16180 X3.8906 Y-4.9453
N16185 X3.8816 Y-4.9309
N16190 X3.8705 Y-4.918
N16195 X3.8577 Y-4.9069
N16200 X3.8433 Y-4.8978
N16205 X3.7871 Y-4.868
N16210 G3 X3.737 Y-4.8852 Z-0.1795 I-0.0164 J-0.0337
N16215 G1 X3.7354 Y-4.8891
N16220 X3.7342 Y-4.8932
N16225 X3.6706 Y-5.1662
N16230 X3.6699 Y-5.1698
N16235 X3.6696 Y-5.1735
N16240 G3 X3.7059 Y-5.2122 Z-0.1875 I0.0375 J-0.0012
N16245 G1 X3.7795 Y-5.212
N16250 X3.7887 Y-5.2115
N16255 X3.7952 Y-5.2108
N16260 X3.8018 Y-5.2097
N16265 X3.8092 Y-5.208
N16270 X3.8169 Y-5.2058
N16275 X3.8249 Y-5.203
N16280 X3.8337 Y-5.1994
N16285 X3.8424 Y-5.1952
N16290 X3.8515 Y-5.1902
N16295 X3.8611 Y-5.1842
N16300 X3.8706 Y-5.1775
N16305 X3.8799 Y-5.1701
N16310 X3.8892 Y-5.1617
N16315 X3.8984 Y-5.1526
N16320 X3.9072 Y-5.1427
N16325 X3.9157 Y-5.1321
N16330 X3.9236 Y-5.1209
N16335 X3.9301 Y-5.1105
N16340 X3.9364 Y-5.0991
N16345 X3.9416 Y-5.0885
N16350 X3.946 Y-5.0776
N16355 X3.9499 Y-5.0664
N16360 X3.9529 Y-5.0561
N16365 X3.9555 Y-5.0447
N16370 X3.9572 Y-5.0345
N16375 X3.9577 Y-5.0186
N16380 X3.9559 Y-5.0029
N16385 X3.9518 Y-4.9876
N16390 X3.9455 Y-4.973
N16395 X3.937 Y-4.9596
N16400 X3.9267 Y-4.9475
N16405 X3.9147 Y-4.9372
N16410 X3.9013 Y-4.9287
N16415 X3.8433 Y-4.8978
N16420 G3 X3.7932 Y-4.9151 Z-0.1795 I-0.0164 J-0.0337
N16425 X3.79 Y-4.9246 I0.0337 J-0.0165
N16430 G1 X3.7439 Y-5.1675
N16435 X3.7435 Y-5.1704
N16440 X3.7433 Y-5.1733
N16445 G3 X3.7795 Y-5.212 Z-0.1875 I0.0375 J-0.0012
N16450 G1 X3.8521 Y-5.2118
N16455 X3.8581 Y-5.2115
N16460 X3.864 Y-5.2108
N16465 X3.8705 Y-5.2096
N16470 X3.8772 Y-5.2081
N16475 X3.8845 Y-5.206
N16480 X3.8922 Y-5.2033
N16485 X3.9 Y-5.2
N16490 X3.9081 Y-5.1961
N16495 X3.9165 Y-5.1914
N16500 X3.9249 Y-5.1861
N16505 X3.9332 Y-5.1801
N16510 X3.9415 Y-5.1734
N16515 X3.9498 Y-5.166
N16520 X3.9578 Y-5.1579
N16525 X3.9655 Y-5.1491
N16530 X3.9729 Y-5.1398
N16535 X3.9793 Y-5.1306
N16540 X3.9852 Y-5.1211
N16545 X3.9905 Y-5.1114
N16550 X3.9949 Y-5.1022
N16555 X3.999 Y-5.0919
N16560 X4.0022 Y-5.0826
N16565 X4.005 Y-5.0725
N16570 X4.0056 Y-5.0698
N16575 X4.0079 Y-5.0532
N16580 X4.0075 Y-5.0365
N16585 X4.0043 Y-5.02
N16590 X3.9985 Y-5.0043
N16595 X3.9903 Y-4.9897
N16600 X3.9798 Y-4.9766
N16605 X3.9674 Y-4.9654
N16610 X3.9533 Y-4.9563
N16615 X3.9013 Y-4.9287
N16620 G3 X3.8512 Y-4.9459 Z-0.1795 I-0.0164 J-0.0337
N16625 X3.8478 Y-4.9569 I0.0337 J-0.0165
N16630 G1 X3.8162 Y-5.1688
N16635 X3.8158 Y-5.1731
N16640 G3 X3.8521 Y-5.2118 Z-0.1875 I0.0375 J-0.0012
N16645 G1 X3.9145 Y-5.2116
N16650 X3.9224 Y-5.2112
N16655 X3.9283 Y-5.2105
N16660 X3.9342 Y-5.2095
N16665 X3.9406 Y-5.208
N16670 X3.9471 Y-5.2061
N16675 X3.9539 Y-5.2037
N16680 X3.9611 Y-5.2007
N16685 X3.9684 Y-5.1972
N16690 X3.9757 Y-5.1931
N16695 X3.9832 Y-5.1883
N16700 X3.9907 Y-5.1829
N16705 X3.9982 Y-5.1769
N16710 X4.0054 Y-5.1703
N16715 X4.0123 Y-5.1633
N16720 X4.0185 Y-5.1564
N16725 X4.0248 Y-5.1483
N16730 X4.0302 Y-5.1406
N16735 X4.0351 Y-5.1327
N16740 X4.0398 Y-5.124
N16745 X4.0436 Y-5.116
N16750 X4.0471 Y-5.1073
N16755 X4.0502 Y-5.0983
N16760 X4.0525 Y-5.09
N16765 X4.0546 Y-5.0743
N16770 X4.0542 Y-5.0585
N16775 X4.0512 Y-5.0429
N16780 X4.0458 Y-5.0281
N16785 X4.038 Y-5.0143
N16790 X4.0281 Y-5.0019
N16795 X4.0163 Y-4.9913
N16800 X4.003 Y-4.9828
N16805 X3.9533 Y-4.9563
N16810 G3 X3.9031 Y-4.9736 Z-0.1795 I-0.0164 J-0.0337
N16815 X3.8996 Y-4.9858 I0.0337 J-0.0165
N16820 G1 X3.8784 Y-5.1698
N16825 X3.8782 Y-5.1729
N16830 G3 X3.9145 Y-5.2116 Z-0.1875 I0.0375 J-0.0012
N16835 G1 X3.9757 Y-5.2114
N16840 X3.982 Y-5.2111
N16845 X3.9879 Y-5.2105
N16850 X3.9938 Y-5.2094
N16855 X3.9997 Y-5.208
N16860 X4.0056 Y-5.2062
N16865 X4.0119 Y-5.2039
N16870 X4.0182 Y-5.2011
N16875 X4.0246 Y-5.1979
N16880 X4.0312 Y-5.1941
N16885 X4.0378 Y-5.1898
N16890 X4.0444 Y-5.1849
N16895 X4.0509 Y-5.1796
N16900 X4.057 Y-5.1739
N16905 X4.0625 Y-5.1682
N16910 X4.0683 Y-5.1616
N16915 X4.0732 Y-5.1551
N16920 X4.0777 Y-5.1486
N16925 X4.0822 Y-5.141
N16930 X4.0859 Y-5.134
N16935 X4.0893 Y-5.1267
N16940 X4.0924 Y-5.1186
N16945 X4.0962 Y-5.1026
N16950 X4.0971 Y-5.0862
N16955 X4.0951 Y-5.07
N16960 X4.0903 Y-5.0543
N16965 X4.0829 Y-5.0396
N16970 X4.073 Y-5.0265
N16975 X4.061 Y-5.0153
N16980 X4.0473 Y-5.0064
N16985 X4.003 Y-4.9828
N16990 G3 X3.9528 Y-5. Z-0.1795 I-0.0164 J-0.0337
N16995 X3.9491 Y-5.0142 I0.0337 J-0.0165
N17000 G1 X3.9395 Y-5.1717
N17005 Y-5.1728
N17010 G3 X3.9757 Y-5.2114 Z-0.1875 I0.0375 J-0.0012
N17015 G1 X4.032 Y-5.2113
N17020 X4.038 Y-5.211
N17025 X4.0439 Y-5.2102
N17030 X4.0498 Y-5.209
N17035 X4.0556 Y-5.2074
N17040 X4.0612 Y-5.2055
N17045 X4.0668 Y-5.2031
N17050 X4.0725 Y-5.2004
N17055 X4.0783 Y-5.1973
N17060 X4.0841 Y-5.1936
N17065 X4.0894 Y-5.1899
N17070 X4.0946 Y-5.1857
N17075 X4.1002 Y-5.1808
N17080 X4.105 Y-5.176
N17085 X4.1094 Y-5.171
N17090 X4.1141 Y-5.1651
N17095 X4.1182 Y-5.1593
N17100 X4.1218 Y-5.1536
N17105 X4.1255 Y-5.1469
N17110 X4.1287 Y-5.1402
N17115 X4.1335 Y-5.1247
N17120 X4.1354 Y-5.1085
N17125 X4.1343 Y-5.0923
N17130 X4.1302 Y-5.0765
N17135 X4.1233 Y-5.0617
N17140 X4.1138 Y-5.0485
N17145 X4.1021 Y-5.0372
N17150 X4.0885 Y-5.0283
N17155 X4.0473 Y-5.0064
N17160 G3 X3.9971 Y-5.0236 Z-0.1795 I-0.0164 J-0.0337
N17165 X3.9933 Y-5.0407 I0.0337 J-0.0165
N17170 G1 X3.9956 Y-5.1726
N17175 X3.9957 Y-5.1745 Z-0.1797
N17180 G3 X4.032 Y-5.2113 Z-0.1875 I0.0375 J0.0007
N17185 G1 X4.0803 Y-5.2112
N17190 X4.0863 Y-5.2109
N17195 X4.0923 Y-5.2101
N17200 X4.0982 Y-5.2089
N17205 X4.1039 Y-5.2072
N17210 X4.1096 Y-5.2052
N17215 X4.115 Y-5.2027
N17220 X4.1204 Y-5.2
N17225 X4.1255 Y-5.1969
N17230 X4.1305 Y-5.1934
N17235 X4.1352 Y-5.1897
N17240 X4.1397 Y-5.1857
N17245 X4.1443 Y-5.1811
N17250 X4.1484 Y-5.1765
N17255 X4.1521 Y-5.1719
N17260 X4.1558 Y-5.1666
N17265 X4.1593 Y-5.1609
N17270 X4.1652 Y-5.1476
N17275 X4.1686 Y-5.1335
N17280 X4.1695 Y-5.1189
N17285 X4.1678 Y-5.1045
N17290 X4.1637 Y-5.0905
N17295 X4.1571 Y-5.0775
N17300 X4.1484 Y-5.0659
N17305 X4.1378 Y-5.056
N17310 X4.1256 Y-5.048
N17315 X4.0885 Y-5.0283
N17320 G3 X4.0383 Y-5.0455 Z-0.1795 I-0.0164 J-0.0337
N17325 X4.0347 Y-5.0652 I0.0337 J-0.0165
N17330 G1 X4.0438 Y-5.1725
N17335 X4.0442 Y-5.1769 Z-0.1801
N17340 G3 X4.0803 Y-5.2112 Z-0.1875 I0.0374 J0.0032
N17345 G1 X4.1107 Y-5.2111
N17350 X4.1253
N17355 X4.1313 Y-5.2108
N17360 X4.1372 Y-5.2099
N17365 X4.1431 Y-5.2085
N17370 X4.1487 Y-5.2065
N17375 X4.1542 Y-5.2041
N17380 X4.1595 Y-5.2013
N17385 X4.1646 Y-5.1981
N17390 X4.1694 Y-5.1946
N17395 X4.174 Y-5.1907
N17400 X4.1783 Y-5.1865
N17405 X4.1823 Y-5.1821
N17410 X4.1861 Y-5.1774
N17415 X4.1895 Y-5.1724
N17420 X4.1956 Y-5.16
N17425 X4.1993 Y-5.1466
N17430 X4.2006 Y-5.1328
N17435 X4.1992 Y-5.119
N17440 X4.1954 Y-5.1056
N17445 X4.1892 Y-5.0932
N17450 X4.1808 Y-5.0821
N17455 X4.1706 Y-5.0728
N17460 X4.1588 Y-5.0654
N17465 X4.1556 Y-5.0638
N17470 X4.1444 Y-5.058
N17475 X4.1256 Y-5.048
N17480 G3 X4.0754 Y-5.0653 Z-0.1795 I-0.0164 J-0.0337
N17485 X4.0723 Y-5.0888 I0.0337 J-0.0165
N17490 G1 X4.0883 Y-5.1724
N17495 X4.0899 Y-5.1807 Z-0.1806
N17500 G3 X4.1253 Y-5.2111 Z-0.1875 I0.0368 J0.007
N17505 G1 X4.1332
N17510 X4.16 Y-5.2119
N17515 X4.166 Y-5.2117
N17520 X4.172 Y-5.2111
N17525 X4.1779 Y-5.2099
N17530 X4.1836 Y-5.208
N17535 X4.1891 Y-5.2056
N17540 X4.1943 Y-5.2027
N17545 X4.1993 Y-5.1994
N17550 X4.204 Y-5.1957
N17555 X4.2084 Y-5.1916
N17560 X4.2173 Y-5.18
N17565 X4.2235 Y-5.1669
N17570 X4.2269 Y-5.1528
N17575 X4.2274 Y-5.1382
N17580 X4.2248 Y-5.1239
N17585 X4.2194 Y-5.1104
N17590 X4.2113 Y-5.0983
N17595 X4.2009 Y-5.0882
N17600 X4.1886 Y-5.0804
N17605 G3 X4.1641 Y-5.075 Z-0.1841 I-0.0244 J-0.0533
N17610 X4.1319 Y-5.0832 Z-0.1795 I0.0003 J-0.0685
N17615 X4.1097 Y-5.1849 I0.0324 J-0.0603
N17620 X4.16 Y-5.2119 Z-0.1875 I0.0546 J0.0414
N17625 G1 X4.1941 Y-5.2128
N17630 X4.2001 Y-5.2127
N17635 X4.206 Y-5.2119
N17640 X4.2118 Y-5.2102
N17645 X4.2174 Y-5.208
N17650 X4.2227 Y-5.2052
N17655 X4.2331 Y-5.1967
N17660 X4.2414 Y-5.1862
N17665 X4.2475 Y-5.1741
N17670 X4.2508 Y-5.1611
N17675 X4.2514 Y-5.1477
N17680 X4.2492 Y-5.1344
N17685 X4.2443 Y-5.1219
N17690 X4.2369 Y-5.1107
N17695 X4.2274 Y-5.1013
N17700 X4.216 Y-5.094
N17705 G3 X4.1938 Y-5.09 Z-0.1844 I-0.0191 J-0.0418
N17710 X4.1605 Y-5.1025 Z-0.1795 I0.0041 J-0.0614
N17715 X4.1455 Y-5.1836 I0.0374 J-0.0489
N17720 X4.1941 Y-5.2128 Z-0.1875 I0.0524 J0.0323
N17725 G1 X4.2231 Y-5.2136
N17730 X4.2291 Y-5.2135
N17735 X4.235 Y-5.2124
N17740 X4.2407 Y-5.2106
N17745 X4.2461 Y-5.208
N17750 X4.2513 Y-5.2049
N17755 X4.256 Y-5.2012
N17760 X4.2641 Y-5.1919
N17765 X4.27 Y-5.181
N17770 X4.2735 Y-5.1691
N17775 X4.2743 Y-5.1568
N17780 X4.2725 Y-5.1446
N17785 X4.2682 Y-5.133
N17790 X4.2615 Y-5.1226
N17795 X4.2528 Y-5.1139
N17800 X4.2424 Y-5.1072
N17805 G3 X4.2225 Y-5.1036 I-0.0169 J-0.0369
N17810 X4.2231 Y-5.2136 I0.0041 J-0.055
N17815 G1 X4.249 Y-5.2143
N17820 X4.255 Y-5.2142
N17825 X4.2609 Y-5.2131
N17830 X4.2666 Y-5.2111
N17835 X4.2719 Y-5.2083
N17840 X4.2769 Y-5.205
N17845 X4.2846 Y-5.1968
N17850 X4.2904 Y-5.187
N17855 X4.294 Y-5.1763
N17860 X4.2951 Y-5.165
N17865 X4.2937 Y-5.1537
N17870 X4.2899 Y-5.1431
N17875 X4.2839 Y-5.1335
N17880 X4.276 Y-5.1254
N17885 X4.2665 Y-5.1193
N17890 G3 X4.2487 Y-5.116 I-0.0152 J-0.0333
N17895 X4.249 Y-5.2143 I0.0034 J-0.0491
N17900 G1 X4.2728 Y-5.215
N17905 X4.2788 Y-5.2149
N17910 X4.2847 Y-5.2136
N17915 X4.2902 Y-5.2114
N17920 X4.2955 Y-5.2085
N17925 X4.3038 Y-5.2003
N17930 X4.3099 Y-5.1902
N17935 X4.3132 Y-5.179
N17940 X4.3136 Y-5.1673
N17945 X4.3111 Y-5.1558
N17950 X4.3057 Y-5.1454
N17955 X4.2979 Y-5.1367
N17960 X4.2882 Y-5.1301
N17965 G3 X4.2723 Y-5.1273 I-0.0135 J-0.0295
N17970 X4.2728 Y-5.215 I0.0032 J-0.0438
N17975 G1 X4.2906 Y-5.2155
N17980 X4.294
N17985 X4.3 Y-5.2153
N17990 X4.3058 Y-5.214
N17995 X4.3113 Y-5.2116
N18000 X4.3164 Y-5.2085
N18005 X4.3233 Y-5.201
N18010 X4.3282 Y-5.1921
N18015 X4.3307 Y-5.1822
N18020 Y-5.1721
N18025 X4.3283 Y-5.1622
N18030 X4.3235 Y-5.1533
N18035 X4.3167 Y-5.1458
N18040 X4.3082 Y-5.1402
N18045 G3 X4.2935 Y-5.1374 I-0.0129 J-0.0283
N18050 X4.294 Y-5.2155 I0.0023 J-0.0391
N18055 G1 X4.3018 Y-5.2156
N18060 X4.3074 Y-5.2148
N18065 X4.3131 Y-5.2131
N18070 X4.3159 Y-5.2118
N18075 X4.3201 Y-5.2094
N18080 X4.3243 Y-5.2061
N18085 X4.3271 Y-5.2033
N18090 X4.3294 Y-5.2005
N18095 X4.3313 Y-5.1977
N18100 X4.3329 Y-5.1949
N18105 X4.3353 Y-5.1893
N18110 X4.3355 Y-5.1884
N18115 X4.3367 Y-5.1833
N18120 X4.3371 Y-5.1781
N18125 X4.3367 Y-5.1726
N18130 X4.3355 Y-5.1668
N18135 X4.3333 Y-5.1612
N18140 X4.3317 Y-5.1584
N18145 X4.3298 Y-5.1556
N18150 X4.3274 Y-5.1526
N18155 X4.3243 Y-5.1495
N18160 X4.3205 Y-5.1466
N18165 X4.3166 Y-5.1443
N18170 X4.1588 Y-5.0654
N18175 X4.1553 Y-5.0644 Z-0.1873
N18180 X4.1518 Y-5.0634 Z-0.1866
N18185 X4.1485 Y-5.0624 Z-0.1855
N18190 X4.1458 Y-5.0622 Z-0.1844
N18195 X4.1432 Y-5.062 Z-0.183
N18200 X4.14 Y-5.0625 Z-0.1807
N18205 X4.1371 Y-5.0629 Z-0.178
N18210 X4.1346 Y-5.0633 Z-0.175
N18215 X4.1325 Y-5.0636 Z-0.1717
N18220 X4.1309 Y-5.0641 Z-0.1681
N18225 X4.1297 Y-5.0646 Z-0.1644
N18230 X4.129 Y-5.0648 Z-0.1605
N18235 X4.1288 Y-5.0649 Z-0.1566
N18240 G0 Z0.2
N18245 X5.642 Y-2.5126
N18250 Z0.1
N18255 G3 X5.6664 Y-2.2187 Z0.088 I-0.0957 J0.1559 F13.333
N18260 X5.379 Y-2.2834 Z0.076 I-0.12 J-0.1378
N18265 X5.5267 Y-2.5379 Z0.0641 I0.1673 J-0.0731
N18270 X5.725 Y-2.321 Z0.0521 I0.0196 J0.1813
N18275 X5.459 Y-2.1969 Z0.0401 I-0.1786 J-0.0356
N18280 X5.4203 Y-2.4876 Z0.0281 I0.0874 J-0.1595
N18285 X5.7089 Y-2.4374 Z0.0161 I0.1259 J0.131
N18290 X5.5747 Y-2.1774 Z0.0042 I-0.1625 J0.0807
N18295 X5.3671 Y-2.3831 Z-0.0078 I-0.0283 J-0.179
N18300 X5.6253 Y-2.5194 Z-0.0198 I0.1791 J0.0266
N18305 X5.6779 Y-2.2326 Z-0.0318 I-0.079 J0.1627
N18310 X5.3888 Y-2.2683 Z-0.0438 I-0.1314 J-0.1239
N18315 X5.5094 Y-2.5331 Z-0.0557 I0.1574 J-0.0881
N18320 X5.7256 Y-2.339 Z-0.0677 I0.0369 J0.1764
N18325 X5.4759 Y-2.191 Z-0.0797 I-0.1791 J-0.0177
N18330 X5.4097 Y-2.4732 Z-0.0917 I0.0705 J-0.1654
N18335 X5.6984 Y-2.4519 Z-0.1036 I0.1365 J0.1167
N18340 X5.5917 Y-2.1831 Z-0.1156 I-0.152 J0.0952
N18345 X5.3675 Y-2.3653 Z-0.1276 I-0.0452 J-0.1734
N18350 X5.6082 Y-2.5244 Z-0.1396 I0.1788 J0.0088
N18355 X5.6878 Y-2.2474 Z-0.1516 I-0.0619 J0.1677
N18360 X5.4 Y-2.2545 Z-0.1635 I-0.1413 J-0.1092
N18365 X5.4929 Y-2.5266 Z-0.1755 I0.1463 J-0.102
N18370 X5.7244 Y-2.3566 Z-0.1875 I0.0534 J0.1699
N18375 X5.3681 I-0.1781 J0.
N18380 X5.7244 I0.1781 J0.
N18385 G1 X5.7245 Y-2.3454 F80.3
N18390 X5.7292 Y-2.3007
N18395 X5.7306 Y-2.2948
N18400 X5.7314 Y-2.2889
N18405 X5.7318 Y-2.2829
N18410 Y-2.2769
N18415 X5.7314 Y-2.2709
N18420 X5.7306 Y-2.2646
N18425 X5.7295 Y-2.258
N18430 X5.7278 Y-2.2511
N18435 X5.7257 Y-2.2439
N18440 X5.7231 Y-2.2366
N18445 X5.7199 Y-2.2291
N18450 X5.7162 Y-2.2214
N18455 X5.7118 Y-2.2137
N18460 X5.7069 Y-2.206
N18465 X5.7014 Y-2.1984
N18470 X5.6952 Y-2.1908
N18475 X5.6885 Y-2.1834
N18480 X5.6812 Y-2.1763
N18485 X5.6733 Y-2.1693
N18490 X5.6648 Y-2.1627
N18495 X5.6558 Y-2.1564
N18500 X5.6463 Y-2.1506
N18505 X5.6363 Y-2.1452
N18510 X5.6258 Y-2.1403
N18515 X5.615 Y-2.1359
N18520 X5.6037 Y-2.1322
N18525 X5.5922 Y-2.129
N18530 X5.5803 Y-2.1264
N18535 X5.5682 Y-2.1245
N18540 X5.5559 Y-2.1233
N18545 X5.5435 Y-2.1227
N18550 X5.531 Y-2.1229
N18555 X5.5184 Y-2.1237
N18560 X5.5058 Y-2.1253
N18565 X5.4933 Y-2.1276
N18570 X5.4808 Y-2.1306
N18575 X5.4685 Y-2.1344
N18580 X5.4563 Y-2.1388
N18585 X5.4444 Y-2.1439
N18590 X5.4328 Y-2.1497
N18595 X5.4215 Y-2.1562
N18600 X5.4105 Y-2.1633
N18605 X5.3999 Y-2.1711
N18610 X5.3898 Y-2.1794
N18615 X5.3801 Y-2.1883
N18620 X5.371 Y-2.1978
N18625 X5.3623 Y-2.2078
N18630 X5.3543 Y-2.2182
N18635 X5.3468 Y-2.2291
N18640 X5.3399 Y-2.2405
N18645 X5.3337 Y-2.2522
N18650 X5.3282 Y-2.2642
N18655 X5.3233 Y-2.2766
N18660 X5.3191 Y-2.2892
N18665 X5.3157 Y-2.302
N18670 X5.313 Y-2.315
N18675 X5.311 Y-2.3282
N18680 X5.3097 Y-2.3414
N18685 X5.3092 Y-2.3547
N18690 X5.3095 Y-2.368
N18695 X5.3105 Y-2.3813
N18700 X5.3122 Y-2.3945
N18705 X5.3147 Y-2.4076
N18710 X5.3179 Y-2.4206
N18715 X5.3219 Y-2.4333
N18720 X5.3265 Y-2.4458
N18725 X5.3319 Y-2.458
N18730 X5.3379 Y-2.4699
N18735 X5.3446 Y-2.4815
N18740 X5.352 Y-2.4926
N18745 X5.3599 Y-2.5033
N18750 X5.3685 Y-2.5136
N18755 X5.3776 Y-2.5233
N18760 X5.3872 Y-2.5326
N18765 X5.3974 Y-2.5412
N18770 X5.408 Y-2.5493
N18775 X5.4191 Y-2.5568
N18780 X5.4305 Y-2.5636
N18785 X5.4424 Y-2.5698
N18790 X5.4545 Y-2.5753
N18795 X5.467 Y-2.5802
N18800 X5.4797 Y-2.5843
N18805 X5.4926 Y-2.5877
N18810 X5.5057 Y-2.5903
N18815 X5.5189 Y-2.5922
N18820 X5.5322 Y-2.5934
