%
O01001
(Using high feed G1 F650. instead of G0.)
(T1 D=0.375 CR=0. - ZMIN=0.2 - flat end mill)
(T2 D=0.25 CR=0. TAPER=118deg - ZMIN=-0.1251 - drill)
N10 G90 G94 G17
N15 G20
N20 G53 G0 Z0.

(Adaptive1)
N25 T1 M6
N30 S6000 M3
N35 G17 G90 G94
N40 G54
N45 M8
N50 G1 X-0.0368 Y-0.4277 F650.
N55 G0 G43 Z1.7 H1
N60 T2
N65 G0 Z1.3
N70 Z0.925
N75 G1 Z0.8875 F60.
N80 X-0.0367 Y-0.4274 Z0.883
N85 X-0.0365 Y-0.4266 Z0.8785
N90 X-0.0362 Y-0.4253 Z0.8742
N95 X-0.0357 Y-0.4235 Z0.8701
N100 X-0.0351 Y-0.4213 Z0.8662
N105 X-0.0344 Y-0.4186 Z0.8626
N110 X-0.0337 Y-0.4155 Z0.8594
N115 X-0.0328 Y-0.412 Z0.8566
N120 X-0.0318 Y-0.4083 Z0.8543
N125 X-0.0308 Y-0.4043 Z0.8524
N130 X-0.0297 Y-0.4001 Z0.8511
N135 X-0.0286 Y-0.3957 Z0.8503
N140 X-0.0275 Y-0.3914 Z0.85
N145 G3 X0.0019 Y-0.1872 I-0.9274 J0.2376
N150 G1 Y-0.1815
N155 X-0.0291 Y-0.1481
N160 X-0.0541 Y-0.1101
N165 X-0.0737 Y-0.069
N170 X-0.0886 Y-0.0259
N175 X-0.0996 Y0.0183
N180 X-0.1076 Y0.0631
N185 X-0.1132 Y0.1083
N190 X-0.1172 Y0.1537
N195 X-0.1199 Y0.1992
N200 X-0.1218 Y0.2447
N205 X-0.123 Y0.2902
N210 X-0.1239 Y0.3357
N215 X-0.1245 Y0.3813
N220 X-0.1248 Y0.4268
N225 X-0.1251 Y0.4724
N230 X-0.1253 Y0.5179
N235 X-0.1255 Y0.609
N240 X-0.1256 Y0.7457
N245 Y1.0645
N250 X-0.1243 Y1.11
N255 X-0.1093 Y1.1531
N260 X-0.0844 Y1.1911
N265 X-0.0522 Y1.2233
N270 X-0.0149 Y1.2495
N275 X0.0257 Y1.2702
N280 X0.0684 Y1.2859
N285 X0.1125 Y1.2977
N290 X0.1572 Y1.3062
N295 X0.2023 Y1.3122
N300 X0.2477 Y1.3165
N305 X0.2931 Y1.3194
N310 X0.3386 Y1.3214
N315 X0.3842 Y1.3228
N320 X0.4297 Y1.3237
N325 X0.4753 Y1.3244
N330 X0.5208 Y1.3248
N335 X0.5663 Y1.3251
N340 X0.6119 Y1.3252
N345 X0.6574 Y1.3254
N350 X0.7485 Y1.3255
N355 X0.9307 Y1.3256
N360 X1.8872
N365 X1.9319 Y1.317
N370 X1.9727 Y1.2967
N375 X2.0079 Y1.2678
N380 X2.0371 Y1.2328
N385 X2.0605 Y1.1937
N390 X2.0786 Y1.152
N395 X2.0922 Y1.1085
N400 X2.1022 Y1.0641
N405 X2.1095 Y1.0191
N410 X2.1146 Y0.9738
N415 X2.1181 Y0.9284
N420 X2.1205 Y0.8829
N425 X2.1222 Y0.8374
N430 X2.1233 Y0.7919
N435 X2.1241 Y0.7464
N440 X2.1246 Y0.7008
N445 X2.1249 Y0.6553
N450 X2.1252 Y0.6097
N455 X2.1253 Y0.5642
N460 X2.1255 Y0.4731
N465 X2.1256 Y0.3364
N470 Y0.1087
N475 X2.1158 Y0.0642
N480 X2.0946 Y0.0239
N485 X2.0651 Y-0.0108
N490 X2.0297 Y-0.0394
N495 X1.9903 Y-0.0623
N500 X1.9483 Y-0.08
N505 X1.9047 Y-0.0932
N510 X1.8603 Y-0.103
N515 X1.8152 Y-0.11
N520 X1.77 Y-0.1149
N525 X1.7245 Y-0.1183
N530 X1.6791 Y-0.1207
N535 X1.6335 Y-0.1223
N540 X1.588 Y-0.1234
N545 X1.5425 Y-0.1241
N550 X1.4969 Y-0.1246
N555 X1.4514 Y-0.125
N560 X1.4058 Y-0.1252
N565 X1.3603 Y-0.1253
N570 X1.2692 Y-0.1255
N575 X1.1325 Y-0.1256
N580 X0.9504
N585 X0.2216
N590 X0.1762 Y-0.1215
N595 X0.1331 Y-0.1068
N600 X0.0941 Y-0.0833
N605 X0.0601 Y-0.053
N610 X0.0315 Y-0.0176
N615 X0.008 Y0.0214
N620 X-0.0107 Y0.063
N625 X-0.0252 Y0.1061
N630 X-0.0363 Y0.1503
N635 X-0.0445 Y0.1951
N640 X-0.0506 Y0.2402
N645 X-0.055 Y0.2856
N650 X-0.0582 Y0.331
N655 X-0.0604 Y0.3765
N660 X-0.062 Y0.422
N665 X-0.0631 Y0.4676
N670 X-0.0639 Y0.5131
N675 X-0.0644 Y0.5586
N680 X-0.0648 Y0.6042
N685 X-0.0651 Y0.6497
N690 X-0.0652 Y0.6953
N695 X-0.0654 Y0.7864
N700 X-0.0656 Y0.923
N705 Y0.9686
N710 X-0.0592 Y1.0137
N715 X-0.0439 Y1.0566
N720 X-0.0207 Y1.0958
N725 X0.009 Y1.1303
N730 X0.0437 Y1.1598
N735 X0.0821 Y1.1843
N740 X0.1231 Y1.2042
N745 X0.1658 Y1.2198
N750 X0.2097 Y1.2319
N755 X0.2543 Y1.2411
N760 X0.2994 Y1.248
N765 X0.3446 Y1.253
N770 X0.39 Y1.2567
N775 X0.4355 Y1.2593
N780 X0.481 Y1.2612
N785 X0.5265 Y1.2625
N790 X0.5721 Y1.2635
N795 X0.6176 Y1.2641
N800 X0.6632 Y1.2646
N805 X0.7087 Y1.2649
N810 X0.7543 Y1.2651
N815 X0.7998 Y1.2653
N820 X0.8909 Y1.2655
N825 X1.0275 Y1.2656
N830 X1.4375
N835 X1.7563
N840 X1.8017 Y1.2615
N845 X1.8453 Y1.2485
N850 X1.8856 Y1.2272
N855 X1.9214 Y1.1991
N860 X1.9523 Y1.1656
N865 X1.9781 Y1.1281
N870 X1.9991 Y1.0877
N875 X2.0159 Y1.0453
N880 X2.0289 Y1.0017
N885 X2.0389 Y0.9572
N890 X2.0463 Y0.9123
N895 X2.0518 Y0.8671
N900 X2.0558 Y0.8217
N905 X2.0587 Y0.7762
N910 X2.0607 Y0.7307
N915 X2.0622 Y0.6852
N920 X2.0632 Y0.6397
N925 X2.064 Y0.5941
N930 X2.0645 Y0.5486
N935 X2.0648 Y0.5031
N940 X2.0651 Y0.4575
N945 X2.0652 Y0.412
N950 X2.0654 Y0.3209
N955 X2.0655 Y0.2298
N960 X2.0587 Y0.1847
N965 X2.043 Y0.142
N970 X2.0195 Y0.103
N975 X1.9896 Y0.0686
N980 X1.9547 Y0.0393
N985 X1.9162 Y0.015
N990 X1.8751 Y-0.0047
N995 X1.8323 Y-0.0202
N1000 X1.7884 Y-0.0322
N1005 X1.7438 Y-0.0414
N1010 X1.6987 Y-0.0482
N1015 X1.6534 Y-0.0532
N1020 X1.608 Y-0.0568
N1025 X1.5626 Y-0.0594
N1030 X1.5171 Y-0.0613
N1035 X1.4715 Y-0.0626
N1040 X1.426 Y-0.0635
N1045 X1.3805 Y-0.0641
N1050 X1.3349 Y-0.0646
N1055 X1.2894 Y-0.0649
N1060 X1.2438 Y-0.0651
N1065 X1.1983 Y-0.0653
N1070 X1.1072 Y-0.0655
N1075 X0.9705 Y-0.0656
N1080 X0.5606
N1085 X0.3329
N1090 X0.2874 Y-0.0628
N1095 X0.2431 Y-0.0521
N1100 X0.2015 Y-0.0337
N1105 X0.1637 Y-0.0083
N1110 X0.1303 Y0.0227
N1115 X0.1018 Y0.0582
N1120 X0.0779 Y0.097
N1125 X0.0584 Y0.1382
N1130 X0.0428 Y0.181
N1135 X0.0306 Y0.2249
N1140 X0.0212 Y0.2694
N1145 X0.014 Y0.3144
N1150 X0.0087 Y0.3596
N1155 X0.0047 Y0.405
N1160 X0.0018 Y0.4505
N1165 X-0.0003 Y0.496
N1170 X-0.0018 Y0.5415
N1175 X-0.0029 Y0.587
N1180 X-0.0037 Y0.6325
N1185 X-0.0043 Y0.6781
N1190 X-0.0047 Y0.7236
N1195 X-0.005 Y0.7692
N1200 X-0.0052 Y0.8147
N1205 X-0.0053 Y0.8603
N1210 X-0.0016 Y0.9057
N1215 X0.0094 Y0.9499
N1220 X0.0278 Y0.9916
N1225 X0.0528 Y1.0296
N1230 X0.0834 Y1.0633
N1235 X0.1185 Y1.0924
N1240 X0.1569 Y1.1169
N1245 X0.1977 Y1.1371
N1250 X0.2402 Y1.1534
N1255 X0.2839 Y1.1662
N1260 X0.3284 Y1.1763
N1265 X0.3732 Y1.1839
N1270 X0.4184 Y1.1897
N1275 X0.4638 Y1.194
N1280 X0.5092 Y1.1972
N1285 X0.5547 Y1.1996
N1290 X0.6002 Y1.2013
N1295 X0.6457 Y1.2025
N1300 X0.6913 Y1.2034
N1305 X0.7368 Y1.204
N1310 X0.7824 Y1.2045
N1315 X0.8279 Y1.2048
N1320 X0.8735 Y1.2051
N1325 X0.919 Y1.2052
N1330 X1.0101 Y1.2054
N1335 X1.1467 Y1.2056
N1340 X1.4656
N1345 X1.6478
N1350 X1.6933 Y1.2034
N1355 X1.7379 Y1.1944
N1360 X1.7804 Y1.1779
N1365 X1.8195 Y1.1545
N1370 X1.8544 Y1.1253
N1375 X1.8848 Y1.0914
N1380 X1.9105 Y1.0538
N1385 X1.9318 Y1.0136
N1390 X1.9492 Y0.9714
N1395 X1.9629 Y0.928
N1400 X1.9737 Y0.8837
N1405 X1.982 Y0.839
N1410 X1.9882 Y0.7938
N1415 X1.9929 Y0.7485
N1420 X1.9964 Y0.7031
N1425 X1.999 Y0.6577
N1430 X2.0008 Y0.6121
N1435 X2.0022 Y0.5666
N1440 X2.0032 Y0.5211
N1445 X2.0039 Y0.4755
N1450 X2.0044 Y0.43
N1455 X2.0047 Y0.3844
N1460 X2.005 Y0.3389
N1465 X2.0012 Y0.2935
N1470 X1.9901 Y0.2493
N1475 X1.9715 Y0.2077
N1480 X1.9464 Y0.1698
N1485 X1.9156 Y0.1361
N1490 X1.8805 Y0.1071
N1495 X1.8421 Y0.0827
N1500 X1.8012 Y0.0626
N1505 X1.7586 Y0.0464
N1510 X1.7149 Y0.0336
N1515 X1.6705 Y0.0236
N1520 X1.6256 Y0.016
N1525 X1.5804 Y0.0102
N1530 X1.5351 Y0.0059
N1535 X1.4896 Y0.0027
N1540 X1.4442 Y0.0004
N1545 X1.3986 Y-0.0013
N1550 X1.3531 Y-0.0025
N1555 X1.3076 Y-0.0034
N1560 X1.262 Y-0.0041
N1565 X1.2165 Y-0.0045
N1570 X1.1709 Y-0.0048
N1575 X1.1254 Y-0.0051
N1580 X1.0798 Y-0.0052
N1585 X0.9887 Y-0.0054
N1590 X0.8521 Y-0.0056
N1595 X0.5333
N1600 X0.4422
N1605 X0.3966 Y-0.0045
N1610 X0.3516 Y0.0019
N1615 X0.308 Y0.0152
N1620 X0.2671 Y0.0353
N1625 X0.23 Y0.0617
N1630 X0.197 Y0.0931
N1635 X0.1685 Y0.1286
N1640 X0.1445 Y0.1673
N1645 X0.1246 Y0.2083
N1650 X0.1084 Y0.2509
N1655 X0.0955 Y0.2945
N1660 X0.0854 Y0.3389
N1665 X0.0775 Y0.3838
N1670 X0.0716 Y0.429
N1675 X0.0671 Y0.4743
N1680 X0.0637 Y0.5197
N1685 X0.0612 Y0.5652
N1690 X0.0593 Y0.6107
N1695 X0.058 Y0.6562
N1700 X0.057 Y0.7018
N1705 X0.0562 Y0.7473
N1710 X0.057 Y0.7929
N1715 X0.0627 Y0.838
N1720 X0.0751 Y0.8819
N1725 X0.0943 Y0.9232
N1730 X0.1196 Y0.961
N1735 X0.1502 Y0.9948
N1740 X0.185 Y1.0242
N1745 X0.223 Y1.0492
N1750 X0.2635 Y1.0701
N1755 X0.3058 Y1.0871
N1760 X0.3492 Y1.1008
N1765 X0.3934 Y1.1116
N1770 X0.4382 Y1.12
N1775 X0.4833 Y1.1265
N1780 X0.5286 Y1.1314
N1785 X0.574 Y1.1351
N1790 X0.6194 Y1.1379
N1795 X0.6649 Y1.14
N1800 X0.7105 Y1.1415
N1805 X0.756 Y1.1426
N1810 X0.8015 Y1.1435
N1815 X0.8471 Y1.1441
N1820 X0.8926 Y1.1445
N1825 X0.9382 Y1.1448
N1830 X0.9837 Y1.145
N1835 X1.0293 Y1.1452
N1840 X1.1203 Y1.1454
N1845 X1.257 Y1.1455
N1850 X1.5303 Y1.1456
N1855 X1.5758 Y1.1452
N1860 X1.6212 Y1.1413
N1865 X1.6656 Y1.1312
N1870 X1.7079 Y1.1144
N1875 X1.7471 Y1.0912
N1880 X1.7825 Y1.0625
N1885 X1.8135 Y1.0291
N1890 X1.8402 Y0.9922
N1895 X1.8625 Y0.9525
N1900 X1.881 Y0.9109
N1905 X1.8958 Y0.8678
N1910 X1.9077 Y0.8238
N1915 X1.917 Y0.7793
N1920 X1.9241 Y0.7343
N1925 X1.9296 Y0.6891
N1930 X1.9338 Y0.6437
N1935 X1.9369 Y0.5983
N1940 X1.9392 Y0.5528
N1945 X1.941 Y0.5073
N1950 X1.9422 Y0.4617
N1955 X1.9425 Y0.4162
N1960 X1.938 Y0.3709
N1965 X1.927 Y0.3267
N1970 X1.9092 Y0.2847
N1975 X1.8851 Y0.2461
N1980 X1.8555 Y0.2115
N1985 X1.8215 Y0.1812
N1990 X1.784 Y0.1553
N1995 X1.7439 Y0.1337
N2000 X1.702 Y0.1159
N2005 X1.6587 Y0.1017
N2010 X1.6146 Y0.0903
N2015 X1.5699 Y0.0815
N2020 X1.5249 Y0.0747
N2025 X1.4797 Y0.0694
N2030 X1.4343 Y0.0655
N2035 X1.3888 Y0.0626
N2040 X1.3433 Y0.0604
N2045 X1.2978 Y0.0587
N2050 X1.2523 Y0.0575
N2055 X1.2067 Y0.0567
N2060 X1.1612 Y0.056
N2065 X1.1157 Y0.0556
N2070 X1.0701 Y0.0552
N2075 X1.0246 Y0.055
N2080 X0.979 Y0.0548
N2085 X0.8879 Y0.0546
N2090 X0.7513 Y0.0545
N2095 X0.5691 Y0.0544
N2100 X0.5235 Y0.0545
N2105 X0.478 Y0.0559
N2110 X0.4329 Y0.0619
N2115 X0.389 Y0.0741
N2120 X0.3474 Y0.0927
N2125 X0.3091 Y0.1174
N2130 X0.2747 Y0.1472
N2135 X0.2446 Y0.1814
N2140 X0.2187 Y0.2188
N2145 X0.1969 Y0.2588
N2150 X0.1789 Y0.3007
N2155 X0.1644 Y0.3438
N2160 X0.1527 Y0.3879
N2165 X0.1435 Y0.4325
N2170 X0.1364 Y0.4775
N2175 X0.1309 Y0.5227
N2180 X0.1267 Y0.568
N2185 X0.1235 Y0.6135
N2190 X0.1212 Y0.659
N2195 X0.1205 Y0.7045
N2200 X0.1241 Y0.7499
N2205 X0.1339 Y0.7944
N2210 X0.1503 Y0.8369
N2215 X0.1729 Y0.8765
N2220 X0.201 Y0.9123
N2225 X0.2337 Y0.944
N2230 X0.27 Y0.9715
N2235 X0.3092 Y0.9947
N2240 X0.3504 Y1.0141
N2245 X0.3931 Y1.0299
N2250 X0.4368 Y1.0426
N2255 X0.4813 Y1.0527
N2260 X0.5261 Y1.0607
N2265 X0.5712 Y1.0668
N2270 X0.6165 Y1.0715
N2275 X0.6619 Y1.0751
N2280 X0.7074 Y1.0778
N2285 X0.7529 Y1.0799
N2290 X0.7984 Y1.0814
N2295 X0.844 Y1.0825
N2300 X0.8895 Y1.0833
N2305 X0.9351 Y1.084
N2310 X0.9806 Y1.0844
N2315 X1.0261 Y1.0847
N2320 X1.0717 Y1.085
N2325 X1.1172 Y1.0852
N2330 X1.2083 Y1.0854
N2335 X1.2539
N2340 X1.3905 Y1.0856
N2345 X1.4361
N2350 X1.4816 Y1.0853
N2355 X1.5271 Y1.0829
N2360 X1.572 Y1.0755
N2365 X1.6155 Y1.062
N2370 X1.6566 Y1.0422
N2375 X1.6942 Y1.0166
N2380 X1.728 Y0.9861
N2385 X1.7576 Y0.9514
N2390 X1.7829 Y0.9136
N2395 X1.8042 Y0.8733
N2400 X1.8218 Y0.8313
N2405 X1.8361 Y0.7881
N2410 X1.8476 Y0.744
N2415 X1.8566 Y0.6994
N2420 X1.8637 Y0.6544
N2425 X1.8691 Y0.6091
N2430 X1.8733 Y0.5638
N2435 X1.876 Y0.5183
N2440 X1.8755 Y0.4728
N2445 X1.8693 Y0.4276
N2450 X1.8565 Y0.3839
N2455 X1.8372 Y0.3427
N2460 X1.8118 Y0.3049
N2465 X1.7813 Y0.271
N2470 X1.7467 Y0.2414
N2475 X1.7089 Y0.2161
N2480 X1.6686 Y0.1949
N2485 X1.6265 Y0.1773
N2490 X1.5833 Y0.1631
N2495 X1.5391 Y0.1518
N2500 X1.4945 Y0.1429
N2505 X1.4495 Y0.1359
N2510 X1.4042 Y0.1306
N2515 X1.3589 Y0.1265
N2520 X1.3134 Y0.1234
N2525 X1.2679 Y0.121
N2530 X1.2224 Y0.1193
N2535 X1.1769 Y0.118
N2540 X1.1314 Y0.117
N2545 X1.0858 Y0.1163
N2550 X1.0403 Y0.1158
N2555 X0.9947 Y0.1154
N2560 X0.9492 Y0.1151
N2565 X0.9036 Y0.1149
N2570 X0.8581 Y0.1148
N2575 X0.767 Y0.1146
N2580 X0.6759 Y0.1145
N2585 X0.6304
N2590 X0.5848 Y0.1148
N2595 X0.5393 Y0.1175
N2600 X0.4944 Y0.125
N2605 X0.4509 Y0.1385
N2610 X0.4098 Y0.1581
N2615 X0.3719 Y0.1834
N2620 X0.3378 Y0.2136
N2625 X0.3078 Y0.2478
N2630 X0.2819 Y0.2853
N2635 X0.2601 Y0.3253
N2640 X0.242 Y0.3671
N2645 X0.2272 Y0.4102
N2650 X0.2152 Y0.4541
N2655 X0.2058 Y0.4987
N2660 X0.1983 Y0.5436
N2665 X0.1928 Y0.5888
N2670 X0.1903 Y0.6343
N2675 X0.1927 Y0.6798
N2680 X0.2015 Y0.7245
N2685 X0.2169 Y0.7673
N2690 X0.2387 Y0.8074
N2695 X0.2659 Y0.8438
N2700 X0.2979 Y0.8762
N2705 X0.3337 Y0.9044
N2710 X0.3724 Y0.9285
N2715 X0.4132 Y0.9486
N2720 X0.4557 Y0.9652
N2725 X0.4992 Y0.9786
N2730 X0.5435 Y0.9893
N2735 X0.5882 Y0.9978
N2740 X0.6333 Y1.0045
N2745 X0.6785 Y1.0096
N2750 X0.7239 Y1.0136
N2755 X0.7693 Y1.0166
N2760 X0.8148 Y1.0189
N2765 X0.8603 Y1.0206
N2770 X0.9059 Y1.0219
N2775 X0.9514 Y1.0229
N2780 X0.997 Y1.0236
N2785 X1.0425 Y1.0241
N2790 X1.088 Y1.0245
N2795 X1.1336 Y1.0248
N2800 X1.1791 Y1.025
N2805 X1.2247 Y1.0252
N2810 X1.3158 Y1.0254
N2815 X1.3613
N2820 X1.4069 Y1.025
N2825 X1.4523 Y1.0225
N2830 X1.4974 Y1.0155
N2835 X1.5411 Y1.0027
N2840 X1.5825 Y0.9839
N2845 X1.6209 Y0.9593
N2850 X1.6556 Y0.9298
N2855 X1.6862 Y0.8961
N2860 X1.7128 Y0.8591
N2865 X1.7353 Y0.8195
N2870 X1.7541 Y0.778
N2875 X1.7695 Y0.7352
N2880 X1.782 Y0.6914
N2885 X1.7919 Y0.6469
N2890 X1.7993 Y0.6019
N2895 X1.8026 Y0.5565
N2900 X1.8 Y0.511
N2905 X1.7906 Y0.4665
N2910 X1.7743 Y0.424
N2915 X1.7516 Y0.3845
N2920 X1.7234 Y0.3487
N2925 X1.6907 Y0.3171
N2930 X1.6543 Y0.2897
N2935 X1.6151 Y0.2665
N2940 X1.5738 Y0.2472
N2945 X1.5311 Y0.2313
N2950 X1.4874 Y0.2186
N2955 X1.443 Y0.2084
N2960 X1.3982 Y0.2003
N2965 X1.353 Y0.1941
N2970 X1.3078 Y0.1893
N2975 X1.2624 Y0.1856
N2980 X1.2169 Y0.1828
N2985 X1.1714 Y0.1806
N2990 X1.1259 Y0.179
N2995 X1.0804 Y0.1778
N3000 X1.0348 Y0.1769
N3005 X0.9893 Y0.1763
N3010 X0.9437 Y0.1758
N3015 X0.8982 Y0.1754
N3020 X0.8526 Y0.1751
N3025 X0.8071 Y0.1749
N3030 X0.7615 Y0.1748
N3035 X0.716 Y0.1747
N3040 X0.6704 Y0.175
N3045 X0.6249 Y0.1768
N3050 X0.5798 Y0.1825
N3055 X0.5356 Y0.1937
N3060 X0.4934 Y0.2108
N3065 X0.454 Y0.2336
N3070 X0.4181 Y0.2616
N3075 X0.386 Y0.294
N3080 X0.3581 Y0.33
N3085 X0.3341 Y0.3687
N3090 X0.3139 Y0.4096
N3095 X0.2973 Y0.4519
N3100 X0.2839 Y0.4955
N3105 X0.2742 Y0.54
N3110 X0.2699 Y0.5853
N3115 X0.2723 Y0.6308
N3120 X0.2819 Y0.6753
N3125 X0.2986 Y0.7177
N3130 X0.3217 Y0.757
N3135 X0.3502 Y0.7924
N3140 X0.3833 Y0.8237
N3145 X0.42 Y0.8508
N3150 X0.4593 Y0.8737
N3155 X0.5007 Y0.8928
N3160 X0.5435 Y0.9085
N3165 X0.5872 Y0.9211
N3170 X0.6316 Y0.9312
N3175 X0.6765 Y0.9392
N3180 X0.7216 Y0.9455
N3185 X0.7669 Y0.9503
N3190 X0.8123 Y0.9541
N3195 X0.8577 Y0.9569
N3200 X0.9032 Y0.9591
N3205 X0.9487 Y0.9607
N3210 X0.9943 Y0.962
N3215 X1.0398 Y0.9629
N3220 X1.0853 Y0.9636
N3225 X1.1309 Y0.9641
N3230 X1.1764 Y0.9645
N3235 X1.222 Y0.9648
N3240 X1.2675 Y0.965
N3245 X1.3131 Y0.9649
N3250 X1.3586 Y0.9636
N3255 X1.4039 Y0.9592
N3260 X1.4485 Y0.9497
N3265 X1.4914 Y0.9344
N3270 X1.5318 Y0.9134
N3275 X1.5689 Y0.887
N3280 X1.6023 Y0.856
N3285 X1.6317 Y0.8212
N3290 X1.657 Y0.7834
N3295 X1.6785 Y0.7432
N3300 X1.696 Y0.7012
N3305 X1.709 Y0.6575
N3310 X1.7158 Y0.6125
N3315 X1.715 Y0.5669
N3320 X1.7063 Y0.5222
N3325 X1.6902 Y0.4796
N3330 X1.6673 Y0.4402
N3335 X1.6388 Y0.4048
N3340 X1.6056 Y0.3735
N3345 X1.5688 Y0.3466
N3350 X1.5293 Y0.3239
N3355 X1.4879 Y0.3051
N3360 X1.445 Y0.2897
N3365 X1.4012 Y0.2773
N3370 X1.3567 Y0.2675
N3375 X1.3118 Y0.2597
N3380 X1.2667 Y0.2536
N3385 X1.2214 Y0.249
N3390 X1.176 Y0.2454
N3395 X1.1305 Y0.2426
N3400 X1.085 Y0.2406
N3405 X1.0395 Y0.239
N3410 X0.994 Y0.2378
N3415 X0.9484 Y0.2369
N3420 X0.9029 Y0.2363
N3425 X0.8573 Y0.2358
N3430 X0.8118 Y0.2354
N3435 X0.7662 Y0.2353
N3440 X0.7207 Y0.236
N3445 X0.6753 Y0.2393
N3450 X0.6304 Y0.2469
N3455 X0.5868 Y0.2602
N3460 X0.5454 Y0.2792
N3465 X0.507 Y0.3037
N3470 X0.4721 Y0.333
N3475 X0.4412 Y0.3664
N3480 X0.4144 Y0.4033
N3485 X0.3921 Y0.443
N3490 X0.3756 Y0.4854
N3495 X0.3666 Y0.5301
N3500 X0.3661 Y0.5756
N3505 X0.3741 Y0.6205
N3510 X0.3901 Y0.6631
N3515 X0.4129 Y0.7025
N3520 X0.4416 Y0.7379
N3525 X0.475 Y0.7689
N3530 X0.512 Y0.7955
N3535 X0.5517 Y0.8179
N3540 X0.5933 Y0.8364
N3545 X0.6362 Y0.8515
N3550 X0.6802 Y0.8636
N3555 X0.7247 Y0.8732
N3560 X0.7696 Y0.8808
N3565 X0.8147 Y0.8867
N3570 X0.8601 Y0.8912
N3575 X0.9055 Y0.8947
N3580 X0.9509 Y0.8974
N3585 X0.9964 Y0.8995
N3590 X1.042 Y0.901
N3595 X1.0875 Y0.9022
N3600 X1.133 Y0.903
N3605 X1.1786 Y0.9037
N3610 X1.2241 Y0.904
N3615 X1.2697 Y0.9035
N3620 X1.3151 Y0.9009
N3625 X1.3602 Y0.894
N3630 X1.404 Y0.8817
N3635 X1.4459 Y0.8637
N3640 X1.4849 Y0.8402
N3645 X1.5204 Y0.8117
N3650 X1.5519 Y0.7788
N3655 X1.5783 Y0.7417
N3660 X1.5977 Y0.7004
N3665 X1.6081 Y0.6561
N3670 X1.6089 Y0.6106
N3675 X1.6004 Y0.5658
N3680 X1.5836 Y0.5235
N3685 X1.5596 Y0.4848
N3690 X1.5298 Y0.4503
N3695 X1.4954 Y0.4204
N3700 X1.4576 Y0.3951
N3705 X1.4173 Y0.3739
N3710 X1.3751 Y0.3566
N3715 X1.3318 Y0.3426
N3720 X1.2876 Y0.3315
N3725 X1.2429 Y0.3228
N3730 X1.1979 Y0.316
N3735 X1.1526 Y0.3108
N3740 X1.1072 Y0.3068
N3745 X1.0618 Y0.3037
N3750 X1.0163 Y0.3014
N3755 X0.9708 Y0.2996
N3760 X0.9253 Y0.2983
N3765 X0.8797 Y0.2973
N3770 X0.8342 Y0.2968
N3775 X0.7886 Y0.2972
N3780 X0.7432 Y0.3004
N3785 X0.6983 Y0.3078
N3790 X0.6545 Y0.3206
N3795 X0.613 Y0.3391
N3800 X0.5743 Y0.3633
N3805 X0.5399 Y0.3931
N3810 X0.5125 Y0.4295
N3815 X0.4947 Y0.4714
N3820 X0.4875 Y0.5164
N3825 X0.4909 Y0.5618
N3830 X0.5039 Y0.6055
N3835 X0.525 Y0.6458
N3840 X0.5527 Y0.682
N3845 X0.5856 Y0.7134
N3850 X0.6225 Y0.7402
N3855 X0.6622 Y0.7625
N3860 X0.7046 Y0.7791
N3865 X0.7481 Y0.7925
N3870 X0.7924 Y0.8033
N3875 X0.8371 Y0.8118
N3880 X0.8822 Y0.8184
N3885 X0.9275 Y0.8236
N3890 X0.9728 Y0.8276
N3895 X1.0183 Y0.8306
N3900 X1.0638 Y0.833
N3905 X1.1093 Y0.8347
N3910 X1.1548 Y0.8358
N3915 X1.2003 Y0.8359
N3920 X1.2458 Y0.8334
N3925 X1.2909 Y0.8266
N3930 X1.3348 Y0.8145
N3935 X1.3765 Y0.7962
N3940 X1.3948 Y0.7826
N3945 X1.4027 Y0.7745
N3950 X1.4101 Y0.7658
N3955 X1.4167 Y0.7565
N3960 X1.4226 Y0.7468
N3965 X1.4278 Y0.7366
N3970 X1.4451 Y0.6945
N3975 X1.4488 Y0.6491
N3980 X1.4408 Y0.6043
N3985 X1.423 Y0.5624
N3990 X1.3973 Y0.5248
N3995 X1.3656 Y0.4921
N4000 X1.3294 Y0.4644
N4005 X1.29 Y0.4416
N4010 X1.2484 Y0.423
N4015 X1.2053 Y0.4083
N4020 X1.1613 Y0.3967
N4025 X1.1166 Y0.3877
N4030 X1.0716 Y0.3808
N4035 X1.0264 Y0.3755
N4040 X0.981 Y0.3716
N4045 X0.9355 Y0.3687
N4050 X0.89 Y0.3669
N4055 X0.8445 Y0.3671
N4060 X0.7991 Y0.3707
N4065 X0.7767 Y0.375
N4070 X0.7659 Y0.3785
N4075 X0.7553 Y0.3828
N4080 X0.7451 Y0.3879
N4085 X0.7354 Y0.3938
N4090 X0.7261 Y0.4004
N4095 X0.7174 Y0.4077
N4100 X0.7092 Y0.4157
N4105 X0.7017 Y0.4242
N4110 X0.6949 Y0.4333
N4115 X0.6888 Y0.4429
N4120 X0.6834 Y0.453
N4125 X0.6789 Y0.4634
N4130 X0.6752 Y0.4742
N4135 X0.6723 Y0.4852
N4140 X0.6702 Y0.4964
N4145 X0.6691 Y0.5077
N4150 X0.6688 Y0.5191
N4155 X0.6694 Y0.5305
N4160 X0.6708 Y0.5418
N4165 X0.6732 Y0.5529
N4170 X0.6764 Y0.5639
N4175 X0.6804 Y0.5745
N4180 X0.6852 Y0.5848
N4185 X0.6908 Y0.5947
N4190 X0.7163 Y0.6325
N4195 X0.7509 Y0.6621
N4200 X0.7893 Y0.6866
N4205 X0.8302 Y0.7066
N4210 X0.8729 Y0.7225
N4215 X0.9167 Y0.735
N4220 X0.9612 Y0.7447
N4225 X1.0061 Y0.7521
N4230 X1.0514 Y0.7577
N4235 X1.057 Y0.7582
N4240 X1.1024 Y0.7618
N4245 X1.1081 Y0.7619
N4250 G3 X1.1433 Y0.8016 Z0.858 I-0.0023 J0.0374
N4255 X1.0941 Y0.835 I-0.0374 J-0.0023
N4260 G1 X0.8968 Y0.77
N4265 X0.8966 Y0.7699
N4270 G3 X0.8729 Y0.7225 Z0.85 I0.0119 J-0.0356
N4275 G1 X0.8809 Y0.7011
N4280 X0.8987 Y0.6996
N4285 X0.928 Y0.6983
N4290 X0.9394
N4295 X0.9451
N4300 X0.9487 Y0.699 Z0.8502
N4305 X0.9522 Y0.6997 Z0.8509
N4310 X0.9557 Y0.7003 Z0.852
N4315 X0.9592 Y0.7021 Z0.8538
N4320 X0.9624 Y0.7038 Z0.8561
N4325 X0.9653 Y0.7052 Z0.8589
N4330 X0.9673 Y0.7071 Z0.8619
N4335 X0.969 Y0.7086 Z0.8653
N4340 X0.9703 Y0.7099 Z0.869
N4345 X0.9713 Y0.7108 Z0.8728
N4350 X0.9719 Y0.7113 Z0.8768
N4355 X0.9721 Y0.7115 Z0.8809
N4360 G0 Z1.3
N4365 G1 X-0.2979 Y-0.0517 F650.
N4370 G0 Z0.685
N4375 G1 Z0.6475 F60.
N4380 X-0.2977 Y-0.0514 Z0.643
N4385 X-0.2973 Y-0.0508 Z0.6385
N4390 X-0.2966 Y-0.0496 Z0.6342
N4395 X-0.2956 Y-0.0481 Z0.6301
N4400 X-0.2943 Y-0.0461 Z0.6262
N4405 X-0.2928 Y-0.0437 Z0.6226
N4410 X-0.2911 Y-0.041 Z0.6194
N4415 X-0.2892 Y-0.038 Z0.6166
N4420 X-0.2871 Y-0.0348 Z0.6143
N4425 X-0.2849 Y-0.0313 Z0.6124
N4430 X-0.2825 Y-0.0276 Z0.6111
N4435 X-0.2801 Y-0.0239 Z0.6103
N4440 X-0.2777 Y-0.0201 Z0.61
N4445 G3 X-0.1859 Y0.1646 I-0.8065 J0.5158
N4450 G1 X-0.1829 Y0.1738
N4455 X-0.1776 Y0.185
N4460 X-0.1731 Y0.1935
N4465 X-0.1681 Y0.2046
N4470 X-0.1646 Y0.2132
N4475 X-0.1608 Y0.2238
N4480 X-0.1567 Y0.237
N4485 X-0.1523 Y0.2535
N4490 X-0.1476 Y0.2746
N4495 X-0.1427 Y0.3025
N4500 X-0.1375 Y0.3415
N4505 X-0.1334 Y0.3869
N4510 X-0.1307 Y0.4324
N4515 X-0.129 Y0.4779
N4520 X-0.1279 Y0.5234
N4525 X-0.1271 Y0.5689
N4530 X-0.1266 Y0.6145
N4535 X-0.1263 Y0.66
N4540 X-0.1261 Y0.7056
N4545 X-0.1259 Y0.7511
N4550 X-0.1258 Y0.8422
N4555 X-0.1257 Y0.8958
N4560 X-0.1268 Y0.9125
N4565 X-0.13 Y0.929
N4570 X-0.1353 Y0.9449
N4575 X-0.1426 Y0.96
N4580 X-0.1519 Y0.974
N4585 G3 X-0.2046 Y0.9796 Z0.618 I-0.0291 J-0.0236
N4590 X-0.2185 Y0.9517 I0.0236 J-0.0292
N4595 G1 X-0.2433 Y0.2132
N4600 G3 X-0.2242 Y0.1793 I0.0375 J-0.0013
N4605 X-0.1731 Y0.1935 Z0.61 I0.0184 J0.0327
N4610 G1 X-0.1717 Y0.1962
N4615 X-0.1654 Y0.2074
N4620 X-0.1574 Y0.2187
N4625 X-0.1507 Y0.2275
N4630 X-0.1487 Y0.2299
N4635 X-0.1478 Y0.2307
N4640 X-0.1438 Y0.2352
N4645 X-0.1401 Y0.2399
N4650 X-0.1366 Y0.2449
N4655 X-0.1326 Y0.2511
N4660 X-0.1282 Y0.2587
N4665 X-0.124 Y0.2666
N4670 X-0.1193 Y0.2764
N4675 X-0.1142 Y0.2884
N4680 X-0.1093 Y0.3015
N4685 X-0.1039 Y0.3177
N4690 X-0.0985 Y0.337
N4695 X-0.0928 Y0.3612
N4700 X-0.087 Y0.391
N4705 X-0.0811 Y0.4311
N4710 X-0.0763 Y0.4764
N4715 X-0.073 Y0.5219
N4720 X-0.0707 Y0.5673
N4725 X-0.0692 Y0.6129
N4730 X-0.0681 Y0.6584
N4735 X-0.0673 Y0.7039
N4740 X-0.0668 Y0.7495
N4745 X-0.0664 Y0.795
N4750 X-0.0668 Y0.825
N4755 X-0.0679 Y0.8453
N4760 X-0.0685 Y0.8518
N4765 X-0.0713 Y0.869
N4770 X-0.0765 Y0.8857
N4775 X-0.0838 Y0.9015
N4780 X-0.0931 Y0.9162
N4785 X-0.1043 Y0.9296
N4790 X-0.1173 Y0.9413
N4795 G3 X-0.1697 Y0.9333 Z0.618 I-0.0222 J-0.0302
N4800 X-0.1769 Y0.913 I0.0302 J-0.0222
N4805 G1 X-0.2108 Y0.2601
N4810 G3 X-0.2008 Y0.2326 I0.0374 J-0.0019
N4815 X-0.1478 Y0.2307 Z0.61 I0.0274 J0.0256
N4820 G1 X-0.1395 Y0.2391
N4825 X-0.1254 Y0.2523
N4830 X-0.117 Y0.2589
N4835 X-0.1123 Y0.2626
N4840 X-0.1079 Y0.2667
N4845 X-0.1037 Y0.271
N4850 X-0.0998 Y0.2755
N4855 X-0.0953 Y0.281
N4860 X-0.0907 Y0.2872
N4865 X-0.0859 Y0.2942
N4870 X-0.0806 Y0.3029
N4875 X-0.0755 Y0.3119
N4880 X-0.0698 Y0.3231
N4885 X-0.0639 Y0.336
N4890 X-0.0581 Y0.3503
N4895 X-0.0518 Y0.3682
N4900 X-0.0457 Y0.3877
N4905 X-0.0393 Y0.4122
N4910 X-0.0328 Y0.4419
N4915 X-0.0263 Y0.4793
N4920 X-0.0204 Y0.5244
N4925 X-0.0162 Y0.5698
N4930 X-0.0132 Y0.6152
N4935 X-0.011 Y0.6607
N4940 X-0.0095 Y0.7063
N4945 X-0.0088 Y0.7511
N4950 X-0.0095 Y0.7774
N4955 X-0.0109 Y0.797
N4960 X-0.0126 Y0.8122
N4965 X-0.0149 Y0.8271
N4970 X-0.0158 Y0.8317
N4975 X-0.0204 Y0.8487
N4980 X-0.0273 Y0.8649
N4985 X-0.0363 Y0.88
N4990 X-0.0473 Y0.8938
N4995 X-0.06 Y0.906
N5000 X-0.0742 Y0.9163
N5005 X-0.0897 Y0.9247
N5010 G3 X-0.1387 Y0.9042 Z0.618 I-0.0142 J-0.0347
N5015 X-0.1414 Y0.892 I0.0347 J-0.0143
N5020 G1 X-0.1748 Y0.2925
N5025 G3 X-0.1689 Y0.27 I0.0374 J-0.0021
N5030 X-0.117 Y0.2589 Z0.61 I0.0315 J0.0204
N5035 G1 X-0.1104 Y0.2635
N5040 X-0.1058 Y0.2664
N5045 X-0.0946 Y0.2732
N5050 X-0.0911 Y0.2747
N5055 X-0.0857 Y0.2775
N5060 X-0.0806 Y0.2806
N5065 X-0.0757 Y0.284
N5070 X-0.071 Y0.2877
N5075 X-0.0665 Y0.2917
N5080 X-0.0617 Y0.2962
N5085 X-0.057 Y0.3011
N5090 X-0.0518 Y0.307
N5095 X-0.0466 Y0.3134
N5100 X-0.0409 Y0.3211
N5105 X-0.0352 Y0.3295
N5110 X-0.0291 Y0.3394
N5115 X-0.0229 Y0.3505
N5120 X-0.0165 Y0.3632
N5125 X-0.0097 Y0.3782
N5130 X-0.003 Y0.3946
N5135 X0.0042 Y0.415
N5140 X0.011 Y0.4371
N5145 X0.0181 Y0.4642
N5150 X0.0253 Y0.4973
N5155 X0.0324 Y0.5385
N5160 X0.0382 Y0.5837
N5165 X0.0425 Y0.6291
N5170 X0.0454 Y0.6745
N5175 X0.0463 Y0.7101
N5180 X0.0458 Y0.7372
N5185 X0.0445 Y0.7588
N5190 X0.0429 Y0.7747
N5195 X0.0406 Y0.7904
N5200 X0.0382 Y0.8026
N5205 X0.0353 Y0.8153
N5210 X0.0322 Y0.826
N5215 X0.0256 Y0.8426
N5220 X0.0167 Y0.8581
N5225 X0.0057 Y0.8722
N5230 X-0.007 Y0.8847
N5235 X-0.0214 Y0.8953
N5240 X-0.037 Y0.9038
N5245 X-0.0537 Y0.9102
N5250 G3 X-0.0996 Y0.8835 Z0.618 I-0.0096 J-0.0363
N5255 G1 X-0.1003 Y0.8801
N5260 X-0.1007 Y0.8767
N5265 X-0.1427 Y0.3122
N5270 G3 X-0.14 Y0.2952 I0.0374 J-0.0028
N5275 X-0.0911 Y0.2747 Z0.61 I0.0347 J0.0143
N5280 G1 X-0.0663 Y0.286
N5285 X-0.0609 Y0.2877
N5290 X-0.0552 Y0.2897
N5295 X-0.0497 Y0.292
N5300 X-0.0444 Y0.2948
N5305 X-0.0392 Y0.2979
N5310 X-0.0343 Y0.3012
N5315 X-0.0294 Y0.3048
N5320 X-0.0243 Y0.309
N5325 X-0.0193 Y0.3135
N5330 X-0.0137 Y0.319
N5335 X-0.008 Y0.3249
N5340 X-0.0019 Y0.332
N5345 X0.0042 Y0.3397
N5350 X0.0108 Y0.3487
N5355 X0.0174 Y0.3586
N5360 X0.0244 Y0.3701
N5365 X0.0315 Y0.383
N5370 X0.0388 Y0.3978
N5375 X0.0462 Y0.4145
N5380 X0.0539 Y0.434
N5385 X0.0616 Y0.4562
N5390 X0.0692 Y0.4817
N5395 X0.077 Y0.5123
N5400 X0.0844 Y0.548
N5405 X0.0906 Y0.5856
N5410 X0.095 Y0.6221
N5415 X0.0976 Y0.655
N5420 X0.0987 Y0.6841
N5425 X0.0985 Y0.7088
N5430 X0.0974 Y0.7313
N5435 X0.0959 Y0.7485
N5440 X0.0936 Y0.7651
N5445 X0.0913 Y0.7779
N5450 X0.0884 Y0.791
N5455 X0.0855 Y0.8021
N5460 X0.0823 Y0.8123
N5465 X0.0785 Y0.8229
N5470 X0.075 Y0.8314
N5475 X0.066 Y0.8477
N5480 X0.0548 Y0.8625
N5485 X0.0415 Y0.8755
N5490 X0.0265 Y0.8864
N5495 X0.01 Y0.8951
N5500 X-0.0075 Y0.9013
N5505 X-0.0257 Y0.9048
N5510 G3 X-0.0663 Y0.8706 Z0.618 I-0.0032 J-0.0374
N5515 G1 Y0.8703
N5520 X-0.1079 Y0.3268
N5525 G3 X-0.1067 Y0.3143 I0.0374 J-0.0029
N5530 X-0.0609 Y0.2877 Z0.61 I0.0362 J0.0096
N5535 G1 X-0.0497 Y0.2911
N5540 X-0.0384 Y0.2937
N5545 X-0.035 Y0.2941
N5550 X-0.0291 Y0.2951
N5555 X-0.0233 Y0.2965
N5560 X-0.0176 Y0.2983
N5565 X-0.012 Y0.3006
N5570 X-0.0066 Y0.3032
N5575 X-0.0013 Y0.3061
N5580 X0.0038 Y0.3092
N5585 X0.009 Y0.3127
N5590 X0.0144 Y0.3167
N5595 X0.0203 Y0.3215
N5600 X0.0262 Y0.3267
N5605 X0.0327 Y0.3329
N5610 X0.0391 Y0.3395
N5615 X0.046 Y0.3474
N5620 X0.053 Y0.3561
N5625 X0.0603 Y0.3659
N5630 X0.0679 Y0.3772
N5635 X0.0755 Y0.3894
N5640 X0.0837 Y0.404
N5645 X0.0914 Y0.4193
N5650 X0.0998 Y0.438
N5655 X0.1078 Y0.4578
N5660 X0.1159 Y0.4806
N5665 X0.1238 Y0.5064
N5670 X0.1309 Y0.5334
N5675 X0.137 Y0.5615
N5680 X0.142 Y0.5904
N5685 X0.1456 Y0.6187
N5690 X0.1479 Y0.645
N5695 X0.149 Y0.6697
N5700 Y0.6924
N5705 X0.1481 Y0.7127
N5710 X0.1466 Y0.7316
N5715 X0.1443 Y0.7492
N5720 X0.1419 Y0.7633
N5725 X0.1389 Y0.7772
N5730 X0.1358 Y0.7892
N5735 X0.1326 Y0.7997
N5740 X0.1287 Y0.8108
N5745 X0.1251 Y0.8197
N5750 X0.1211 Y0.8288
N5755 X0.1165 Y0.8378
N5760 X0.1061 Y0.8537
N5765 X0.0933 Y0.8678
N5770 X0.0786 Y0.8798
N5775 X0.0623 Y0.8895
N5780 X0.0446 Y0.8967
N5785 X0.0261 Y0.901
N5790 X0.0072 Y0.9026
N5795 X-0.0048 Y0.9027
N5800 X-0.0092 Y0.9028
N5805 X-0.0257 Y0.9048
N5810 G3 X-0.0663 Y0.8706 Z0.618 I-0.0032 J-0.0374
N5815 G1 X-0.0664 Y0.8681
N5820 X-0.0757 Y0.3321
N5825 X-0.0756 Y0.3282
N5830 G3 X-0.035 Y0.2941 Z0.61 I0.0374 J0.0032
N5835 G1 X-0.0092 Y0.2972
N5840 X-0.0048 Y0.2973
N5845 X0.0012 Y0.2976
N5850 X0.0072 Y0.2985
N5855 X0.013 Y0.2998
N5860 X0.0188 Y0.3015
N5865 X0.0244 Y0.3036
N5870 X0.0299 Y0.306
N5875 X0.0353 Y0.3087
N5880 X0.0408 Y0.3117
N5885 X0.0464 Y0.3151
N5890 X0.0525 Y0.3191
N5895 X0.0587 Y0.3237
N5900 X0.0653 Y0.3289
N5905 X0.0722 Y0.3349
N5910 X0.0791 Y0.3415
N5915 X0.0867 Y0.3492
N5920 X0.0942 Y0.3576
N5925 X0.102 Y0.3672
N5930 X0.1102 Y0.3781
N5935 X0.1182 Y0.3898
N5940 X0.1268 Y0.4035
N5945 X0.1351 Y0.4182
N5950 X0.1435 Y0.4345
N5955 X0.152 Y0.4529
N5960 X0.1601 Y0.4728
N5965 X0.1677 Y0.4937
N5970 X0.1749 Y0.5165
N5975 X0.1813 Y0.5404
N5980 X0.1867 Y0.565
N5985 X0.1912 Y0.5897
N5990 X0.1945 Y0.614
N5995 X0.1967 Y0.6378
N6000 X0.1978 Y0.6608
N6005 X0.198 Y0.6819
N6010 X0.1973 Y0.7017
N6015 X0.1958 Y0.7203
N6020 X0.1937 Y0.7377
N6025 X0.1911 Y0.7537
N6030 X0.188 Y0.7687
N6035 X0.1849 Y0.7807
N6040 X0.1811 Y0.7936
N6045 X0.1775 Y0.804
N6050 X0.1737 Y0.8138
N6055 X0.1692 Y0.8239
N6060 X0.1652 Y0.8321
N6065 X0.1606 Y0.8404
N6070 X0.1601 Y0.8412
N6075 X0.1493 Y0.8564
N6080 X0.1364 Y0.8698
N6085 X0.1217 Y0.8813
N6090 X0.1055 Y0.8904
N6095 X0.0881 Y0.8971
N6100 X0.0699 Y0.9011
N6105 X0.0514 Y0.9025
N6110 X0.0289
N6115 X0.0072 Y0.9026
N6120 G3 X-0.0293 Y0.866 Z0.6177 I0.001 J-0.0375
N6125 G1 Y0.8641 Z0.618
N6130 X-0.0412 Y0.3358
N6135 Y0.3356
N6140 G3 X-0.0048 Y0.2973 Z0.61 I0.0375 J-0.0008
N6145 G1 X0.0177 Y0.2975
N6150 X0.0308
N6155 X0.0368 Y0.2978
N6160 X0.0427 Y0.2985
N6165 X0.0486 Y0.2997
N6170 X0.0544 Y0.3012
N6175 X0.0601 Y0.303
N6180 X0.0658 Y0.3052
N6185 X0.0713 Y0.3076
N6190 X0.077 Y0.3103
N6195 X0.0831 Y0.3136
N6200 X0.0896 Y0.3175
N6205 X0.0961 Y0.3217
N6210 X0.1032 Y0.3268
N6215 X0.1104 Y0.3325
N6220 X0.1178 Y0.3388
N6225 X0.1257 Y0.3462
N6230 X0.1336 Y0.3541
N6235 X0.1418 Y0.3632
N6240 X0.1504 Y0.3735
N6245 X0.1587 Y0.3845
N6250 X0.1673 Y0.3968
N6255 X0.1762 Y0.4107
N6260 X0.1847 Y0.4253
N6265 X0.1931 Y0.4414
N6270 X0.2014 Y0.4592
N6275 X0.2094 Y0.4784
N6280 X0.2169 Y0.4983
N6285 X0.2236 Y0.5192
N6290 X0.2296 Y0.541
N6295 X0.2348 Y0.5635
N6300 X0.2391 Y0.5862
N6305 X0.2423 Y0.6089
N6310 X0.2445 Y0.6312
N6315 X0.2458 Y0.6528
N6320 X0.2461 Y0.6735
N6325 X0.2456 Y0.6931
N6330 X0.2443 Y0.7119
N6335 X0.2423 Y0.7296
N6340 X0.2397 Y0.7461
N6345 X0.2366 Y0.7615
N6350 X0.2332 Y0.7758
N6355 X0.2297 Y0.7875
N6360 X0.2255 Y0.8
N6365 X0.2217 Y0.81
N6370 X0.2174 Y0.8198
N6375 X0.2128 Y0.8295
N6380 X0.2085 Y0.8374
N6385 X0.2074 Y0.8393
N6390 X0.1964 Y0.8549
N6395 X0.1833 Y0.8688
N6400 X0.1683 Y0.8806
N6405 X0.1517 Y0.89
N6410 X0.1339 Y0.8969
N6415 X0.1153 Y0.9011
N6420 X0.0963 Y0.9025
N6425 X0.0514
N6430 G3 X0.0152 Y0.8665 Z0.6176 I0.0013 J-0.0375
N6435 G1 X0.0151 Y0.8637 Z0.618
N6440 X-0.0054 Y0.3364
N6445 Y0.3363
N6450 G3 X0.0308 Y0.2975 Z0.61 I0.0375 J-0.0013
N6455 G1 X0.0688
N6460 X0.0757 Y0.2978
N6465 X0.0817 Y0.2984
N6470 X0.0876 Y0.2994
N6475 X0.0934 Y0.3007
N6480 X0.0992 Y0.3024
N6485 X0.1049 Y0.3043
N6490 X0.1105 Y0.3065
N6495 X0.1166 Y0.3092
N6500 X0.1228 Y0.3123
N6505 X0.1294 Y0.3159
N6510 X0.1364 Y0.3201
N6515 X0.1434 Y0.3248
N6520 X0.1511 Y0.3304
N6525 X0.1588 Y0.3365
N6530 X0.1667 Y0.3433
N6535 X0.1751 Y0.3512
N6540 X0.1834 Y0.3598
N6545 X0.1919 Y0.3693
N6550 X0.2008 Y0.3801
N6555 X0.2096 Y0.3918
N6560 X0.2182 Y0.4044
N6565 X0.227 Y0.4184
N6570 X0.2358 Y0.4338
N6575 X0.2441 Y0.45
N6580 X0.252 Y0.4671
N6585 X0.2596 Y0.4856
N6590 X0.2667 Y0.5052
N6595 X0.2732 Y0.5256
N6600 X0.2788 Y0.5467
N6605 X0.2836 Y0.5681
N6610 X0.2875 Y0.5897
N6615 X0.2905 Y0.6112
N6620 X0.2925 Y0.6325
N6625 X0.2935 Y0.6534
N6630 X0.2937 Y0.6738
N6635 X0.293 Y0.6935
N6640 X0.2916 Y0.7121
N6645 X0.2895 Y0.7295
N6650 X0.2869 Y0.7459
N6655 X0.2836 Y0.7616
N6660 X0.2801 Y0.7755
N6665 X0.2765 Y0.7876
N6670 X0.2722 Y0.8001
N6675 X0.2684 Y0.8099
N6680 X0.2638 Y0.8202
N6685 X0.2592 Y0.8296
N6690 X0.2549 Y0.8375
N6695 X0.2535 Y0.8397
N6700 X0.2425 Y0.8553
N6705 X0.2293 Y0.869
N6710 X0.2143 Y0.8807
N6715 X0.1977 Y0.8901
N6720 X0.1799 Y0.8969
N6725 X0.1613 Y0.9011
N6730 X0.1423 Y0.9025
N6735 X0.0963
N6740 G3 X0.0601 Y0.867 Z0.6176 I0.0013 J-0.0375
N6745 G1 X0.06 Y0.8637 Z0.618
N6750 X0.0326 Y0.3369
N6755 Y0.3363
N6760 G3 X0.0688 Y0.2975 Z0.61 I0.0375 J-0.0013
N6765 G1 X0.1137
N6770 X0.1197 Y0.2978
N6775 X0.1256 Y0.2984
N6780 X0.1316 Y0.2994
N6785 X0.1374 Y0.3007
N6790 X0.1432 Y0.3024
N6795 X0.1489 Y0.3043
N6800 X0.1548 Y0.3065
N6805 X0.1609 Y0.3092
N6810 X0.1676 Y0.3124
N6815 X0.1743 Y0.3161
N6820 X0.1814 Y0.3203
N6825 X0.189 Y0.3253
N6830 X0.1966 Y0.3307
N6835 X0.2046 Y0.3369
N6840 X0.213 Y0.3441
N6845 X0.2213 Y0.3518
N6850 X0.2299 Y0.3605
N6855 X0.2388 Y0.3703
N6860 X0.2476 Y0.3808
N6865 X0.2563 Y0.3923
N6870 X0.2653 Y0.405
N6875 X0.2742 Y0.419
N6880 X0.2827 Y0.4337
N6885 X0.2909 Y0.4494
N6890 X0.299 Y0.4664
N6895 X0.3066 Y0.4845
N6900 X0.3136 Y0.5036
N6905 X0.32 Y0.5233
N6910 X0.3257 Y0.5436
N6915 X0.3305 Y0.5643
N6920 X0.3344 Y0.5854
N6925 X0.3375 Y0.6065
N6930 X0.3396 Y0.6275
N6935 X0.3408 Y0.6482
N6940 X0.3411 Y0.6683
N6945 X0.3406 Y0.6879
N6950 X0.3393 Y0.7066
N6955 X0.3373 Y0.7246
N6960 X0.3347 Y0.7413
N6965 X0.3316 Y0.7571
N6970 X0.328 Y0.7718
N6975 X0.3245 Y0.784
N6980 X0.3202 Y0.7969
N6985 X0.3162 Y0.8074
N6990 X0.3119 Y0.8173
N6995 X0.307 Y0.8274
N7000 X0.3026 Y0.8355
N7005 X0.2976 Y0.844
N7010 X0.2866 Y0.8585
N7015 X0.2736 Y0.8714
N7020 X0.2589 Y0.8823
N7025 X0.2429 Y0.891
N7030 X0.2257 Y0.8973
N7035 X0.2079 Y0.9012
N7040 X0.1896 Y0.9025
N7045 X0.1423
N7050 G3 X0.1062 Y0.867 Z0.6176 I0.0013 J-0.0375
N7055 G1 X0.106 Y0.8637 Z0.618
N7060 X0.0775 Y0.337
N7065 Y0.3363
N7070 G3 X0.1137 Y0.2975 Z0.61 I0.0375 J-0.0013
N7075 G1 X0.1586
N7080 X0.1646 Y0.2978
N7085 X0.1706 Y0.2984
N7090 X0.1765 Y0.2994
N7095 X0.1823 Y0.3006
N7100 X0.1881 Y0.3022
N7105 X0.1939 Y0.3041
N7110 X0.1998 Y0.3063
N7115 X0.2061 Y0.309
N7120 X0.2129 Y0.3122
N7125 X0.2197 Y0.3158
N7130 X0.227 Y0.3201
N7135 X0.2347 Y0.325
N7140 X0.2423 Y0.3304
N7145 X0.2505 Y0.3367
N7150 X0.259 Y0.3438
N7155 X0.2673 Y0.3514
N7160 X0.276 Y0.3601
N7165 X0.285 Y0.3698
N7170 X0.2938 Y0.3802
N7175 X0.3026 Y0.3915
N7180 X0.3116 Y0.4041
N7185 X0.3205 Y0.4179
N7190 X0.3291 Y0.4325
N7195 X0.3373 Y0.4479
N7200 X0.3453 Y0.4644
N7205 X0.3529 Y0.4821
N7210 X0.36 Y0.5007
N7215 X0.3664 Y0.52
N7220 X0.3721 Y0.54
N7225 X0.377 Y0.5603
N7230 X0.3811 Y0.581
N7235 X0.3843 Y0.6019
N7240 X0.3865 Y0.6227
N7245 X0.3879 Y0.6432
N7250 X0.3884 Y0.6634
N7255 X0.388 Y0.683
N7260 X0.3869 Y0.7018
N7265 X0.385 Y0.7201
N7270 X0.3825 Y0.7371
N7275 X0.3795 Y0.7531
N7280 X0.3759 Y0.7682
N7285 X0.372 Y0.7821
N7290 X0.3683 Y0.7937
N7295 X0.3637 Y0.8058
N7300 X0.3597 Y0.8154
N7305 X0.355 Y0.8254
N7310 X0.3501 Y0.8345
N7315 X0.3454 Y0.8427
N7320 X0.3343 Y0.8575
N7325 X0.3212 Y0.8707
N7330 X0.3063 Y0.8818
N7335 X0.29 Y0.8907
N7340 X0.2726 Y0.8972
N7345 X0.2545 Y0.9012
N7350 X0.236 Y0.9025
N7355 X0.1896
N7360 G3 X0.1535 Y0.8672 Z0.6175 I0.0013 J-0.0375
N7365 G1 X0.1533 Y0.8637 Z0.618
N7370 X0.1225 Y0.3372
N7375 X0.1224 Y0.3363
N7380 G3 X0.1586 Y0.2975 Z0.61 I0.0375 J-0.0013
N7385 G1 X0.2035
N7390 X0.2103 Y0.2978
N7395 X0.2163 Y0.2984
N7400 X0.2222 Y0.2993
N7405 X0.2281 Y0.3006
N7410 X0.2339 Y0.3021
N7415 X0.2397 Y0.304
N7420 X0.2456 Y0.3062
N7425 X0.252 Y0.3088
N7430 X0.2588 Y0.312
N7435 X0.2656 Y0.3156
N7440 X0.273 Y0.3198
N7445 X0.2807 Y0.3247
N7450 X0.2884 Y0.33
N7455 X0.2966 Y0.3362
N7460 X0.3051 Y0.3433
N7465 X0.3135 Y0.3509
N7470 X0.3222 Y0.3594
N7475 X0.3312 Y0.369
N7480 X0.3401 Y0.3794
N7485 X0.3489 Y0.3905
N7490 X0.3578 Y0.4029
N7495 X0.3667 Y0.4165
N7500 X0.3754 Y0.4309
N7505 X0.3837 Y0.4461
N7510 X0.3916 Y0.4624
N7515 X0.3992 Y0.4797
N7520 X0.4063 Y0.4979
N7525 X0.4128 Y0.517
N7530 X0.4185 Y0.5367
N7535 X0.4236 Y0.5569
N7540 X0.4277 Y0.5774
N7545 X0.431 Y0.598
N7550 X0.4334 Y0.6187
N7555 X0.4349 Y0.6392
N7560 X0.4356 Y0.6594
N7565 X0.4353 Y0.6792
N7570 X0.4343 Y0.6983
N7575 X0.4325 Y0.7166
N7580 X0.4301 Y0.7341
N7585 X0.4271 Y0.7503
N7590 X0.4236 Y0.7656
N7595 X0.4198 Y0.7798
N7600 X0.416 Y0.7915
N7605 X0.4115 Y0.8038
N7610 X0.4075 Y0.8135
N7615 X0.4028 Y0.8235
N7620 X0.398 Y0.8329
N7625 X0.3935 Y0.8407
N7630 X0.3881 Y0.8492
N7635 X0.3775 Y0.8625
N7640 X0.3651 Y0.8743
N7645 X0.3512 Y0.8842
N7650 X0.3361 Y0.8921
N7655 X0.3201 Y0.8978
N7660 X0.3034 Y0.9013
N7665 X0.2864 Y0.9025
N7670 X0.236
N7675 G3 X0.1999 Y0.8673 Z0.6175 I0.0013 J-0.0375
N7680 G1 X0.1996 Y0.8637 Z0.618
N7685 X0.1674 Y0.3373
N7690 X0.1673 Y0.3363
N7695 G3 X0.2035 Y0.2975 Z0.61 I0.0375 J-0.0013
N7700 G1 X0.2512
N7705 X0.2572 Y0.2978
N7710 X0.2631 Y0.2984
N7715 X0.2691 Y0.2993
N7720 X0.2749 Y0.3006
N7725 X0.2807 Y0.3022
N7730 X0.2865 Y0.304
N7735 X0.2926 Y0.3063
N7740 X0.299 Y0.3089
N7745 X0.3058 Y0.3121
N7750 X0.3128 Y0.3157
N7755 X0.3201 Y0.3199
N7760 X0.3279 Y0.3249
N7765 X0.3358 Y0.3303
N7770 X0.3439 Y0.3365
N7775 X0.3524 Y0.3435
N7780 X0.361 Y0.3513
N7785 X0.3696 Y0.3597
N7790 X0.3785 Y0.3693
N7795 X0.3876 Y0.3798
N7800 X0.3964 Y0.391
N7805 X0.4052 Y0.4032
N7810 X0.4141 Y0.4167
N7815 X0.4228 Y0.4312
N7820 X0.4312 Y0.4466
N7825 X0.439 Y0.4627
N7830 X0.4465 Y0.4798
N7835 X0.4535 Y0.4979
N7840 X0.46 Y0.5168
N7845 X0.4657 Y0.5363
N7850 X0.4707 Y0.5564
N7855 X0.4748 Y0.5769
N7860 X0.4781 Y0.5976
N7865 X0.4805 Y0.6182
N7870 X0.482 Y0.6388
N7875 X0.4827 Y0.6591
N7880 X0.4824 Y0.6789
N7885 X0.4814 Y0.6982
N7890 X0.4796 Y0.7165
N7895 X0.4772 Y0.7337
N7900 X0.4742 Y0.7499
N7905 X0.4707 Y0.7654
N7910 X0.4667 Y0.78
N7915 X0.4627 Y0.7927
N7920 X0.4584 Y0.8044
N7925 X0.4538 Y0.8153
N7930 X0.4496 Y0.8245
N7935 X0.4445 Y0.8343
N7940 X0.4398 Y0.8424
N7945 X0.4392 Y0.8434
N7950 X0.4284 Y0.8581
N7955 X0.4156 Y0.8711
N7960 X0.401 Y0.8821
N7965 X0.3851 Y0.8909
N7970 X0.368 Y0.8973
N7975 X0.3502 Y0.9012
N7980 X0.332 Y0.9025
N7985 X0.2864
N7990 G3 X0.2503 Y0.8675 Z0.6175 I0.0013 J-0.0375
N7995 G1 X0.2501 Y0.8638 Z0.618
N8000 X0.2151 Y0.3375
N8005 X0.215 Y0.3363
N8010 G3 X0.2512 Y0.2975 Z0.61 I0.0375 J-0.0013
N8015 G1 X0.2984
N8020 X0.3044 Y0.2978
N8025 X0.3103 Y0.2984
N8030 X0.3162 Y0.2993
N8035 X0.3221 Y0.3006
N8040 X0.3279 Y0.3022
N8045 X0.3337 Y0.3041
N8050 X0.3399 Y0.3063
N8055 X0.3462 Y0.309
N8060 X0.3531 Y0.3122
N8065 X0.3601 Y0.3159
N8070 X0.3675 Y0.3201
N8075 X0.3753 Y0.325
N8080 X0.3832 Y0.3305
N8085 X0.3913 Y0.3367
N8090 X0.3999 Y0.3438
N8095 X0.4085 Y0.3515
N8100 X0.4171 Y0.36
N8105 X0.426 Y0.3696
N8110 X0.4351 Y0.3802
N8115 X0.4439 Y0.3914
N8120 X0.4527 Y0.4036
N8125 X0.4615 Y0.4169
N8130 X0.4702 Y0.4314
N8135 X0.4785 Y0.4468
N8140 X0.4863 Y0.4629
N8145 X0.4938 Y0.4799
N8150 X0.5008 Y0.498
N8155 X0.5072 Y0.5168
N8160 X0.5129 Y0.5364
N8165 X0.5178 Y0.5564
N8170 X0.522 Y0.5769
N8175 X0.5253 Y0.5976
N8180 X0.5277 Y0.6183
N8185 X0.5291 Y0.6388
N8190 X0.5298 Y0.6591
N8195 X0.5295 Y0.6789
N8200 X0.5284 Y0.6982
N8205 X0.5266 Y0.7168
N8210 X0.5242 Y0.7343
N8215 X0.5212 Y0.7506
N8220 X0.5176 Y0.7662
N8225 X0.5137 Y0.7804
N8230 X0.5099 Y0.7924
N8235 X0.5054 Y0.8047
N8240 X0.5013 Y0.8144
N8245 X0.4966 Y0.8247
N8250 X0.4918 Y0.8338
N8255 X0.4871 Y0.842
N8260 X0.476 Y0.857
N8265 X0.4629 Y0.8703
N8270 X0.448 Y0.8816
N8275 X0.4316 Y0.8906
N8280 X0.4141 Y0.8972
N8285 X0.3959 Y0.9012
N8290 X0.3773 Y0.9025
N8295 X0.332
N8300 G3 X0.2959 Y0.8674 Z0.6175 I0.0013 J-0.0375
N8305 G1 X0.2957 Y0.8637 Z0.618
N8310 X0.2622 Y0.3374
N8315 Y0.3363
N8320 G3 X0.2984 Y0.2975 Z0.61 I0.0375 J-0.0013
N8325 G1 X0.3451
N8330 X0.3511 Y0.2978
N8335 X0.3571 Y0.2984
N8340 X0.363 Y0.2993
N8345 X0.3689 Y0.3006
N8350 X0.3747 Y0.3021
N8355 X0.3805 Y0.304
N8360 X0.3866 Y0.3062
N8365 X0.393 Y0.3088
N8370 X0.3999 Y0.312
N8375 X0.4068 Y0.3156
N8380 X0.4142 Y0.3198
N8385 X0.422 Y0.3247
N8390 X0.4298 Y0.3301
N8395 X0.4379 Y0.3363
N8400 X0.4465 Y0.3433
N8405 X0.455 Y0.351
N8410 X0.4637 Y0.3594
N8415 X0.4726 Y0.369
N8420 X0.4817 Y0.3794
N8425 X0.4904 Y0.3905
N8430 X0.4992 Y0.4026
N8435 X0.5081 Y0.416
N8440 X0.5168 Y0.4304
N8445 X0.525 Y0.4456
N8450 X0.5329 Y0.4615
N8455 X0.5404 Y0.4785
N8460 X0.5474 Y0.4965
N8465 X0.5538 Y0.5153
N8470 X0.5596 Y0.5348
N8475 X0.5646 Y0.5548
N8480 X0.5688 Y0.5752
N8485 X0.5722 Y0.5959
N8490 X0.5746 Y0.6166
N8495 X0.5762 Y0.6373
N8500 X0.5769 Y0.6576
N8505 X0.5767 Y0.6775
N8510 X0.5757 Y0.6969
N8515 X0.5739 Y0.7154
N8520 X0.5715 Y0.733
N8525 X0.5685 Y0.7494
N8530 X0.5651 Y0.7649
N8535 X0.5612 Y0.7791
N8540 X0.5575 Y0.7909
N8545 X0.553 Y0.8032
N8550 X0.549 Y0.813
N8555 X0.5443 Y0.8231
N8560 X0.5395 Y0.8324
N8565 X0.535 Y0.8402
N8570 X0.5341 Y0.8417
N8575 X0.523 Y0.8568
N8580 X0.5099 Y0.8701
N8585 X0.495 Y0.8815
N8590 X0.4786 Y0.8905
N8595 X0.4611 Y0.8971
N8600 X0.4428 Y0.9012
N8605 X0.4241 Y0.9025
N8610 X0.3773
N8615 G3 X0.3411 Y0.8673 Z0.6175 I0.0013 J-0.0375
N8620 G1 X0.3409 Y0.8637 Z0.618
N8625 X0.309 Y0.3372
N8630 Y0.3363
N8635 G3 X0.3451 Y0.2975 Z0.61 I0.0375 J-0.0013
N8640 G1 X0.3916
N8645 X0.3982 Y0.2978
N8650 X0.4042 Y0.2984
N8655 X0.4101 Y0.2993
N8660 X0.416 Y0.3006
N8665 X0.4218 Y0.3021
N8670 X0.4276 Y0.3039
N8675 X0.4337 Y0.3062
N8680 X0.44 Y0.3088
N8685 X0.4469 Y0.312
N8690 X0.4539 Y0.3156
N8695 X0.4612 Y0.3197
N8700 X0.469 Y0.3246
N8705 X0.4769 Y0.33
N8710 X0.485 Y0.3361
N8715 X0.4935 Y0.3432
N8720 X0.5021 Y0.3508
N8725 X0.5107 Y0.3592
N8730 X0.5196 Y0.3687
N8735 X0.5286 Y0.3791
N8740 X0.5374 Y0.3902
N8745 X0.5462 Y0.4023
N8750 X0.555 Y0.4155
N8755 X0.5637 Y0.4299
N8760 X0.572 Y0.4452
N8765 X0.5799 Y0.4611
N8770 X0.5873 Y0.478
N8775 X0.5944 Y0.4959
N8780 X0.6008 Y0.5147
N8785 X0.6066 Y0.5342
N8790 X0.6116 Y0.5542
N8795 X0.6159 Y0.5746
N8800 X0.6192 Y0.5953
N8805 X0.6217 Y0.6161
N8810 X0.6233 Y0.6367
N8815 X0.624 Y0.6571
N8820 X0.6238 Y0.677
N8825 X0.6228 Y0.6964
N8830 X0.6211 Y0.7148
N8835 X0.6187 Y0.7322
N8840 X0.6158 Y0.7485
N8845 X0.6123 Y0.7641
N8850 X0.6085 Y0.7782
N8855 X0.6048 Y0.7902
N8860 X0.6002 Y0.8026
N8865 X0.5962 Y0.8124
N8870 X0.5915 Y0.8226
N8875 X0.5867 Y0.832
N8880 X0.5822 Y0.8399
N8885 X0.5811 Y0.8416
N8890 X0.5701 Y0.8567
N8895 X0.5569 Y0.8701
N8900 X0.542 Y0.8814
N8905 X0.5256 Y0.8905
N8910 X0.508 Y0.8971
N8915 X0.4897 Y0.9011
N8920 X0.471 Y0.9025
N8925 X0.4241
N8930 G3 X0.388 Y0.8673 Z0.6175 I0.0013 J-0.0375
N8935 G1 X0.3878 Y0.8637 Z0.618
N8940 X0.3554 Y0.3373
N8945 Y0.3363
N8950 G3 X0.3916 Y0.2975 Z0.61 I0.0375 J-0.0013
N8955 G1 X0.4392
N8960 X0.4454 Y0.2978
N8965 X0.4513 Y0.2984
N8970 X0.4573 Y0.2993
N8975 X0.4631 Y0.3005
N8980 X0.4689 Y0.3021
N8985 X0.4748 Y0.3039
N8990 X0.4809 Y0.3061
N8995 X0.4872 Y0.3087
N9000 X0.4941 Y0.3119
N9005 X0.5011 Y0.3155
N9010 X0.5084 Y0.3197
N9015 X0.5162 Y0.3246
N9020 X0.524 Y0.33
N9025 X0.5321 Y0.3361
N9030 X0.5406 Y0.3431
N9035 X0.5492 Y0.3508
N9040 X0.5578 Y0.3592
N9045 X0.5667 Y0.3686
N9050 X0.5757 Y0.379
N9055 X0.5846 Y0.3902
N9060 X0.5933 Y0.4022
N9065 X0.6021 Y0.4154
N9070 X0.6107 Y0.4297
N9075 X0.6191 Y0.445
N9080 X0.627 Y0.461
N9085 X0.6344 Y0.4779
N9090 X0.6415 Y0.4957
N9095 X0.6479 Y0.5145
N9100 X0.6537 Y0.534
N9105 X0.6587 Y0.554
N9110 X0.663 Y0.5744
N9115 X0.6663 Y0.5951
N9120 X0.6688 Y0.6159
N9125 X0.6704 Y0.6365
N9130 X0.6711 Y0.6568
N9135 X0.6709 Y0.6767
N9140 X0.67 Y0.696
N9145 X0.6682 Y0.7144
N9150 X0.6659 Y0.7318
N9155 X0.6629 Y0.7481
N9160 X0.6595 Y0.7637
N9165 X0.6556 Y0.7779
N9170 X0.6519 Y0.7899
N9175 X0.6473 Y0.8024
N9180 X0.6433 Y0.8123
N9185 X0.6386 Y0.8225
N9190 X0.6337 Y0.8319
N9195 X0.6292 Y0.8398
N9200 X0.6238 Y0.8484
N9205 X0.6131 Y0.8619
N9210 X0.6006 Y0.8738
N9215 X0.5866 Y0.8839
N9220 X0.5713 Y0.8919
N9225 X0.5551 Y0.8978
N9230 X0.5383 Y0.9013
N9235 X0.5211 Y0.9025
N9240 X0.471
N9245 G3 X0.4349 Y0.8673 Z0.6175 I0.0013 J-0.0375
N9250 G1 X0.4347 Y0.8637 Z0.618
N9255 X0.4031 Y0.3372
N9260 Y0.3363
N9265 G3 X0.4392 Y0.2975 Z0.61 I0.0375 J-0.0013
N9270 G1 X0.4869
N9275 X0.4929 Y0.2978
N9280 X0.4989 Y0.2984
N9285 X0.5048 Y0.2993
N9290 X0.5107 Y0.3006
N9295 X0.5165 Y0.3022
N9300 X0.5223 Y0.304
N9305 X0.5285 Y0.3063
N9310 X0.5348 Y0.3089
N9315 X0.5417 Y0.3121
N9320 X0.5487 Y0.3158
N9325 X0.556 Y0.3199
N9330 X0.5638 Y0.3249
N9335 X0.5717 Y0.3304
N9340 X0.5798 Y0.3365
N9345 X0.5883 Y0.3435
N9350 X0.597 Y0.3513
N9355 X0.6055 Y0.3597
N9360 X0.6144 Y0.3692
N9365 X0.6234 Y0.3797
N9370 X0.6323 Y0.3909
N9375 X0.641 Y0.403
N9380 X0.6497 Y0.4162
N9385 X0.6584 Y0.4306
N9390 X0.6668 Y0.446
N9395 X0.6746 Y0.4621
N9400 X0.6821 Y0.479
N9405 X0.689 Y0.4969
N9410 X0.6954 Y0.5156
N9415 X0.7012 Y0.5351
N9420 X0.7061 Y0.5552
N9425 X0.7103 Y0.5756
N9430 X0.7136 Y0.5963
N9435 X0.716 Y0.617
N9440 X0.7176 Y0.6376
N9445 X0.7182 Y0.6579
N9450 X0.718 Y0.6778
N9455 X0.717 Y0.6971
N9460 X0.7152 Y0.7154
N9465 X0.7128 Y0.7327
N9470 X0.7098 Y0.749
N9475 X0.7063 Y0.7645
N9480 X0.7023 Y0.7792
N9485 X0.6983 Y0.7919
N9490 X0.6939 Y0.8037
N9495 X0.6894 Y0.8147
N9500 X0.6851 Y0.8239
N9505 X0.68 Y0.8338
N9510 X0.6754 Y0.8419
N9515 X0.6742 Y0.8438
N9520 X0.6634 Y0.8584
N9525 X0.6507 Y0.8713
N9530 X0.6363 Y0.8822
N9535 X0.6205 Y0.8909
N9540 X0.6035 Y0.8973
N9545 X0.5858 Y0.9012
N9550 X0.5678 Y0.9025
N9555 X0.5211
N9560 G3 X0.4849 Y0.8674 Z0.6175 I0.0013 J-0.0375
N9565 G1 X0.4847 Y0.8637 Z0.618
N9570 X0.4508 Y0.3374
N9575 Y0.3363
N9580 G3 X0.4869 Y0.2975 Z0.61 I0.0375 J-0.0013
N9585 G1 X0.5341
N9590 X0.5401 Y0.2978
N9595 X0.5461 Y0.2984
N9600 X0.552 Y0.2993
N9605 X0.5579 Y0.3006
N9610 X0.5637 Y0.3022
N9615 X0.5695 Y0.304
N9620 X0.5756 Y0.3063
N9625 X0.582 Y0.3089
N9630 X0.5889 Y0.3121
N9635 X0.5959 Y0.3157
N9640 X0.6032 Y0.3199
N9645 X0.611 Y0.3249
N9650 X0.6189 Y0.3303
N9655 X0.6269 Y0.3364
N9660 X0.6355 Y0.3435
N9665 X0.6441 Y0.3512
N9670 X0.6527 Y0.3597
N9675 X0.6616 Y0.3692
N9680 X0.6706 Y0.3797
N9685 X0.6794 Y0.3908
N9690 X0.6882 Y0.4029
N9695 X0.6969 Y0.4162
N9700 X0.7056 Y0.4306
N9705 X0.7139 Y0.4459
N9710 X0.7217 Y0.4619
N9715 X0.7292 Y0.4788
N9720 X0.7361 Y0.4968
N9725 X0.7425 Y0.5156
N9730 X0.7483 Y0.535
N9735 X0.7532 Y0.5551
N9740 X0.7574 Y0.5755
N9745 X0.7607 Y0.5962
N9750 X0.7631 Y0.6169
N9755 X0.7647 Y0.6374
N9760 X0.7653 Y0.6577
N9765 X0.7651 Y0.6776
N9770 X0.7641 Y0.6969
N9775 X0.7623 Y0.7156
N9780 X0.7598 Y0.7331
N9785 X0.7568 Y0.7495
N9790 X0.7533 Y0.7652
N9795 X0.7494 Y0.7796
N9800 X0.7455 Y0.7917
N9805 X0.7409 Y0.8042
N9810 X0.7368 Y0.8141
N9815 X0.7321 Y0.8243
N9820 X0.7273 Y0.8336
N9825 X0.7228 Y0.8414
N9830 X0.7225 Y0.8419
N9835 X0.7114 Y0.857
N9840 X0.6983 Y0.8703
N9845 X0.6834 Y0.8815
N9850 X0.6671 Y0.8906
N9855 X0.6496 Y0.8972
N9860 X0.6313 Y0.9012
N9865 X0.6127 Y0.9025
N9870 X0.5678
N9875 G3 X0.5317 Y0.8674 Z0.6175 I0.0013 J-0.0375
N9880 G1 X0.5314 Y0.8637 Z0.618
N9885 X0.498 Y0.3374
N9890 X0.4979 Y0.3363
N9895 G3 X0.5341 Y0.2975 Z0.61 I0.0375 J-0.0013
N9900 G1 X0.5824
N9905 X0.5884 Y0.2978
N9910 X0.5944 Y0.2985
N9915 X0.6003 Y0.2995
N9920 X0.6061 Y0.3008
N9925 X0.6119 Y0.3024
N9930 X0.6177 Y0.3043
N9935 X0.624 Y0.3067
N9940 X0.6304 Y0.3094
N9945 X0.6373 Y0.3127
N9950 X0.6445 Y0.3165
N9955 X0.6518 Y0.3208
N9960 X0.6596 Y0.3258
N9965 X0.6677 Y0.3315
N9970 X0.6757 Y0.3377
N9975 X0.6842 Y0.3449
N9980 X0.693 Y0.3529
N9985 X0.7016 Y0.3615
N9990 X0.7104 Y0.3711
N9995 X0.7194 Y0.3817
N10000 X0.7284 Y0.3933
N10005 X0.7371 Y0.4055
N10010 X0.7457 Y0.4188
N10015 X0.7543 Y0.4333
N10020 X0.7626 Y0.4489
N10025 X0.7705 Y0.4654
N10030 X0.7778 Y0.4825
N10035 X0.7846 Y0.5005
N10040 X0.7908 Y0.5193
N10045 X0.7964 Y0.5388
N10050 X0.8012 Y0.5589
N10055 X0.8052 Y0.5794
N10060 X0.8083 Y0.6001
N10065 X0.8106 Y0.6209
N10070 X0.812 Y0.6416
N10075 X0.8124 Y0.6619
N10080 X0.812 Y0.6818
N10085 X0.8108 Y0.7011
N10090 X0.8089 Y0.7194
N10095 X0.8064 Y0.7365
N10100 X0.8033 Y0.7528
N10105 X0.7996 Y0.7684
N10110 X0.7959 Y0.7817
N10115 X0.7919 Y0.7939
N10120 X0.7875 Y0.8057
N10125 X0.7834 Y0.8152
N10130 X0.7785 Y0.8255
N10135 X0.7739 Y0.8343
N10140 X0.7693 Y0.8422
N10145 X0.7689 Y0.8428
N10150 X0.7578 Y0.8576
N10155 X0.7446 Y0.8708
N10160 X0.7298 Y0.8819
N10165 X0.7135 Y0.8908
N10170 X0.6962 Y0.8972
N10175 X0.678 Y0.9012
N10180 X0.6596 Y0.9025
N10185 X0.6127
N10190 G3 X0.5766 Y0.8672 Z0.6175 I0.0013 J-0.0375
N10195 G1 X0.5764 Y0.8637 Z0.618
N10200 X0.5463 Y0.3371
N10205 X0.5462 Y0.3363
N10210 G3 X0.5824 Y0.2975 Z0.61 I0.0375 J-0.0013
N10215 G1 X0.6273
N10220 X0.6342 Y0.2978
N10225 X0.6402 Y0.2984
N10230 X0.6462 Y0.2993
N10235 X0.652 Y0.3006
N10240 X0.6578 Y0.3021
N10245 X0.6637 Y0.304
N10250 X0.6696 Y0.3061
N10255 X0.6761 Y0.3088
N10260 X0.6829 Y0.312
N10265 X0.6898 Y0.3155
N10270 X0.6973 Y0.3198
N10275 X0.705 Y0.3246
N10280 X0.7127 Y0.33
N10285 X0.721 Y0.3362
N10290 X0.7294 Y0.3432
N10295 X0.7378 Y0.3507
N10300 X0.7466 Y0.3592
N10305 X0.7556 Y0.3688
N10310 X0.7644 Y0.379
N10315 X0.7732 Y0.3901
N10320 X0.782 Y0.4023
N10325 X0.7909 Y0.4157
N10330 X0.7994 Y0.4299
N10335 X0.8076 Y0.4448
N10340 X0.8155 Y0.4608
N10345 X0.823 Y0.4778
N10350 X0.83 Y0.4958
N10355 X0.8365 Y0.5146
N10360 X0.8423 Y0.5341
N10365 X0.8473 Y0.5541
N10370 X0.8515 Y0.5745
N10375 X0.8548 Y0.5952
N10380 X0.8573 Y0.616
N10385 X0.8589 Y0.6366
N10390 X0.8596 Y0.6569
N10395 X0.8594 Y0.6768
N10400 X0.8584 Y0.696
N10405 X0.8567 Y0.7145
N10410 X0.8543 Y0.7321
N10415 X0.8513 Y0.7486
N10420 X0.8478 Y0.764
N10425 X0.8439 Y0.7784
N10430 X0.8402 Y0.7902
N10435 X0.8357 Y0.8027
N10440 X0.8316 Y0.8127
N10445 X0.827 Y0.8226
N10450 X0.8221 Y0.8322
N10455 X0.8176 Y0.84
N10460 X0.8166 Y0.8416
N10465 X0.8055 Y0.8567
N10470 X0.7923 Y0.8701
N10475 X0.7774 Y0.8814
N10480 X0.761 Y0.8905
N10485 X0.7435 Y0.8971
N10490 X0.7252 Y0.9011
N10495 X0.7065 Y0.9025
N10500 X0.6596
N10505 G3 X0.6234 Y0.8673 Z0.6175 I0.0013 J-0.0375
N10510 G1 X0.6232 Y0.8637 Z0.618
N10515 X0.5912 Y0.3373
N10520 X0.5911 Y0.3363
N10525 G3 X0.6273 Y0.2975 Z0.61 I0.0375 J-0.0013
N10530 G1 X0.675
N10535 X0.6813 Y0.2978
N10540 X0.6873 Y0.2984
N10545 X0.6932 Y0.2993
N10550 X0.699 Y0.3005
N10555 X0.7048 Y0.3021
N10560 X0.7107 Y0.3039
N10565 X0.7168 Y0.3061
N10570 X0.7231 Y0.3087
N10575 X0.73 Y0.3119
N10580 X0.737 Y0.3155
N10585 X0.7442 Y0.3197
N10590 X0.752 Y0.3246
N10595 X0.7599 Y0.33
N10600 X0.7679 Y0.3361
N10605 X0.7765 Y0.3431
N10610 X0.785 Y0.3508
N10615 X0.7936 Y0.3591
N10620 X0.8024 Y0.3685
N10625 X0.8115 Y0.379
N10630 X0.8203 Y0.3901
N10635 X0.829 Y0.4021
N10640 X0.8378 Y0.4153
N10645 X0.8464 Y0.4297
N10650 X0.8548 Y0.4449
N10655 X0.8626 Y0.4608
N10660 X0.8701 Y0.4777
N10665 X0.8771 Y0.4956
N10670 X0.8835 Y0.5144
N10675 X0.8893 Y0.5338
N10680 X0.8944 Y0.5539
N10685 X0.8986 Y0.5743
N10690 X0.9019 Y0.5949
N10695 X0.9044 Y0.6156
N10700 X0.906 Y0.6362
N10705 X0.9067 Y0.6566
N10710 X0.9065 Y0.6765
N10715 X0.9055 Y0.6959
N10720 X0.9038 Y0.7143
N10725 X0.9014 Y0.7318
N10730 X0.8985 Y0.7481
N10735 X0.895 Y0.7637
N10740 X0.8911 Y0.7779
N10745 X0.8874 Y0.7899
N10750 X0.8828 Y0.8024
N10755 X0.8788 Y0.8123
N10760 X0.874 Y0.8225
N10765 X0.8692 Y0.8319
N10770 X0.8647 Y0.8398
N10775 X0.8593 Y0.8485
N10780 X0.8486 Y0.862
N10785 X0.8361 Y0.8738
N10790 X0.8221 Y0.8839
N10795 X0.8068 Y0.8919
N10800 X0.7906 Y0.8978
N10805 X0.7737 Y0.9013
N10810 X0.7566 Y0.9025
N10815 X0.7065
N10820 G3 X0.6704 Y0.8672 Z0.6175 I0.0013 J-0.0375
N10825 G1 X0.6702 Y0.8637 Z0.618
N10830 X0.6389 Y0.3372
N10835 X0.6388 Y0.3363
N10840 G3 X0.675 Y0.2975 Z0.61 I0.0375 J-0.0013
N10845 G1 X0.7227
N10850 X0.7287 Y0.2978
N10855 X0.7346 Y0.2984
N10860 X0.7406 Y0.2993
N10865 X0.7464 Y0.3006
N10870 X0.7522 Y0.3021
N10875 X0.758 Y0.304
N10880 X0.7642 Y0.3062
N10885 X0.7705 Y0.3088
N10890 X0.7774 Y0.312
N10895 X0.7844 Y0.3157
N10900 X0.7917 Y0.3199
N10905 X0.7995 Y0.3248
N10910 X0.8074 Y0.3302
N10915 X0.8154 Y0.3363
N10920 X0.8239 Y0.3433
N10925 X0.8326 Y0.3511
N10930 X0.8411 Y0.3595
N10935 X0.85 Y0.3689
N10940 X0.859 Y0.3794
N10945 X0.8679 Y0.3907
N10950 X0.8766 Y0.4027
N10955 X0.8853 Y0.4159
N10960 X0.8939 Y0.4302
N10965 X0.9023 Y0.4456
N10970 X0.9101 Y0.4616
N10975 X0.9176 Y0.4785
N10980 X0.9245 Y0.4964
N10985 X0.9309 Y0.5151
N10990 X0.9367 Y0.5346
N10995 X0.9417 Y0.5546
N11000 X0.9458 Y0.5751
N11005 X0.9492 Y0.5957
N11010 X0.9516 Y0.6165
N11015 X0.9531 Y0.6371
N11020 X0.9538 Y0.6574
N11025 X0.9536 Y0.6773
N11030 X0.9525 Y0.6966
N11035 X0.9508 Y0.715
N11040 X0.9484 Y0.7323
N11045 X0.9454 Y0.7487
N11050 X0.9419 Y0.7642
N11055 X0.9379 Y0.7789
N11060 X0.9339 Y0.7917
N11065 X0.9295 Y0.8035
N11070 X0.925 Y0.8145
N11075 X0.9207 Y0.8238
N11080 X0.9156 Y0.8336
N11085 X0.911 Y0.8418
N11090 X0.9096 Y0.844
N11095 X0.8989 Y0.8585
N11100 X0.8862 Y0.8714
N11105 X0.8718 Y0.8823
N11110 X0.856 Y0.891
N11115 X0.8392 Y0.8973
N11120 X0.8215 Y0.9012
N11125 X0.8035 Y0.9025
N11130 X0.7566
N11135 G3 X0.7204 Y0.8674 Z0.6175 I0.0013 J-0.0375
N11140 G1 X0.7202 Y0.8637 Z0.618
N11145 X0.6866 Y0.3374
N11150 X0.6865 Y0.3363
N11155 G3 X0.7227 Y0.2975 Z0.61 I0.0375 J-0.0013
N11160 G1 X0.7699
N11165 X0.7759 Y0.2978
N11170 X0.7818 Y0.2984
N11175 X0.7878 Y0.2993
N11180 X0.7936 Y0.3006
N11185 X0.7994 Y0.3021
N11190 X0.8052 Y0.304
N11195 X0.8114 Y0.3062
N11200 X0.8177 Y0.3089
N11205 X0.8246 Y0.3121
N11210 X0.8316 Y0.3157
N11215 X0.8389 Y0.3199
N11220 X0.8467 Y0.3248
N11225 X0.8545 Y0.3303
N11230 X0.8626 Y0.3364
N11235 X0.8711 Y0.3434
N11240 X0.8797 Y0.3512
N11245 X0.8883 Y0.3596
N11250 X0.8972 Y0.3691
N11255 X0.9062 Y0.3796
N11260 X0.915 Y0.3907
N11265 X0.9238 Y0.4028
N11270 X0.9325 Y0.416
N11275 X0.9411 Y0.4304
N11280 X0.9495 Y0.4457
N11285 X0.9573 Y0.4617
N11290 X0.9647 Y0.4786
N11295 X0.9717 Y0.4965
N11300 X0.9781 Y0.5153
N11305 X0.9838 Y0.5347
N11310 X0.9888 Y0.5548
N11315 X0.993 Y0.5752
N11320 X0.9963 Y0.5959
N11325 X0.9987 Y0.6166
N11330 X1.0002 Y0.6372
N11335 X1.0009 Y0.6574
N11340 X1.0007 Y0.6773
N11345 X0.9996 Y0.6967
N11350 X0.9978 Y0.7154
N11355 X0.9954 Y0.733
N11360 X0.9924 Y0.7494
N11365 X0.9889 Y0.765
N11370 X0.9849 Y0.7795
N11375 X0.9811 Y0.7916
N11380 X0.9765 Y0.8042
N11385 X0.9724 Y0.8141
N11390 X0.9676 Y0.8244
N11395 X0.9628 Y0.8336
N11400 X0.9583 Y0.8415
N11405 X0.9579 Y0.8421
N11410 X0.9469 Y0.8571
N11415 X0.9338 Y0.8703
N11420 X0.919 Y0.8816
N11425 X0.9027 Y0.8906
N11430 X0.8852 Y0.8972
N11435 X0.867 Y0.9012
N11440 X0.8484 Y0.9025
N11445 X0.8035
N11450 G3 X0.7674 Y0.8674 Z0.6175 I0.0013 J-0.0375
N11455 G1 X0.7672 Y0.8637 Z0.618
N11460 X0.7337 Y0.3374
N11465 Y0.3363
N11470 G3 X0.7699 Y0.2975 Z0.61 I0.0375 J-0.0013
N11475 G1 X0.8182
N11480 X0.8242 Y0.2978
N11485 X0.8301 Y0.2985
N11490 X0.836 Y0.2995
N11495 X0.8419 Y0.3008
N11500 X0.8477 Y0.3024
N11505 X0.8535 Y0.3043
N11510 X0.8598 Y0.3067
N11515 X0.8661 Y0.3094
N11520 X0.873 Y0.3127
N11525 X0.8803 Y0.3165
N11530 X0.8875 Y0.3208
N11535 X0.8953 Y0.3258
N11540 X0.9034 Y0.3315
N11545 X0.9114 Y0.3377
N11550 X0.9199 Y0.3448
N11555 X0.9287 Y0.3529
N11560 X0.9373 Y0.3615
N11565 X0.9461 Y0.371
N11570 X0.9551 Y0.3816
N11575 X0.9641 Y0.3932
N11580 X0.9727 Y0.4054
N11585 X0.9814 Y0.4188
N11590 X0.9899 Y0.4332
N11595 X0.9982 Y0.4488
N11600 X1.0061 Y0.4653
N11605 X1.0134 Y0.4824
N11610 X1.0202 Y0.5003
N11615 X1.0264 Y0.5192
N11620 X1.032 Y0.5387
N11625 X1.0368 Y0.5588
N11630 X1.0408 Y0.5792
N11635 X1.0439 Y0.6
N11640 X1.0462 Y0.6208
N11645 X1.0475 Y0.6414
N11650 X1.048 Y0.6618
N11655 X1.0476 Y0.6818
N11660 X1.0464 Y0.7011
N11665 X1.0445 Y0.7193
N11670 X1.042 Y0.7365
N11675 X1.0388 Y0.7528
N11680 X1.0352 Y0.7684
N11685 X1.0314 Y0.7818
N11690 X1.0274 Y0.7939
N11695 X1.023 Y0.8057
N11700 X1.0189 Y0.8153
N11705 X1.014 Y0.8256
N11710 X1.0094 Y0.8344
N11715 X1.0048 Y0.8423
N11720 X1.0044 Y0.8428
N11725 X0.9933 Y0.8577
N11730 X0.9802 Y0.8708
N11735 X0.9654 Y0.8819
N11740 X0.9491 Y0.8908
N11745 X0.9317 Y0.8972
N11750 X0.9136 Y0.9012
N11755 X0.8951 Y0.9025
N11760 X0.8484
N11765 G3 X0.8123 Y0.8672 Z0.6175 I0.0013 J-0.0375
N11770 G1 X0.8121 Y0.8637 Z0.618
N11775 X0.782 Y0.3371
N11780 Y0.3363
N11785 G3 X0.8182 Y0.2975 Z0.61 I0.0375 J-0.0013
N11790 G1 X0.8631
N11795 X0.87 Y0.2978
N11800 X0.8759 Y0.2984
N11805 X0.8819 Y0.2993
N11810 X0.8877 Y0.3006
N11815 X0.8935 Y0.3021
N11820 X0.8994 Y0.304
N11825 X0.9053 Y0.3061
N11830 X0.9118 Y0.3088
N11835 X0.9186 Y0.312
N11840 X0.9255 Y0.3155
N11845 X0.933 Y0.3198
N11850 X0.9407 Y0.3246
N11855 X0.9484 Y0.33
N11860 X0.9566 Y0.3362
N11865 X0.9651 Y0.3432
N11870 X0.9735 Y0.3507
N11875 X0.9822 Y0.3592
N11880 X0.9912 Y0.3688
N11885 X1. Y0.379
N11890 X1.0088 Y0.3901
N11895 X1.0177 Y0.4023
N11900 X1.0265 Y0.4156
N11905 X1.0351 Y0.4298
N11910 X1.0432 Y0.4447
N11915 X1.0511 Y0.4607
N11920 X1.0586 Y0.4777
N11925 X1.0656 Y0.4957
N11930 X1.0721 Y0.5145
N11935 X1.0779 Y0.534
N11940 X1.0829 Y0.554
N11945 X1.0871 Y0.5744
N11950 X1.0904 Y0.5951
N11955 X1.0929 Y0.6159
N11960 X1.0945 Y0.6365
N11965 X1.0952 Y0.6569
N11970 X1.095 Y0.6768
N11975 X1.094 Y0.696
N11980 X1.0922 Y0.7145
N11985 X1.0898 Y0.7321
N11990 X1.0868 Y0.7486
N11995 X1.0834 Y0.7641
N12000 X1.0795 Y0.7785
N12005 X1.0758 Y0.7903
N12010 X1.0712 Y0.8027
N12015 X1.0671 Y0.8127
N12020 X1.0626 Y0.8226
N12025 X1.0576 Y0.8322
N12030 X1.0531 Y0.84
N12035 X1.0521 Y0.8417
N12040 X1.041 Y0.8568
N12045 X1.0279 Y0.8701
N12050 X1.013 Y0.8814
N12055 X0.9966 Y0.8905
N12060 X0.9791 Y0.8971
N12065 X0.9608 Y0.9011
N12070 X0.9421 Y0.9025
N12075 X0.8951
N12080 G3 X0.859 Y0.8673 Z0.6175 I0.0013 J-0.0375
N12085 G1 X0.8588 Y0.8637 Z0.618
N12090 X0.8269 Y0.3372
N12095 Y0.3363
N12100 G3 X0.8631 Y0.2975 Z0.61 I0.0375 J-0.0013
N12105 G1 X0.9108
N12110 X0.917 Y0.2978
N12115 X0.9229 Y0.2984
N12120 X0.9289 Y0.2993
N12125 X0.9347 Y0.3005
N12130 X0.9405 Y0.3021
N12135 X0.9463 Y0.3039
N12140 X0.9525 Y0.3061
N12145 X0.9588 Y0.3087
N12150 X0.9656 Y0.3119
N12155 X0.9726 Y0.3155
N12160 X0.9799 Y0.3197
N12165 X0.9877 Y0.3246
N12170 X0.9955 Y0.33
N12175 X1.0036 Y0.3361
N12180 X1.0121 Y0.3431
N12185 X1.0207 Y0.3508
N12190 X1.0292 Y0.3591
N12195 X1.0381 Y0.3685
N12200 X1.0471 Y0.3789
N12205 X1.0559 Y0.39
N12210 X1.0646 Y0.402
N12215 X1.0734 Y0.4152
N12220 X1.082 Y0.4296
N12225 X1.0904 Y0.4449
N12230 X1.0982 Y0.4608
N12235 X1.1057 Y0.4777
N12240 X1.1127 Y0.4956
N12245 X1.1191 Y0.5143
N12250 X1.1249 Y0.5338
N12255 X1.1299 Y0.5538
N12260 X1.1342 Y0.5742
N12265 X1.1375 Y0.5949
N12270 X1.14 Y0.6156
N12275 X1.1416 Y0.6362
N12280 X1.1423 Y0.6565
N12285 X1.1421 Y0.6765
N12290 X1.1411 Y0.6959
N12295 X1.1394 Y0.7143
N12300 X1.137 Y0.7318
N12305 X1.134 Y0.7481
N12310 X1.1305 Y0.7637
N12315 X1.1267 Y0.778
N12320 X1.1229 Y0.7899
N12325 X1.1184 Y0.8025
N12330 X1.1143 Y0.8123
N12335 X1.1096 Y0.8225
N12340 X1.1048 Y0.832
N12345 X1.1003 Y0.8398
N12350 X1.0948 Y0.8485
N12355 X1.0841 Y0.862
N12360 X1.0716 Y0.8739
N12365 X1.0576 Y0.8839
N12370 X1.0424 Y0.8919
N12375 X1.0262 Y0.8978
N12380 X1.0093 Y0.9013
N12385 X0.9921 Y0.9025
N12390 X0.9421
N12395 G3 X0.906 Y0.8672 Z0.6175 I0.0013 J-0.0375
N12400 G1 X0.9058 Y0.8637 Z0.618
N12405 X0.8746 Y0.3372
N12410 Y0.3363
N12415 G3 X0.9108 Y0.2975 Z0.61 I0.0375 J-0.0013
N12420 G1 X0.9584
N12425 X0.9644 Y0.2978
N12430 X0.9704 Y0.2984
N12435 X0.9763 Y0.2993
N12440 X0.9822 Y0.3006
N12445 X0.988 Y0.3022
N12450 X0.9938 Y0.304
N12455 X0.9999 Y0.3063
N12460 X1.0062 Y0.3089
N12465 X1.0131 Y0.3121
N12470 X1.0202 Y0.3158
N12475 X1.0274 Y0.3199
N12480 X1.0352 Y0.3248
N12485 X1.0431 Y0.3303
N12490 X1.0512 Y0.3364
N12495 X1.0596 Y0.3434
N12500 X1.0683 Y0.3512
N12505 X1.0769 Y0.3596
N12510 X1.0857 Y0.3691
N12515 X1.0947 Y0.3796
N12520 X1.1036 Y0.3908
N12525 X1.1123 Y0.4028
N12530 X1.121 Y0.416
N12535 X1.1296 Y0.4304
N12540 X1.138 Y0.4458
N12545 X1.1459 Y0.4618
N12550 X1.1533 Y0.4787
N12555 X1.1602 Y0.4966
N12560 X1.1666 Y0.5153
N12565 X1.1723 Y0.5348
N12570 X1.1773 Y0.5548
N12575 X1.1815 Y0.5753
N12580 X1.1848 Y0.596
N12585 X1.1872 Y0.6167
N12590 X1.1887 Y0.6373
N12595 X1.1894 Y0.6576
N12600 X1.1891 Y0.6775
N12605 X1.1881 Y0.6969
N12610 X1.1863 Y0.7153
N12615 X1.1839 Y0.7326
N12620 X1.181 Y0.7489
N12625 X1.1774 Y0.7645
N12630 X1.1734 Y0.7792
N12635 X1.1694 Y0.7919
N12640 X1.1651 Y0.8037
N12645 X1.1605 Y0.8147
N12650 X1.1562 Y0.8239
N12655 X1.1511 Y0.8338
N12660 X1.1465 Y0.8419
N12665 X1.145 Y0.8442
N12670 X1.1343 Y0.8587
N12675 X1.1217 Y0.8715
N12680 X1.1074 Y0.8823
N12685 X1.0916 Y0.891
N12690 X1.0748 Y0.8974
N12695 X1.0572 Y0.9012
N12700 X1.0393 Y0.9025
N12705 X0.9921
N12710 G3 X0.956 Y0.8674 Z0.6175 I0.0013 J-0.0375
N12715 G1 X0.9558 Y0.8637 Z0.618
N12720 X0.9223 Y0.3374
N12725 Y0.3363
N12730 G3 X0.9584 Y0.2975 Z0.61 I0.0375 J-0.0013
N12735 G1 X1.0056
N12740 X1.0116 Y0.2978
N12745 X1.0176 Y0.2984
N12750 X1.0235 Y0.2993
N12755 X1.0294 Y0.3006
N12760 X1.0352 Y0.3022
N12765 X1.041 Y0.304
N12770 X1.0471 Y0.3063
N12775 X1.0534 Y0.3089
N12780 X1.0603 Y0.3121
N12785 X1.0674 Y0.3158
N12790 X1.0747 Y0.32
N12795 X1.0825 Y0.3249
N12800 X1.0903 Y0.3304
N12805 X1.0984 Y0.3365
N12810 X1.1069 Y0.3435
N12815 X1.1155 Y0.3513
N12820 X1.1241 Y0.3597
N12825 X1.133 Y0.3692
N12830 X1.142 Y0.3797
N12835 X1.1508 Y0.3909
N12840 X1.1595 Y0.403
N12845 X1.1682 Y0.4162
N12850 X1.1769 Y0.4306
N12855 X1.1852 Y0.4459
N12860 X1.193 Y0.4619
N12865 X1.2004 Y0.4789
N12870 X1.2074 Y0.4968
N12875 X1.2138 Y0.5155
N12880 X1.2195 Y0.535
N12885 X1.2245 Y0.5551
N12890 X1.2286 Y0.5755
N12895 X1.2319 Y0.5962
N12900 X1.2343 Y0.6169
N12905 X1.2358 Y0.6375
N12910 X1.2365 Y0.6577
N12915 X1.2362 Y0.6776
N12920 X1.2352 Y0.697
N12925 X1.2334 Y0.7157
N12930 X1.2309 Y0.7332
N12935 X1.2279 Y0.7496
N12940 X1.2244 Y0.7653
N12945 X1.2204 Y0.7798
N12950 X1.2166 Y0.7919
N12955 X1.212 Y0.8045
N12960 X1.2079 Y0.8144
N12965 X1.2031 Y0.8246
N12970 X1.1983 Y0.8339
N12975 X1.1938 Y0.8417
N12980 X1.1934 Y0.8423
N12985 X1.1824 Y0.8572
N12990 X1.1693 Y0.8705
N12995 X1.1545 Y0.8817
N13000 X1.1383 Y0.8906
N13005 X1.1209 Y0.8972
N13010 X1.1027 Y0.9012
N13015 X1.0842 Y0.9025
N13020 X1.0393
N13025 G3 X1.0032 Y0.8674 Z0.6175 I0.0013 J-0.0375
N13030 G1 X1.0029 Y0.8637 Z0.618
N13035 X0.9695 Y0.3374
N13040 X0.9694 Y0.3363
N13045 G3 X1.0056 Y0.2975 Z0.61 I0.0375 J-0.0013
N13050 G1 X1.0539
N13055 X1.0599 Y0.2978
N13060 X1.0659 Y0.2985
N13065 X1.0718 Y0.2995
N13070 X1.0776 Y0.3008
N13075 X1.0834 Y0.3024
N13080 X1.0892 Y0.3044
N13085 X1.0955 Y0.3067
N13090 X1.1019 Y0.3095
N13095 X1.1088 Y0.3128
N13100 X1.116 Y0.3166
N13105 X1.1233 Y0.3209
N13110 X1.1311 Y0.3259
N13115 X1.1392 Y0.3316
N13120 X1.1472 Y0.3378
N13125 X1.1557 Y0.345
N13130 X1.1645 Y0.353
N13135 X1.1731 Y0.3616
N13140 X1.1819 Y0.3712
N13145 X1.1909 Y0.3818
N13150 X1.1999 Y0.3934
N13155 X1.2085 Y0.4057
N13160 X1.2171 Y0.419
N13165 X1.2256 Y0.4335
N13170 X1.2339 Y0.4491
N13175 X1.2418 Y0.4656
N13180 X1.2491 Y0.4827
N13185 X1.2559 Y0.5007
N13190 X1.2621 Y0.5195
N13195 X1.2677 Y0.539
N13200 X1.2725 Y0.5591
N13205 X1.2765 Y0.5796
N13210 X1.2796 Y0.6003
N13215 X1.2818 Y0.6212
N13220 X1.2831 Y0.6418
N13225 X1.2836 Y0.6622
N13230 X1.2832 Y0.6821
N13235 X1.282 Y0.7014
N13240 X1.28 Y0.7197
N13245 X1.2775 Y0.7368
N13250 X1.2743 Y0.7532
N13255 X1.2707 Y0.7688
N13260 X1.2669 Y0.7821
N13265 X1.2629 Y0.7943
N13270 X1.2585 Y0.806
N13275 X1.2544 Y0.8155
N13280 X1.2495 Y0.8259
N13285 X1.2448 Y0.8346
N13290 X1.24 Y0.8429
N13295 X1.2289 Y0.8577
N13300 X1.2158 Y0.8708
N13305 X1.2009 Y0.8819
N13310 X1.1847 Y0.8908
N13315 X1.1673 Y0.8972
N13320 X1.1492 Y0.9012
N13325 X1.1307 Y0.9025
N13330 X1.0842
N13335 G3 X1.0481 Y0.8672 Z0.6175 I0.0013 J-0.0375
N13340 G1 X1.0479 Y0.8637 Z0.618
N13345 X1.0178 Y0.3371
N13350 X1.0177 Y0.3363
N13355 G3 X1.0539 Y0.2975 Z0.61 I0.0375 J-0.0013
N13360 G1 X1.0988
N13365 X1.1056 Y0.2978
N13370 X1.1116 Y0.2984
N13375 X1.1175 Y0.2993
N13380 X1.1234 Y0.3006
N13385 X1.1292 Y0.3021
N13390 X1.135 Y0.304
N13395 X1.141 Y0.3061
N13400 X1.1474 Y0.3088
N13405 X1.1542 Y0.312
N13410 X1.1611 Y0.3155
N13415 X1.1686 Y0.3198
N13420 X1.1763 Y0.3246
N13425 X1.184 Y0.33
N13430 X1.1923 Y0.3362
N13435 X1.2007 Y0.3431
N13440 X1.2091 Y0.3507
N13445 X1.2178 Y0.3592
N13450 X1.2268 Y0.3688
N13455 X1.2356 Y0.3789
N13460 X1.2444 Y0.39
N13465 X1.2533 Y0.4023
N13470 X1.2621 Y0.4156
N13475 X1.2707 Y0.4298
N13480 X1.2788 Y0.4447
N13485 X1.2867 Y0.4607
N13490 X1.2942 Y0.4777
N13495 X1.3012 Y0.4957
N13500 X1.3077 Y0.5146
N13505 X1.3135 Y0.5341
N13510 X1.3185 Y0.554
N13515 X1.3227 Y0.5744
N13520 X1.326 Y0.5951
N13525 X1.3285 Y0.6159
N13530 X1.3301 Y0.6365
N13535 X1.3307 Y0.6569
N13540 X1.3306 Y0.6768
N13545 X1.3296 Y0.696
N13550 X1.3278 Y0.7145
N13555 X1.3254 Y0.7322
N13560 X1.3224 Y0.7487
N13565 X1.319 Y0.7642
N13570 X1.3151 Y0.7786
N13575 X1.3114 Y0.7903
N13580 X1.3068 Y0.8028
N13585 X1.3027 Y0.8128
N13590 X1.2981 Y0.8226
N13595 X1.2932 Y0.8322
N13600 X1.2887 Y0.8401
N13605 X1.2877 Y0.8417
N13610 X1.2767 Y0.8568
N13615 X1.2635 Y0.8701
N13620 X1.2486 Y0.8814
N13625 X1.2322 Y0.8905
N13630 X1.2147 Y0.8971
N13635 X1.1964 Y0.9011
N13640 X1.1777 Y0.9025
N13645 X1.1307
N13650 G3 X1.0946 Y0.8673 Z0.6175 I0.0013 J-0.0375
N13655 G1 X1.0944 Y0.8637 Z0.618
N13660 X1.0627 Y0.3372
N13665 X1.0626 Y0.3363
N13670 G3 X1.0988 Y0.2975 Z0.61 I0.0375 J-0.0013
N13675 G1 X1.1465
N13680 X1.1526 Y0.2978
N13685 X1.1586 Y0.2984
N13690 X1.1645 Y0.2993
N13695 X1.1704 Y0.3005
N13700 X1.1762 Y0.3021
N13705 X1.182 Y0.3039
N13710 X1.1881 Y0.3061
N13715 X1.1944 Y0.3087
N13720 X1.2013 Y0.3119
N13725 X1.2083 Y0.3155
N13730 X1.2155 Y0.3197
N13735 X1.2233 Y0.3246
N13740 X1.2311 Y0.33
N13745 X1.2392 Y0.3361
N13750 X1.2477 Y0.3431
N13755 X1.2563 Y0.3508
N13760 X1.2648 Y0.3591
N13765 X1.2737 Y0.3685
N13770 X1.2827 Y0.3789
N13775 X1.2915 Y0.39
N13780 X1.3002 Y0.402
N13785 X1.309 Y0.4152
N13790 X1.3176 Y0.4296
N13795 X1.326 Y0.4449
N13800 X1.3338 Y0.4608
N13805 X1.3413 Y0.4777
N13810 X1.3483 Y0.4955
N13815 X1.3547 Y0.5143
N13820 X1.3605 Y0.5337
N13825 X1.3655 Y0.5538
N13830 X1.3698 Y0.5742
N13835 X1.3731 Y0.5949
N13840 X1.3756 Y0.6156
N13845 X1.3772 Y0.6362
N13850 X1.3779 Y0.6566
N13855 X1.3777 Y0.6765
N13860 X1.3767 Y0.6959
N13865 X1.375 Y0.7144
N13870 X1.3726 Y0.7318
N13875 X1.3696 Y0.7482
N13880 X1.3661 Y0.7637
N13885 X1.3623 Y0.778
N13890 X1.3585 Y0.79
N13895 X1.354 Y0.8025
N13900 X1.3499 Y0.8123
N13905 X1.3452 Y0.8226
N13910 X1.3404 Y0.832
N13915 X1.3359 Y0.8398
N13920 X1.3304 Y0.8485
N13925 X1.3197 Y0.862
N13930 X1.3072 Y0.8739
N13935 X1.2932 Y0.8839
N13940 X1.278 Y0.8919
N13945 X1.2618 Y0.8978
N13950 X1.2449 Y0.9013
N13955 X1.2278 Y0.9025
N13960 X1.1777
N13965 G3 X1.1416 Y0.8672 Z0.6175 I0.0013 J-0.0375
N13970 G1 X1.1414 Y0.8637 Z0.618
N13975 X1.1104 Y0.3372
N13980 X1.1103 Y0.3363
N13985 G3 X1.1465 Y0.2975 Z0.61 I0.0375 J-0.0013
N13990 G1 X1.1942
N13995 X1.2002 Y0.2978
N14000 X1.2062 Y0.2984
N14005 X1.2121 Y0.2993
N14010 X1.2179 Y0.3006
N14015 X1.2237 Y0.3022
N14020 X1.2295 Y0.304
N14025 X1.2357 Y0.3063
N14030 X1.242 Y0.3089
N14035 X1.2489 Y0.3121
N14040 X1.256 Y0.3158
N14045 X1.2632 Y0.32
N14050 X1.271 Y0.3249
N14055 X1.2789 Y0.3304
N14060 X1.287 Y0.3365
N14065 X1.2954 Y0.3436
N14070 X1.3041 Y0.3514
N14075 X1.3127 Y0.3598
N14080 X1.3215 Y0.3693
N14085 X1.3305 Y0.3798
N14090 X1.3394 Y0.3911
N14095 X1.3481 Y0.4031
N14100 X1.3568 Y0.4163
N14105 X1.3654 Y0.4307
N14110 X1.3738 Y0.4461
N14115 X1.3816 Y0.4622
N14120 X1.389 Y0.4791
N14125 X1.396 Y0.497
N14130 X1.4023 Y0.5158
N14135 X1.408 Y0.5352
N14140 X1.413 Y0.5553
N14145 X1.4172 Y0.5757
N14150 X1.4204 Y0.5964
N14155 X1.4228 Y0.6172
N14160 X1.4244 Y0.6378
N14165 X1.425 Y0.6581
N14170 X1.4247 Y0.678
N14175 X1.4237 Y0.6974
N14180 X1.4219 Y0.7157
N14185 X1.4195 Y0.7329
N14190 X1.4165 Y0.7493
N14195 X1.4129 Y0.7648
N14200 X1.4089 Y0.7795
N14205 X1.4049 Y0.7921
N14210 X1.4005 Y0.804
N14215 X1.396 Y0.8149
N14220 X1.3917 Y0.8241
N14225 X1.3866 Y0.834
N14230 X1.382 Y0.8421
N14235 X1.3805 Y0.8444
N14240 X1.3698 Y0.8588
N14245 X1.3572 Y0.8716
N14250 X1.3429 Y0.8824
N14255 X1.3272 Y0.8911
N14260 X1.3104 Y0.8974
N14265 X1.2929 Y0.9012
N14270 X1.275 Y0.9025
N14275 X1.2278
N14280 G3 X1.1916 Y0.8674 Z0.6175 I0.0013 J-0.0375
N14285 G1 X1.1914 Y0.8637 Z0.618
N14290 X1.1581 Y0.3373
N14295 X1.158 Y0.3363
N14300 G3 X1.1942 Y0.2975 Z0.61 I0.0375 J-0.0013
N14305 G1 X1.2414
N14310 X1.2474 Y0.2978
N14315 X1.2533 Y0.2984
N14320 X1.2593 Y0.2994
N14325 X1.2651 Y0.3006
N14330 X1.2709 Y0.3022
N14335 X1.2767 Y0.3041
N14340 X1.2829 Y0.3063
N14345 X1.2892 Y0.309
N14350 X1.2961 Y0.3122
N14355 X1.3031 Y0.3159
N14360 X1.3105 Y0.3201
N14365 X1.3183 Y0.325
N14370 X1.3261 Y0.3305
N14375 X1.3342 Y0.3366
N14380 X1.3427 Y0.3437
N14385 X1.3513 Y0.3515
N14390 X1.3599 Y0.3599
N14395 X1.3688 Y0.3694
N14400 X1.3778 Y0.38
N14405 X1.3866 Y0.3912
N14410 X1.3953 Y0.4033
N14415 X1.4041 Y0.4165
N14420 X1.4127 Y0.431
N14425 X1.421 Y0.4463
N14430 X1.4288 Y0.4623
N14435 X1.4362 Y0.4793
N14440 X1.4432 Y0.4972
N14445 X1.4495 Y0.516
N14450 X1.4552 Y0.5355
N14455 X1.4602 Y0.5556
N14460 X1.4643 Y0.576
N14465 X1.4676 Y0.5967
N14470 X1.47 Y0.6174
N14475 X1.4715 Y0.638
N14480 X1.4721 Y0.6583
N14485 X1.4718 Y0.6781
N14490 X1.4708 Y0.6975
N14495 X1.4689 Y0.7161
N14500 X1.4665 Y0.7337
N14505 X1.4635 Y0.75
N14510 X1.4599 Y0.7657
N14515 X1.4559 Y0.7801
N14520 X1.452 Y0.7923
N14525 X1.4474 Y0.8048
N14530 X1.4433 Y0.8147
N14535 X1.4385 Y0.8249
N14540 X1.4337 Y0.8341
N14545 X1.4292 Y0.842
N14550 X1.4289 Y0.8425
N14555 X1.4179 Y0.8574
N14560 X1.4049 Y0.8706
N14565 X1.3901 Y0.8818
N14570 X1.3739 Y0.8907
N14575 X1.3565 Y0.8972
N14580 X1.3384 Y0.9012
N14585 X1.3199 Y0.9025
N14590 X1.275
N14595 G3 X1.2389 Y0.8674 Z0.6175 I0.0013 J-0.0375
N14600 G1 X1.2387 Y0.8637 Z0.618
N14605 X1.2052 Y0.3374
N14610 Y0.3363
N14615 G3 X1.2414 Y0.2975 Z0.61 I0.0375 J-0.0013
N14620 G1 X1.2863
N14625 X1.2941 Y0.2979
N14630 X1.3001 Y0.2984
N14635 X1.306 Y0.2994
N14640 X1.3119 Y0.3006
N14645 X1.3177 Y0.3022
N14650 X1.3235 Y0.304
N14655 X1.3295 Y0.3062
N14660 X1.3359 Y0.3088
N14665 X1.3427 Y0.312
N14670 X1.3497 Y0.3156
N14675 X1.357 Y0.3198
N14680 X1.3648 Y0.3247
N14685 X1.3726 Y0.33
N14690 X1.3807 Y0.3362
N14695 X1.3892 Y0.3432
N14700 X1.3977 Y0.3508
N14705 X1.4063 Y0.3592
N14710 X1.4152 Y0.3687
N14715 X1.4242 Y0.3791
N14720 X1.4329 Y0.3901
N14725 X1.4417 Y0.4022
N14730 X1.4505 Y0.4154
N14735 X1.4591 Y0.4298
N14740 X1.4674 Y0.4449
N14745 X1.4752 Y0.4608
N14750 X1.4827 Y0.4777
N14755 X1.4897 Y0.4957
N14760 X1.4961 Y0.5144
N14765 X1.5019 Y0.5339
N14770 X1.5069 Y0.5539
N14775 X1.5111 Y0.5743
N14780 X1.5145 Y0.5949
N14785 X1.5169 Y0.6157
N14790 X1.5185 Y0.6363
N14795 X1.5192 Y0.6567
N14800 X1.519 Y0.6766
N14805 X1.518 Y0.6961
N14810 X1.5163 Y0.7147
N14815 X1.5138 Y0.7324
N14820 X1.5108 Y0.749
N14825 X1.5073 Y0.7646
N14830 X1.5035 Y0.7789
N14835 X1.4997 Y0.7908
N14840 X1.4952 Y0.8032
N14845 X1.4911 Y0.813
N14850 X1.4865 Y0.8232
N14855 X1.4816 Y0.8325
N14860 X1.4772 Y0.8404
N14865 X1.4764 Y0.8416
N14870 X1.4653 Y0.8568
N14875 X1.4522 Y0.8701
N14880 X1.4372 Y0.8814
N14885 X1.4208 Y0.8905
N14890 X1.4033 Y0.8971
N14895 X1.385 Y0.9011
N14900 X1.3663 Y0.9025
N14905 X1.3199
N14910 G3 X1.2838 Y0.8674 Z0.6175 I0.0013 J-0.0375
N14915 G1 X1.2836 Y0.8637 Z0.618
N14920 X1.2502 Y0.3374
N14925 X1.2501 Y0.3363
N14930 G3 X1.2863 Y0.2975 Z0.61 I0.0375 J-0.0013
N14935 G1 X1.3346
N14940 X1.3411 Y0.2978
N14945 X1.347 Y0.2984
N14950 X1.353 Y0.2993
N14955 X1.3588 Y0.3006
N14960 X1.3646 Y0.3021
N14965 X1.3704 Y0.3039
N14970 X1.3765 Y0.3062
N14975 X1.3828 Y0.3088
N14980 X1.3897 Y0.3119
N14985 X1.3967 Y0.3155
N14990 X1.404 Y0.3197
N14995 X1.4118 Y0.3246
N15000 X1.4196 Y0.33
N15005 X1.4277 Y0.336
N15010 X1.4362 Y0.3431
N15015 X1.4448 Y0.3507
N15020 X1.4533 Y0.3591
N15025 X1.4622 Y0.3685
N15030 X1.4712 Y0.3789
N15035 X1.48 Y0.39
N15040 X1.4887 Y0.402
N15045 X1.4974 Y0.4152
N15050 X1.5061 Y0.4295
N15055 X1.5144 Y0.4448
N15060 X1.5223 Y0.4607
N15065 X1.5297 Y0.4776
N15070 X1.5367 Y0.4954
N15075 X1.5432 Y0.5142
N15080 X1.5489 Y0.5336
N15085 X1.554 Y0.5536
N15090 X1.5582 Y0.574
N15095 X1.5615 Y0.5947
N15100 X1.564 Y0.6155
N15105 X1.5656 Y0.6362
N15110 X1.5663 Y0.6566
N15115 X1.5661 Y0.6766
N15120 X1.5651 Y0.696
N15125 X1.5634 Y0.7146
N15130 X1.561 Y0.7321
N15135 X1.5581 Y0.7484
N15140 X1.5546 Y0.764
N15145 X1.5508 Y0.7782
N15150 X1.547 Y0.7902
N15155 X1.5425 Y0.8026
N15160 X1.5384 Y0.8124
N15165 X1.5337 Y0.8227
N15170 X1.5289 Y0.832
N15175 X1.5244 Y0.8399
N15180 X1.5233 Y0.8416
N15185 X1.5123 Y0.8567
N15190 X1.4991 Y0.8701
N15195 X1.4842 Y0.8814
N15200 X1.4678 Y0.8905
N15205 X1.4503 Y0.8971
N15210 X1.432 Y0.9011
N15215 X1.4133 Y0.9025
N15220 X1.3663
N15225 G3 X1.3302 Y0.8673 Z0.6175 I0.0013 J-0.0375
N15230 G1 X1.33 Y0.8637 Z0.618
N15235 X1.2984 Y0.3372
N15240 Y0.3363
N15245 G3 X1.3346 Y0.2975 Z0.61 I0.0375 J-0.0013
N15250 G1 X1.3823
N15255 X1.3882 Y0.2978
N15260 X1.3942 Y0.2984
N15265 X1.4001 Y0.2993
N15270 X1.406 Y0.3005
N15275 X1.4118 Y0.3021
N15280 X1.4176 Y0.3039
N15285 X1.4237 Y0.3062
N15290 X1.43 Y0.3088
N15295 X1.4369 Y0.312
N15300 X1.4439 Y0.3156
N15305 X1.4512 Y0.3197
N15310 X1.459 Y0.3246
N15315 X1.4668 Y0.33
N15320 X1.4749 Y0.3361
N15325 X1.4834 Y0.3431
N15330 X1.492 Y0.3508
N15335 X1.5005 Y0.3592
N15340 X1.5094 Y0.3686
N15345 X1.5184 Y0.3791
N15350 X1.5272 Y0.3902
N15355 X1.5359 Y0.4022
N15360 X1.5447 Y0.4154
N15365 X1.5533 Y0.4297
N15370 X1.5617 Y0.445
N15375 X1.5695 Y0.461
N15380 X1.577 Y0.4778
N15385 X1.5839 Y0.4957
N15390 X1.5904 Y0.5144
N15395 X1.5961 Y0.5339
N15400 X1.6012 Y0.5539
N15405 X1.6054 Y0.5744
N15410 X1.6087 Y0.5951
N15415 X1.6112 Y0.6158
N15420 X1.6128 Y0.6365
N15425 X1.6134 Y0.6568
N15430 X1.6133 Y0.6768
N15435 X1.6123 Y0.6962
N15440 X1.6105 Y0.7146
N15445 X1.6081 Y0.732
N15450 X1.6052 Y0.7483
N15455 X1.6017 Y0.7639
N15460 X1.5978 Y0.7781
N15465 X1.5941 Y0.7901
N15470 X1.5895 Y0.8026
N15475 X1.5855 Y0.8124
N15480 X1.5807 Y0.8227
N15485 X1.5759 Y0.8321
N15490 X1.5714 Y0.8399
N15495 X1.566 Y0.8486
N15500 X1.5552 Y0.8621
N15505 X1.5428 Y0.8739
N15510 X1.5288 Y0.8839
N15515 X1.5136 Y0.8919
N15520 X1.4974 Y0.8978
N15525 X1.4806 Y0.9013
N15530 X1.4634 Y0.9025
N15535 X1.4133
N15540 G3 X1.3771 Y0.8672 Z0.6175 I0.0013 J-0.0375
N15545 G1 X1.3769 Y0.8637 Z0.618
N15550 X1.3461 Y0.3372
N15555 Y0.3363
N15560 G3 X1.3823 Y0.2975 Z0.61 I0.0375 J-0.0013
N15565 G1 X1.4299
N15570 X1.4359 Y0.2978
N15575 X1.4419 Y0.2984
N15580 X1.4478 Y0.2994
N15585 X1.4537 Y0.3007
N15590 X1.4595 Y0.3022
N15595 X1.4653 Y0.3041
N15600 X1.4715 Y0.3064
N15605 X1.4778 Y0.309
N15610 X1.4847 Y0.3122
N15615 X1.4918 Y0.316
N15620 X1.499 Y0.3202
N15625 X1.5068 Y0.3251
N15630 X1.5148 Y0.3306
N15635 X1.5228 Y0.3367
N15640 X1.5313 Y0.3438
N15645 X1.54 Y0.3517
N15650 X1.5486 Y0.3601
N15655 X1.5574 Y0.3696
N15660 X1.5664 Y0.3801
N15665 X1.5753 Y0.3914
N15670 X1.584 Y0.4035
N15675 X1.5926 Y0.4167
N15680 X1.6012 Y0.4311
N15685 X1.6096 Y0.4466
N15690 X1.6175 Y0.4627
N15695 X1.6248 Y0.4796
N15700 X1.6317 Y0.4976
N15705 X1.6381 Y0.5163
N15710 X1.6438 Y0.5358
N15715 X1.6487 Y0.5559
N15720 X1.6528 Y0.5764
N15725 X1.6561 Y0.5971
N15730 X1.6585 Y0.6178
N15735 X1.66 Y0.6385
N15740 X1.6606 Y0.6588
N15745 X1.6603 Y0.6787
N15750 X1.6592 Y0.698
N15755 X1.6574 Y0.7163
N15760 X1.655 Y0.7334
N15765 X1.652 Y0.7497
N15770 X1.6484 Y0.7653
N15775 X1.6444 Y0.78
N15780 X1.6403 Y0.7925
N15785 X1.636 Y0.8044
N15790 X1.6314 Y0.8152
N15795 X1.6271 Y0.8245
N15800 X1.622 Y0.8343
N15805 X1.6186 Y0.8402
N15810 X1.6082 Y0.8556
N15815 X1.5955 Y0.8692
N15820 X1.581 Y0.8808
N15825 X1.5648 Y0.8902
N15830 X1.5475 Y0.897
N15835 X1.5294 Y0.9011
N15840 X1.5108 Y0.9025
N15845 X1.4634
N15850 G3 X1.4273 Y0.8674 Z0.6175 I0.0013 J-0.0375
N15855 G1 X1.4271 Y0.8637 Z0.618
N15860 X1.3938 Y0.3373
N15865 Y0.3363
N15870 G3 X1.4299 Y0.2975 Z0.61 I0.0375 J-0.0013
N15875 G1 X1.4771
N15880 X1.4831 Y0.2978
N15885 X1.4891 Y0.2984
N15890 X1.495 Y0.2994
N15895 X1.5009 Y0.3007
N15900 X1.5066 Y0.3022
N15905 X1.5125 Y0.3041
N15910 X1.5186 Y0.3064
N15915 X1.525 Y0.309
N15920 X1.5319 Y0.3123
N15925 X1.5389 Y0.316
N15930 X1.5463 Y0.3202
N15935 X1.5541 Y0.3252
N15940 X1.5619 Y0.3306
N15945 X1.57 Y0.3368
N15950 X1.5786 Y0.3439
N15955 X1.5871 Y0.3517
N15960 X1.5957 Y0.3602
N15965 X1.6046 Y0.3697
N15970 X1.6137 Y0.3803
N15975 X1.6225 Y0.3915
N15980 X1.6312 Y0.4036
N15985 X1.6399 Y0.4169
N15990 X1.6485 Y0.4314
N15995 X1.6568 Y0.4468
N16000 X1.6646 Y0.4628
N16005 X1.672 Y0.4798
N16010 X1.6789 Y0.4977
N16015 X1.6853 Y0.5166
N16020 X1.691 Y0.5361
N16025 X1.6959 Y0.5562
N16030 X1.7 Y0.5766
N16035 X1.7033 Y0.5973
N16040 X1.7056 Y0.618
N16045 X1.7071 Y0.6386
N16050 X1.7077 Y0.6588
N16055 X1.7074 Y0.6787
N16060 X1.7063 Y0.6981
N16065 X1.7045 Y0.7167
N16070 X1.702 Y0.7342
N16075 X1.6989 Y0.7505
N16080 X1.6953 Y0.7662
N16085 X1.6916 Y0.7797
N16090 X1.6872 Y0.7935
N16095 X1.683 Y0.8048
N16100 X1.6788 Y0.815
N16105 X1.6738 Y0.8256
N16110 X1.6694 Y0.834
N16115 X1.6643 Y0.8428
N16120 X1.6534 Y0.8576
N16125 X1.6404 Y0.8707
N16130 X1.6256 Y0.8818
N16135 X1.6094 Y0.8907
N16140 X1.5922 Y0.8972
N16145 X1.5741 Y0.9012
N16150 X1.5557 Y0.9025
N16155 X1.5108
N16160 G3 X1.4747 Y0.8674 Z0.6175 I0.0013 J-0.0375
N16165 G1 X1.4744 Y0.8637 Z0.618
N16170 X1.441 Y0.3374
N16175 X1.4409 Y0.3363
N16180 G3 X1.4771 Y0.2975 Z0.61 I0.0375 J-0.0013
N16185 G1 X1.522
N16190 X1.5297 Y0.2979
N16195 X1.5357 Y0.2984
N16200 X1.5416 Y0.2994
N16205 X1.5474 Y0.3006
N16210 X1.5532 Y0.3022
N16215 X1.5591 Y0.304
N16220 X1.5651 Y0.3062
N16225 X1.5715 Y0.3088
N16230 X1.5783 Y0.312
N16235 X1.5853 Y0.3156
N16240 X1.5926 Y0.3198
N16245 X1.6004 Y0.3247
N16250 X1.6081 Y0.33
N16255 X1.6163 Y0.3362
N16260 X1.6248 Y0.3432
N16265 X1.6332 Y0.3508
N16270 X1.6419 Y0.3592
N16275 X1.6508 Y0.3687
N16280 X1.6598 Y0.3791
N16285 X1.6685 Y0.3901
N16290 X1.6773 Y0.4022
N16295 X1.6861 Y0.4155
N16300 X1.6947 Y0.4298
N16305 X1.703 Y0.4449
N16310 X1.7108 Y0.4608
N16315 X1.7183 Y0.4777
N16320 X1.7253 Y0.4957
N16325 X1.7317 Y0.5145
N16330 X1.7375 Y0.5339
N16335 X1.7425 Y0.5539
N16340 X1.7467 Y0.5743
N16345 X1.7501 Y0.595
N16350 X1.7525 Y0.6157
N16355 X1.7541 Y0.6363
N16360 X1.7548 Y0.6567
N16365 X1.7546 Y0.6766
N16370 X1.7536 Y0.6959
N16375 X1.7518 Y0.7147
N16380 X1.7494 Y0.7324
N16385 X1.7464 Y0.749
N16390 X1.7429 Y0.7646
N16395 X1.739 Y0.779
N16400 X1.7353 Y0.7909
N16405 X1.7307 Y0.8033
N16410 X1.7267 Y0.8131
N16415 X1.722 Y0.8232
N16420 X1.7172 Y0.8326
N16425 X1.7127 Y0.8404
N16430 X1.712 Y0.8417
N16435 X1.7009 Y0.8568
N16440 X1.6878 Y0.8701
N16445 X1.6728 Y0.8814
N16450 X1.6564 Y0.8905
N16455 X1.6389 Y0.8971
N16460 X1.6206 Y0.9011
N16465 X1.6019 Y0.9025
N16470 X1.5557
N16475 G3 X1.5196 Y0.8674 Z0.6175 I0.0013 J-0.0375
N16480 G1 X1.5194 Y0.8637 Z0.618
N16485 X1.4859 Y0.3374
N16490 Y0.3363
N16495 G3 X1.522 Y0.2975 Z0.61 I0.0375 J-0.0013
N16500 G1 X1.5703
N16505 X1.5766 Y0.2978
N16510 X1.5826 Y0.2984
N16515 X1.5886 Y0.2993
N16520 X1.5944 Y0.3005
N16525 X1.6002 Y0.3021
N16530 X1.606 Y0.3039
N16535 X1.6121 Y0.3061
N16540 X1.6184 Y0.3087
N16545 X1.6253 Y0.3119
N16550 X1.6323 Y0.3155
N16555 X1.6396 Y0.3197
N16560 X1.6473 Y0.3246
N16565 X1.6552 Y0.33
N16570 X1.6632 Y0.336
N16575 X1.6718 Y0.343
N16580 X1.6803 Y0.3507
N16585 X1.6889 Y0.3591
N16590 X1.6977 Y0.3685
N16595 X1.7068 Y0.3789
N16600 X1.7156 Y0.39
N16605 X1.7243 Y0.402
N16610 X1.733 Y0.4152
N16615 X1.7417 Y0.4295
N16620 X1.75 Y0.4448
N16625 X1.7579 Y0.4607
N16630 X1.7653 Y0.4776
N16635 X1.7723 Y0.4955
N16640 X1.7788 Y0.5142
N16645 X1.7845 Y0.5336
N16650 X1.7896 Y0.5536
N16655 X1.7938 Y0.5741
N16660 X1.7971 Y0.5947
N16665 X1.7996 Y0.6155
N16670 X1.8012 Y0.6362
N16675 X1.8019 Y0.6566
N16680 X1.8017 Y0.6766
N16685 X1.8007 Y0.696
N16690 X1.799 Y0.7146
N16695 X1.7966 Y0.7321
N16700 X1.7937 Y0.7485
N16705 X1.7902 Y0.7641
N16710 X1.7863 Y0.7783
N16715 X1.7826 Y0.7902
N16720 X1.778 Y0.8027
N16725 X1.774 Y0.8125
N16730 X1.7693 Y0.8227
N16735 X1.7645 Y0.8321
N16740 X1.76 Y0.8399
N16745 X1.7589 Y0.8416
N16750 X1.7479 Y0.8567
N16755 X1.7347 Y0.8701
N16760 X1.7198 Y0.8814
N16765 X1.7034 Y0.8905
N16770 X1.6859 Y0.8971
N16775 X1.6676 Y0.9011
N16780 X1.6489 Y0.9025
N16785 X1.6019
N16790 G3 X1.5658 Y0.8673 Z0.6175 I0.0013 J-0.0375
N16795 G1 X1.5656 Y0.8637 Z0.618
N16800 X1.5342 Y0.3372
N16805 Y0.3363
N16810 G3 X1.5703 Y0.2975 Z0.61 I0.0375 J-0.0013
N16815 G1 X1.618
N16820 X1.624 Y0.2978
N16825 X1.63 Y0.2981
N16830 X1.6359 Y0.2989
N16835 X1.6418 Y0.2999
N16840 X1.6477 Y0.3013
N16845 X1.6535 Y0.303
N16850 X1.6591 Y0.3049
N16855 X1.6648 Y0.307
N16860 X1.6703 Y0.3094
N16865 X1.6757 Y0.3119
N16870 X1.6811 Y0.3146
N16875 X1.6863 Y0.3175
N16880 X1.6915 Y0.3206
N16885 X1.6966 Y0.3238
N16890 X1.7015 Y0.3271
N16895 X1.7064 Y0.3306
N16900 X1.7112 Y0.3342
N16905 X1.7159 Y0.3379
N16910 X1.7206 Y0.3417
N16915 X1.7251 Y0.3457
N16920 X1.7295 Y0.3497
N16925 X1.7339 Y0.3539
N16930 X1.7381 Y0.3581
N16935 X1.7423 Y0.3624
N16940 X1.7464 Y0.3668
N16945 X1.7504 Y0.3713
N16950 X1.7543 Y0.3758
N16955 X1.7581 Y0.3804
N16960 X1.7619 Y0.3851
N16965 X1.7655 Y0.3899
N16970 X1.7691 Y0.3947
N16975 X1.7726 Y0.3995
N16980 X1.776 Y0.4045
N16985 X1.7794 Y0.4095
N16990 X1.7826 Y0.4145
N16995 X1.7858 Y0.4196
N17000 X1.7889 Y0.4247
N17005 X1.7919 Y0.4299
N17010 X1.7948 Y0.4352
N17015 X1.7977 Y0.4404
N17020 X1.8005 Y0.4458
N17025 X1.8032 Y0.4511
N17030 X1.8058 Y0.4565
N17035 X1.8084 Y0.4619
N17040 X1.8108 Y0.4674
N17045 X1.8132 Y0.4729
N17050 X1.8156 Y0.4784
N17055 X1.8178 Y0.484
N17060 X1.82 Y0.4896
N17065 X1.8221 Y0.4952
N17070 X1.8241 Y0.5009
N17075 X1.8261 Y0.5065
N17080 X1.828 Y0.5122
N17085 X1.8298 Y0.5179
N17090 X1.8315 Y0.5237
N17095 X1.8332 Y0.5294
N17100 X1.8348 Y0.5352
N17105 X1.8363 Y0.541
N17110 X1.8378 Y0.5469
N17115 X1.8392 Y0.5527
N17120 X1.8405 Y0.5585
N17125 X1.8417 Y0.5644
N17130 X1.8429 Y0.5703
N17135 X1.844 Y0.5762
N17140 X1.845 Y0.5821
N17145 X1.8459 Y0.588
N17150 X1.8468 Y0.594
N17155 X1.8476 Y0.5999
N17160 X1.8484 Y0.6059
N17165 X1.849 Y0.6118
N17170 X1.8496 Y0.6178
N17175 X1.8501 Y0.6238
N17180 X1.8506 Y0.6298
N17185 X1.851 Y0.6358
N17190 X1.8513 Y0.6417
N17195 X1.8515 Y0.6477
N17200 X1.8516 Y0.6537
N17205 X1.8517 Y0.6597
N17210 Y0.6657
N17215 X1.8516 Y0.6717
N17220 X1.8515 Y0.6777
N17225 X1.8512 Y0.6837
N17230 X1.8509 Y0.6897
N17235 X1.8506 Y0.6957
N17240 X1.8501 Y0.7017
N17245 X1.8495 Y0.7077
N17250 X1.8489 Y0.7136
N17255 X1.8482 Y0.7196
N17260 X1.8474 Y0.7255
N17265 X1.8465 Y0.7315
N17270 X1.8455 Y0.7374
N17275 X1.8445 Y0.7433
N17280 X1.8433 Y0.7492
N17285 X1.8421 Y0.7551
N17290 X1.8408 Y0.7609
N17295 X1.8393 Y0.7667
N17300 X1.8378 Y0.7725
N17305 X1.8362 Y0.7783
N17310 X1.8345 Y0.7841
N17315 X1.8326 Y0.7898
N17320 X1.8307 Y0.7954
N17325 X1.8286 Y0.8011
N17330 X1.8264 Y0.8067
N17335 X1.8241 Y0.8122
N17340 X1.8217 Y0.8177
N17345 X1.8191 Y0.8231
N17350 X1.8165 Y0.8285
N17355 X1.8137 Y0.8338
N17360 X1.8107 Y0.839
N17365 X1.8076 Y0.8442
N17370 X1.7969 Y0.8587
N17375 X1.7842 Y0.8715
N17380 X1.7698 Y0.8823
N17385 X1.7541 Y0.891
N17390 X1.7372 Y0.8974
N17395 X1.7196 Y0.9012
N17400 X1.7016 Y0.9025
N17405 X1.6489
N17410 G3 X1.6127 Y0.8672 Z0.6175 I0.0013 J-0.0375
N17415 G1 X1.6125 Y0.8637 Z0.618
N17420 X1.5819 Y0.3372
N17425 X1.5818 Y0.3363
N17430 G3 X1.618 Y0.2975 Z0.61 I0.0375 J-0.0013
N17435 G1 X1.668
N17440 X1.6802 Y0.2981
N17445 X1.6861 Y0.2989
N17450 X1.692 Y0.2999
N17455 X1.6979 Y0.3013
N17460 X1.7037 Y0.3029
N17465 X1.7093 Y0.3049
N17470 X1.7149 Y0.307
N17475 X1.7205 Y0.3093
N17480 X1.7259 Y0.3119
N17485 X1.7312 Y0.3146
N17490 X1.7365 Y0.3175
N17495 X1.7417 Y0.3206
N17500 X1.7467 Y0.3238
N17505 X1.7517 Y0.3271
N17510 X1.7566 Y0.3306
N17515 X1.7614 Y0.3342
N17520 X1.7661 Y0.3379
N17525 X1.7707 Y0.3418
N17530 X1.7752 Y0.3457
N17535 X1.7797 Y0.3497
N17540 X1.784 Y0.3539
N17545 X1.7883 Y0.3581
N17550 X1.7924 Y0.3624
N17555 X1.7965 Y0.3668
N17560 X1.8005 Y0.3713
N17565 X1.8044 Y0.3758
N17570 X1.8083 Y0.3805
N17575 X1.812 Y0.3852
N17580 X1.8157 Y0.3899
N17585 X1.8229 Y0.3987
N17590 X1.8309 Y0.4068
N17595 X1.8395 Y0.4143
N17600 X1.8486 Y0.4212
N17605 X1.8582 Y0.4273
N17610 X1.8682 Y0.4326
N17615 X1.8787 Y0.4372
N17620 X1.8894 Y0.4409
N17625 X1.9004 Y0.4438
N17630 X1.9116 Y0.4458
N17635 X1.923 Y0.447
N17640 X1.9343 Y0.4473
N17645 X1.9457 Y0.4467
N17650 X1.957 Y0.4453
N17655 X1.9682 Y0.4429
N17660 X1.9791 Y0.4397
N17665 X1.9897 Y0.4357
N17670 X2.0001 Y0.4309
N17675 X2.01 Y0.4253
N17680 X2.0194 Y0.4189
N17685 X2.0283 Y0.4119
N17690 X2.0367 Y0.4041
N17695 X2.0444 Y0.3958
N17700 X2.0515 Y0.3869
N17705 X2.0579 Y0.3774
N17710 X2.0803 Y0.3378
N17715 X2.0818 Y0.3323
N17720 X2.0843 Y0.3223
N17725 X2.0907 Y0.3027
N17730 X2.0998 Y0.2843
N17735 X2.1115 Y0.2674
N17740 X2.1254 Y0.2523
N17745 G3 X2.1783 Y0.2557 Z0.618 I0.0247 J0.0282
N17750 X2.1871 Y0.2741 I-0.0282 J0.0248
N17755 G1 X2.3462 Y1.1935
N17760 G3 X2.2777 Y1.2201 I-0.037 J0.0064
N17765 X2.208 Y1.09 I0.8065 J-0.5158
N17770 X2.1859 Y1.0354 Z0.61 I0.8762 J-0.3857
N17775 G1 X2.1829 Y1.0262
N17780 X2.1776 Y1.015
N17785 X2.1731 Y1.0065
N17790 X2.1656 Y0.99
N17795 X2.1633 Y0.9844
N17800 X2.1611 Y0.9788
N17805 X2.1591 Y0.9732
N17810 X2.1548 Y0.9626
N17815 X2.1497 Y0.9524
N17820 X2.1439 Y0.9427
N17825 X2.1373 Y0.9334
N17830 X2.13 Y0.9246
N17835 X2.1221 Y0.9165
N17840 X2.1135 Y0.9089
N17845 X2.1044 Y0.9021
N17850 X2.0948 Y0.896
N17855 X2.0848 Y0.8906
N17860 X2.0744 Y0.886
N17865 X2.0636 Y0.8823
N17870 X2.0526 Y0.8794
N17875 X2.0414 Y0.8773
N17880 X2.0301 Y0.8761
N17885 X2.0187 Y0.8758
N17890 X1.9732 Y0.8781
N17895 X1.9298 Y0.892
N17900 X1.9251 Y0.8938
N17905 X1.9099 Y0.8986
N17910 X1.8943 Y0.9015
N17915 X1.8783 Y0.9025
N17920 G3 X1.8512 Y0.8895 I0.0013 J-0.0375
N17925 G1 X1.8483 Y0.8861 Z0.6103
N17930 X1.8454 Y0.8827 Z0.6111
N17935 X1.8426 Y0.8794 Z0.6124
N17940 X1.8399 Y0.8763 Z0.6143
N17945 X1.8373 Y0.8734 Z0.6166
N17950 X1.835 Y0.8707 Z0.6194
N17955 X1.8329 Y0.8682 Z0.6226
N17960 X1.8311 Y0.8661 Z0.6262
N17965 X1.8296 Y0.8644 Z0.6301
N17970 X1.8284 Y0.8629 Z0.6342
N17975 X1.8275 Y0.8619 Z0.6385
N17980 X1.8269 Y0.8613 Z0.643
N17985 X1.8268 Y0.8611 Z0.6475
N17990 G0 Z1.3
N17995 G1 X2.2264 Y1.0485 F650.
N18000 G0 Z0.685
N18005 G1 Z0.6475 F60.
N18010 X2.2262 Y1.0484 Z0.643
N18015 X2.2255 Y1.048 Z0.6385
N18020 X2.2244 Y1.0472 Z0.6342
N18025 X2.2228 Y1.0463 Z0.6301
N18030 X2.2208 Y1.045 Z0.6262
N18035 X2.2184 Y1.0436 Z0.6226
N18040 X2.2157 Y1.0419 Z0.6194
N18045 X2.2127 Y1.04 Z0.6166
N18050 X2.2094 Y1.038 Z0.6143
N18055 X2.2059 Y1.0358 Z0.6124
N18060 X2.2022 Y1.0335 Z0.6111
N18065 X2.1984 Y1.0312 Z0.6103
N18070 X2.1946 Y1.0288 Z0.61
N18075 G3 X2.1731 Y1.0065 I0.0328 J-0.053
N18080 G1 X2.1717 Y1.0038
N18085 X2.1654 Y0.9926
N18090 X2.1574 Y0.9813
N18095 X2.1507 Y0.9725
N18100 X2.1487 Y0.9701
N18105 X2.1395 Y0.9609
N18110 X2.1254 Y0.9477
N18115 X2.117 Y0.9411
N18120 X2.1104 Y0.9365
N18125 X2.1058 Y0.9336
N18130 X2.0946 Y0.9268
N18135 X2.0663 Y0.914
N18140 X2.0609 Y0.9123
N18145 X2.0497 Y0.9089
N18150 X2.0384 Y0.9063
N18155 X2.0092 Y0.9028
N18160 X2.0048 Y0.9027
N18165 X1.9823 Y0.9025
N18170 X1.9711
N18175 X1.7016
N18180 G3 X1.6655 Y0.8674 Z0.6175 I0.0013 J-0.0375
N18185 G1 X1.6653 Y0.8637 Z0.618
N18190 X1.6318 Y0.3374
N18195 Y0.3363
N18200 G3 X1.668 Y0.2975 Z0.61 I0.0375 J-0.0013
N18205 G1 X1.719
N18210 X1.725 Y0.2978
N18215 X1.731 Y0.2984
N18220 X1.7369 Y0.2994
N18225 X1.7428 Y0.3007
N18230 X1.7486 Y0.3023
N18235 X1.7919 Y0.3163
N18240 X1.8374 Y0.3183
N18245 X1.8823 Y0.3106
N18250 X1.8987 Y0.3049
N18255 X1.9127 Y0.3008
N18260 X1.9272 Y0.2983
N18265 X1.9418 Y0.2975
N18270 G3 X1.9779 Y0.3363 Z0.618 I-0.0013 J0.0375
N18275 X1.9405 Y0.3725 I-0.0375 J-0.0013
N18280 G1 X1.7204
N18285 G3 X1.6829 Y0.3363 I0. J-0.0375
N18290 X1.719 Y0.2975 Z0.61 I0.0375 J-0.0013
N18295 G1 X1.9711
N18300 X1.9935 Y0.2974
N18305 X1.9969
N18310 X2.0005 Y0.298 Z0.6102
N18315 X2.0041 Y0.2986 Z0.6109
N18320 X2.0076 Y0.2992 Z0.612
N18325 X2.0111 Y0.3009 Z0.6138
N18330 X2.0143 Y0.3026 Z0.6161
N18335 X2.0172 Y0.304 Z0.6189
N18340 X2.0193 Y0.3058 Z0.6219
N18345 X2.021 Y0.3073 Z0.6253
N18350 X2.0223 Y0.3086 Z0.629
N18355 X2.0233 Y0.3094 Z0.6328
N18360 X2.0239 Y0.31 Z0.6368
N18365 X2.0241 Y0.3102 Z0.6409
N18370 G0 Z1.3
N18375 G1 X-0.0368 Y0.6615 F650.
N18380 G0 Z0.885
N18385 G1 Z0.8475 F60.
N18390 X-0.0367 Y0.6618 Z0.843
N18395 X-0.0365 Y0.6626 Z0.8385
N18400 X-0.0362 Y0.6639 Z0.8342
N18405 X-0.0357 Y0.6657 Z0.8301
N18410 X-0.0351 Y0.6679 Z0.8262
N18415 X-0.0344 Y0.6706 Z0.8226
N18420 X-0.0337 Y0.6738 Z0.8194
N18425 X-0.0328 Y0.6772 Z0.8166
N18430 X-0.0318 Y0.681 Z0.8143
N18435 X-0.0308 Y0.685 Z0.8124
N18440 X-0.0297 Y0.6891 Z0.8111
N18445 X-0.0286 Y0.6935 Z0.8103
N18450 X-0.0275 Y0.6978 Z0.81
N18455 G3 X0.0019 Y0.902 I-0.9274 J0.2376
N18460 G1 Y0.9076
N18465 X-0.0291 Y0.941
N18470 X-0.0541 Y0.9791
N18475 X-0.0737 Y1.0202
N18480 X-0.0774 Y1.031
N18485 X-0.0806 Y1.0419
N18490 X-0.0828 Y1.0531
N18495 X-0.0842 Y1.0644
N18500 X-0.0847 Y1.0758
N18505 X-0.0844 Y1.0871
N18510 X-0.0831 Y1.0985
N18515 X-0.081 Y1.1097
N18520 X-0.0781 Y1.1207
N18525 X-0.0629 Y1.1636
N18530 X-0.0358 Y1.2002
N18535 X-0.002 Y1.2308
N18540 X0.0363 Y1.2555
N18545 X0.0775 Y1.2747
N18550 X0.1207 Y1.2894
N18555 X0.1649 Y1.3002
N18560 X0.2098 Y1.308
N18565 X0.255 Y1.3135
N18570 X0.3004 Y1.3174
N18575 X0.3458 Y1.32
N18580 X0.3913 Y1.3219
N18585 X0.4369 Y1.3231
N18590 X0.4824 Y1.3239
N18595 X0.528 Y1.3245
N18600 X0.5735 Y1.3249
N18605 X0.6191 Y1.3251
N18610 X0.6646 Y1.3253
N18615 X0.7557 Y1.3255
N18620 X0.8923 Y1.3256
N18625 X1.3478
N18630 X1.5755
N18635 X1.6211
N18640 X1.6325 Y1.3252
N18645 X1.6474 Y1.3247
N18650 X1.6642 Y1.3241
N18655 X1.6834 Y1.3236
N18660 X1.7058 Y1.3231
N18665 X1.7325 Y1.3225
N18670 X1.7656 Y1.322
N18675 X1.8091 Y1.3214
N18680 X1.8546 Y1.3211
N18685 X1.9002 Y1.3208
N18690 X1.9435 Y1.3068
N18695 X1.982 Y1.2824
N18700 X1.9901 Y1.2744
N18705 X1.9976 Y1.2658
N18710 X2.0044 Y1.2567
N18715 X2.0105 Y1.2471
N18720 X2.0158 Y1.237
N18725 X2.0203 Y1.2266
N18730 X2.0241 Y1.2158
N18735 X2.0269 Y1.2048
N18740 X2.0289 Y1.1936
N18745 X2.0301 Y1.1822
N18750 X2.0304 Y1.1709
N18755 X2.0297 Y1.1595
N18760 X2.0282 Y1.1482
N18765 X2.0259 Y1.1371
N18770 X2.0227 Y1.1261
N18775 X2.0186 Y1.1155
N18780 X2.0138 Y1.1052
N18785 X2.0082 Y1.0953
N18790 X2.0018 Y1.0859
N18795 X1.9947 Y1.0769
N18800 X1.9869 Y1.0686
N18805 X1.9786 Y1.0609
N18810 X1.9428 Y1.0327
N18815 X1.9008 Y1.015
N18820 X1.8573 Y1.0017
N18825 X1.8128 Y0.9918
N18830 X1.7678 Y0.9846
N18835 X1.7226 Y0.9795
N18840 X1.6772 Y0.9759
N18845 X1.6317 Y0.9734
N18850 X1.5862 Y0.9717
N18855 X1.5406 Y0.9705
N18860 X1.4951 Y0.9697
N18865 X1.4496 Y0.9691
N18870 X1.404 Y0.9687
N18875 X1.3585 Y0.9685
N18880 X1.3129 Y0.9683
N18885 X1.2218 Y0.9681
N18890 X1.0852 Y0.968
N18895 X0.6753 Y0.9679
N18900 X0.2653
N18905 G3 X0.2382 Y0.9549 I0.0013 J-0.0375
N18910 G1 X0.2353 Y0.9515 Z0.8103
N18915 X0.2324 Y0.9481 Z0.8111
N18920 X0.2296 Y0.9448 Z0.8124
N18925 X0.2269 Y0.9417 Z0.8143
N18930 X0.2243 Y0.9388 Z0.8166
N18935 X0.222 Y0.9361 Z0.8194
N18940 X0.2199 Y0.9336 Z0.8226
N18945 X0.2181 Y0.9315 Z0.8262
N18950 X0.2166 Y0.9298 Z0.8301
N18955 X0.2153 Y0.9283 Z0.8342
N18960 X0.2145 Y0.9273 Z0.8385
N18965 X0.2139 Y0.9267 Z0.843
N18970 X0.2138 Y0.9265 Z0.8475
N18975 G0 Z1.3
N18980 G1 X2.4316 Y-0.0368 F650.
N18985 G0 Z0.885
N18990 G1 Z0.8475 F60.
N18995 X2.4313 Y-0.0367 Z0.843
N19000 X2.4306 Y-0.0365 Z0.8385
N19005 X2.4293 Y-0.0362 Z0.8342
N19010 X2.4275 Y-0.0357 Z0.8301
N19015 X2.4252 Y-0.0351 Z0.8262
N19020 X2.4225 Y-0.0344 Z0.8226
N19025 X2.4194 Y-0.0337 Z0.8194
N19030 X2.4159 Y-0.0328 Z0.8166
N19035 X2.4122 Y-0.0318 Z0.8143
N19040 X2.4082 Y-0.0308 Z0.8124
N19045 X2.404 Y-0.0297 Z0.8111
N19050 X2.3997 Y-0.0286 Z0.8103
N19055 X2.3953 Y-0.0275 Z0.81
N19060 G3 X2.1911 Y0.0019 I-0.2376 J-0.9274
N19065 G1 X2.1854
N19070 X2.152 Y-0.0291
N19075 X2.114 Y-0.0541
N19080 X2.0729 Y-0.0737
N19085 X2.0298 Y-0.0886
N19090 X1.9856 Y-0.0996
N19095 X1.9408 Y-0.1076
N19100 X1.8956 Y-0.1132
N19105 X1.8502 Y-0.1172
N19110 X1.8047 Y-0.1199
N19115 X1.7592 Y-0.1218
N19120 X1.7137 Y-0.123
N19125 X1.6682 Y-0.1239
N19130 X1.6226 Y-0.1245
N19135 X1.5771 Y-0.1248
N19140 X1.5315 Y-0.1251
N19145 X1.486 Y-0.1253
N19150 X1.3949 Y-0.1255
N19155 X1.2583 Y-0.1256
N19160 X0.8028
N19165 X0.2107
N19170 X0.1651
N19175 X0.1196 Y-0.1239
N19180 X0.0748 Y-0.1156
N19185 X0.034 Y-0.0953
N19190 X0.0165 Y-0.0808
N19195 X0.0084 Y-0.0728
N19200 X0.001 Y-0.0641
N19205 X-0.0057 Y-0.0549
N19210 X-0.0118 Y-0.0453
N19215 X-0.017 Y-0.0352
N19220 X-0.0214 Y-0.0247
N19225 X-0.0251 Y-0.0139
N19230 X-0.0278 Y-0.0028
N19235 X-0.0298 Y0.0084
N19240 X-0.0308 Y0.0197
N19245 X-0.031 Y0.0311
N19250 X-0.0303 Y0.0425
N19255 X-0.0287 Y0.0538
N19260 X-0.0262 Y0.0649
N19265 X-0.0229 Y0.0758
N19270 X-0.0188 Y0.0864
N19275 X-0.0139 Y0.0966
N19280 X-0.0082 Y0.1065
N19285 X-0.0017 Y0.1159
N19290 X0.0055 Y0.1247
N19295 X0.0133 Y0.133
N19300 X0.0217 Y0.1406
N19305 X0.0577 Y0.1685
N19310 X0.0998 Y0.1859
N19315 X0.1434 Y0.199
N19320 X0.1879 Y0.2087
N19325 X0.233 Y0.2157
N19330 X0.2782 Y0.2207
N19335 X0.3236 Y0.2243
N19340 X0.3691 Y0.2267
N19345 X0.4146 Y0.2284
N19350 X0.4602 Y0.2296
N19355 X0.5057 Y0.2304
N19360 X0.5512 Y0.2309
N19365 X0.5968 Y0.2313
N19370 X0.6423 Y0.2316
N19375 X0.6879 Y0.2317
N19380 X0.779 Y0.2319
N19385 X0.9156 Y0.232
N19390 X1.3255 Y0.2321
N19395 X1.5533
N19400 X1.8607
N19405 X1.8664 Y0.2319
N19410 X1.8666
N19415 X1.8702 Y0.2324 Z0.8102
N19420 X1.8738 Y0.2329 Z0.8109
N19425 X1.8773 Y0.2334 Z0.812
N19430 X1.8808 Y0.2351 Z0.8138
N19435 X1.8841 Y0.2366 Z0.8162
N19440 X1.8871 Y0.238 Z0.819
N19445 X1.8891 Y0.2397 Z0.8221
N19450 X1.8908 Y0.2411 Z0.8254
N19455 X1.8922 Y0.2423 Z0.8291
N19460 X1.8932 Y0.2431 Z0.8329
N19465 X1.8938 Y0.2436 Z0.8369
N19470 X1.894 Y0.2438 Z0.8409
N19475 G0 Z1.3
N19480 G1 X-0.2979 Y-0.0517 F650.
N19485 G0 Z0.435
N19490 G1 Z0.3975 F60.
N19495 X-0.2977 Y-0.0514 Z0.393
N19500 X-0.2973 Y-0.0508 Z0.3885
N19505 X-0.2966 Y-0.0496 Z0.3842
N19510 X-0.2956 Y-0.0481 Z0.3801
N19515 X-0.2943 Y-0.0461 Z0.3762
N19520 X-0.2928 Y-0.0437 Z0.3726
N19525 X-0.2911 Y-0.041 Z0.3694
N19530 X-0.2892 Y-0.038 Z0.3666
N19535 X-0.2871 Y-0.0348 Z0.3643
N19540 X-0.2849 Y-0.0313 Z0.3624
N19545 X-0.2825 Y-0.0276 Z0.3611
N19550 X-0.2801 Y-0.0239 Z0.3603
N19555 X-0.2777 Y-0.0201 Z0.36
N19560 G3 X-0.1859 Y0.1646 I-0.8065 J0.5158
N19565 G1 X-0.1829 Y0.1738
N19570 X-0.1776 Y0.185
N19575 X-0.1731 Y0.1935
N19580 X-0.1681 Y0.2046
N19585 X-0.1646 Y0.2132
N19590 X-0.1608 Y0.2238
N19595 X-0.1567 Y0.237
N19600 X-0.1523 Y0.2535
N19605 X-0.1476 Y0.2746
N19610 X-0.1427 Y0.3025
N19615 X-0.1375 Y0.3415
N19620 X-0.1334 Y0.3869
N19625 X-0.1307 Y0.4324
N19630 X-0.129 Y0.4779
N19635 X-0.1279 Y0.5234
N19640 X-0.1271 Y0.5689
N19645 X-0.1266 Y0.6145
N19650 X-0.1263 Y0.66
N19655 X-0.1261 Y0.7056
N19660 X-0.1259 Y0.7511
N19665 X-0.1258 Y0.8422
N19670 X-0.1257 Y0.8958
N19675 X-0.1268 Y0.9125
N19680 X-0.13 Y0.929
N19685 X-0.1353 Y0.9449
N19690 X-0.1426 Y0.96
N19695 X-0.1519 Y0.974
N19700 G3 X-0.2046 Y0.9796 Z0.368 I-0.0291 J-0.0236
N19705 X-0.2185 Y0.9517 I0.0236 J-0.0292
N19710 G1 X-0.2433 Y0.2132
N19715 G3 X-0.2242 Y0.1793 I0.0375 J-0.0013
N19720 X-0.1731 Y0.1935 Z0.36 I0.0184 J0.0327
N19725 G1 X-0.1717 Y0.1962
N19730 X-0.1654 Y0.2074
N19735 X-0.1574 Y0.2187
N19740 X-0.1507 Y0.2275
N19745 X-0.1487 Y0.2299
N19750 X-0.1478 Y0.2307
N19755 X-0.1438 Y0.2352
N19760 X-0.1401 Y0.2399
N19765 X-0.1366 Y0.2449
N19770 X-0.1326 Y0.2511
N19775 X-0.1282 Y0.2587
N19780 X-0.124 Y0.2666
N19785 X-0.1193 Y0.2764
N19790 X-0.1142 Y0.2884
N19795 X-0.1093 Y0.3015
N19800 X-0.1039 Y0.3177
N19805 X-0.0985 Y0.337
N19810 X-0.0928 Y0.3612
N19815 X-0.087 Y0.391
N19820 X-0.0811 Y0.4311
N19825 X-0.0763 Y0.4764
N19830 X-0.073 Y0.5219
N19835 X-0.0707 Y0.5673
N19840 X-0.0692 Y0.6129
N19845 X-0.0681 Y0.6584
N19850 X-0.0673 Y0.7039
N19855 X-0.0668 Y0.7495
N19860 X-0.0664 Y0.795
N19865 X-0.0668 Y0.825
N19870 X-0.0679 Y0.8453
N19875 X-0.0685 Y0.8518
N19880 X-0.0713 Y0.869
N19885 X-0.0765 Y0.8857
N19890 X-0.0838 Y0.9015
N19895 X-0.0931 Y0.9162
N19900 X-0.1043 Y0.9296
N19905 X-0.1173 Y0.9413
N19910 G3 X-0.1697 Y0.9333 Z0.368 I-0.0222 J-0.0302
N19915 X-0.1769 Y0.913 I0.0302 J-0.0222
N19920 G1 X-0.2108 Y0.2601
N19925 G3 X-0.2008 Y0.2326 I0.0374 J-0.0019
N19930 X-0.1478 Y0.2307 Z0.36 I0.0274 J0.0256
N19935 G1 X-0.1395 Y0.2391
N19940 X-0.1254 Y0.2523
N19945 X-0.117 Y0.2589
N19950 X-0.1123 Y0.2626
N19955 X-0.1079 Y0.2667
N19960 X-0.1037 Y0.271
N19965 X-0.0998 Y0.2755
N19970 X-0.0953 Y0.281
N19975 X-0.0907 Y0.2872
N19980 X-0.0859 Y0.2942
N19985 X-0.0806 Y0.3029
N19990 X-0.0755 Y0.3119
N19995 X-0.0698 Y0.3231
N20000 X-0.0639 Y0.336
N20005 X-0.0581 Y0.3503
N20010 X-0.0518 Y0.3682
N20015 X-0.0457 Y0.3877
N20020 X-0.0393 Y0.4122
N20025 X-0.0328 Y0.4419
N20030 X-0.0263 Y0.4793
N20035 X-0.0204 Y0.5244
N20040 X-0.0162 Y0.5698
N20045 X-0.0132 Y0.6152
N20050 X-0.011 Y0.6607
N20055 X-0.0095 Y0.7063
N20060 X-0.0088 Y0.7511
N20065 X-0.0095 Y0.7774
N20070 X-0.0109 Y0.797
N20075 X-0.0126 Y0.8122
N20080 X-0.0149 Y0.8271
N20085 X-0.0158 Y0.8317
N20090 X-0.0204 Y0.8487
N20095 X-0.0273 Y0.8649
N20100 X-0.0363 Y0.88
N20105 X-0.0473 Y0.8938
N20110 X-0.06 Y0.906
N20115 X-0.0742 Y0.9163
N20120 X-0.0897 Y0.9247
N20125 G3 X-0.1387 Y0.9042 Z0.368 I-0.0142 J-0.0347
N20130 X-0.1414 Y0.892 I0.0347 J-0.0143
N20135 G1 X-0.1748 Y0.2925
N20140 G3 X-0.1689 Y0.27 I0.0374 J-0.0021
N20145 X-0.117 Y0.2589 Z0.36 I0.0315 J0.0204
N20150 G1 X-0.1104 Y0.2635
N20155 X-0.1058 Y0.2664
N20160 X-0.0946 Y0.2732
N20165 X-0.0911 Y0.2747
N20170 X-0.0857 Y0.2775
N20175 X-0.0806 Y0.2806
N20180 X-0.0757 Y0.284
N20185 X-0.071 Y0.2877
N20190 X-0.0665 Y0.2917
N20195 X-0.0617 Y0.2962
N20200 X-0.057 Y0.3011
N20205 X-0.0518 Y0.307
N20210 X-0.0466 Y0.3134
N20215 X-0.0409 Y0.3211
N20220 X-0.0352 Y0.3295
N20225 X-0.0291 Y0.3394
N20230 X-0.0229 Y0.3505
N20235 X-0.0165 Y0.3632
N20240 X-0.0097 Y0.3782
N20245 X-0.003 Y0.3946
N20250 X0.0042 Y0.415
N20255 X0.011 Y0.4371
N20260 X0.0181 Y0.4642
N20265 X0.0253 Y0.4973
N20270 X0.0324 Y0.5385
N20275 X0.0382 Y0.5837
N20280 X0.0425 Y0.6291
N20285 X0.0454 Y0.6745
N20290 X0.0463 Y0.7101
N20295 X0.0458 Y0.7372
N20300 X0.0445 Y0.7588
N20305 X0.0429 Y0.7747
N20310 X0.0406 Y0.7904
N20315 X0.0382 Y0.8026
N20320 X0.0353 Y0.8153
N20325 X0.0322 Y0.826
N20330 X0.0256 Y0.8426
N20335 X0.0167 Y0.8581
N20340 X0.0057 Y0.8722
N20345 X-0.007 Y0.8847
N20350 X-0.0214 Y0.8953
N20355 X-0.037 Y0.9038
N20360 X-0.0537 Y0.9102
N20365 G3 X-0.0996 Y0.8835 Z0.368 I-0.0096 J-0.0363
N20370 G1 X-0.1003 Y0.8801
N20375 X-0.1007 Y0.8767
N20380 X-0.1427 Y0.3122
N20385 G3 X-0.14 Y0.2952 I0.0374 J-0.0028
N20390 X-0.0911 Y0.2747 Z0.36 I0.0347 J0.0143
N20395 G1 X-0.0663 Y0.286
N20400 X-0.0609 Y0.2877
N20405 X-0.0552 Y0.2897
N20410 X-0.0497 Y0.292
N20415 X-0.0444 Y0.2948
N20420 X-0.0392 Y0.2979
N20425 X-0.0343 Y0.3012
N20430 X-0.0294 Y0.3048
N20435 X-0.0243 Y0.309
N20440 X-0.0193 Y0.3135
N20445 X-0.0137 Y0.319
N20450 X-0.008 Y0.3249
N20455 X-0.0019 Y0.332
N20460 X0.0042 Y0.3397
N20465 X0.0108 Y0.3487
N20470 X0.0174 Y0.3586
N20475 X0.0244 Y0.3701
N20480 X0.0315 Y0.383
N20485 X0.0388 Y0.3978
N20490 X0.0462 Y0.4145
N20495 X0.0539 Y0.434
N20500 X0.0616 Y0.4562
N20505 X0.0692 Y0.4817
N20510 X0.077 Y0.5123
N20515 X0.0844 Y0.548
N20520 X0.0906 Y0.5856
N20525 X0.095 Y0.6221
N20530 X0.0976 Y0.655
N20535 X0.0987 Y0.6841
N20540 X0.0985 Y0.7088
N20545 X0.0974 Y0.7313
N20550 X0.0959 Y0.7485
N20555 X0.0936 Y0.7651
N20560 X0.0913 Y0.7779
N20565 X0.0884 Y0.791
N20570 X0.0855 Y0.8021
N20575 X0.0823 Y0.8123
N20580 X0.0785 Y0.8229
N20585 X0.075 Y0.8314
N20590 X0.066 Y0.8477
N20595 X0.0548 Y0.8625
N20600 X0.0415 Y0.8755
N20605 X0.0265 Y0.8864
N20610 X0.01 Y0.8951
N20615 X-0.0075 Y0.9013
N20620 X-0.0257 Y0.9048
N20625 G3 X-0.0663 Y0.8706 Z0.368 I-0.0032 J-0.0374
N20630 G1 Y0.8703
N20635 X-0.1079 Y0.3268
N20640 G3 X-0.1067 Y0.3143 I0.0374 J-0.0029
N20645 X-0.0609 Y0.2877 Z0.36 I0.0362 J0.0096
N20650 G1 X-0.0497 Y0.2911
N20655 X-0.0384 Y0.2937
N20660 X-0.035 Y0.2941
N20665 X-0.0291 Y0.2951
N20670 X-0.0233 Y0.2965
N20675 X-0.0176 Y0.2983
N20680 X-0.012 Y0.3006
N20685 X-0.0066 Y0.3032
N20690 X-0.0013 Y0.3061
N20695 X0.0038 Y0.3092
N20700 X0.009 Y0.3127
N20705 X0.0144 Y0.3167
N20710 X0.0203 Y0.3215
N20715 X0.0262 Y0.3267
N20720 X0.0327 Y0.3329
N20725 X0.0391 Y0.3395
N20730 X0.046 Y0.3474
N20735 X0.053 Y0.3561
N20740 X0.0603 Y0.3659
N20745 X0.0679 Y0.3772
N20750 X0.0755 Y0.3894
N20755 X0.0837 Y0.404
N20760 X0.0914 Y0.4193
N20765 X0.0998 Y0.438
N20770 X0.1078 Y0.4578
N20775 X0.1159 Y0.4806
N20780 X0.1238 Y0.5064
N20785 X0.1309 Y0.5334
N20790 X0.137 Y0.5615
N20795 X0.142 Y0.5904
N20800 X0.1456 Y0.6187
N20805 X0.1479 Y0.645
N20810 X0.149 Y0.6697
N20815 Y0.6924
N20820 X0.1481 Y0.7127
N20825 X0.1466 Y0.7316
N20830 X0.1443 Y0.7492
N20835 X0.1419 Y0.7633
N20840 X0.1389 Y0.7772
N20845 X0.1358 Y0.7892
N20850 X0.1326 Y0.7997
N20855 X0.1287 Y0.8108
N20860 X0.1251 Y0.8197
N20865 X0.1211 Y0.8288
N20870 X0.1165 Y0.8378
N20875 X0.1061 Y0.8537
N20880 X0.0933 Y0.8678
N20885 X0.0786 Y0.8798
N20890 X0.0623 Y0.8895
N20895 X0.0446 Y0.8967
N20900 X0.0261 Y0.901
N20905 X0.0072 Y0.9026
N20910 X-0.0048 Y0.9027
N20915 X-0.0092 Y0.9028
N20920 X-0.0257 Y0.9048
N20925 G3 X-0.0663 Y0.8706 Z0.368 I-0.0032 J-0.0374
N20930 G1 X-0.0664 Y0.8681
N20935 X-0.0757 Y0.3321
N20940 X-0.0756 Y0.3282
N20945 G3 X-0.035 Y0.2941 Z0.36 I0.0374 J0.0032
N20950 G1 X-0.0092 Y0.2972
N20955 X-0.0048 Y0.2973
N20960 X0.0012 Y0.2976
N20965 X0.0072 Y0.2985
N20970 X0.013 Y0.2998
N20975 X0.0188 Y0.3015
N20980 X0.0244 Y0.3036
N20985 X0.0299 Y0.306
N20990 X0.0353 Y0.3087
N20995 X0.0408 Y0.3117
N21000 X0.0464 Y0.3151
N21005 X0.0525 Y0.3191
N21010 X0.0587 Y0.3237
N21015 X0.0653 Y0.3289
N21020 X0.0722 Y0.3349
N21025 X0.0791 Y0.3415
N21030 X0.0867 Y0.3492
N21035 X0.0942 Y0.3576
N21040 X0.102 Y0.3672
N21045 X0.1102 Y0.3781
N21050 X0.1182 Y0.3898
N21055 X0.1268 Y0.4035
N21060 X0.1351 Y0.4182
N21065 X0.1435 Y0.4345
N21070 X0.152 Y0.4529
N21075 X0.1601 Y0.4728
N21080 X0.1677 Y0.4937
N21085 X0.1749 Y0.5165
N21090 X0.1813 Y0.5404
N21095 X0.1867 Y0.565
N21100 X0.1912 Y0.5897
N21105 X0.1945 Y0.614
N21110 X0.1967 Y0.6378
N21115 X0.1978 Y0.6608
N21120 X0.198 Y0.6819
N21125 X0.1973 Y0.7017
N21130 X0.1958 Y0.7203
N21135 X0.1937 Y0.7377
N21140 X0.1911 Y0.7537
N21145 X0.188 Y0.7687
N21150 X0.1849 Y0.7807
N21155 X0.1811 Y0.7936
N21160 X0.1775 Y0.804
N21165 X0.1737 Y0.8138
N21170 X0.1692 Y0.8239
N21175 X0.1652 Y0.8321
N21180 X0.1606 Y0.8404
N21185 X0.1601 Y0.8412
N21190 X0.1493 Y0.8564
N21195 X0.1364 Y0.8698
N21200 X0.1217 Y0.8813
N21205 X0.1055 Y0.8904
N21210 X0.0881 Y0.8971
N21215 X0.0699 Y0.9011
N21220 X0.0514 Y0.9025
N21225 X0.0289
N21230 X0.0072 Y0.9026
N21235 G3 X-0.0293 Y0.866 Z0.3677 I0.001 J-0.0375
N21240 G1 Y0.8641 Z0.368
N21245 X-0.0412 Y0.3358
N21250 Y0.3356
N21255 G3 X-0.0048 Y0.2973 Z0.36 I0.0375 J-0.0008
N21260 G1 X0.0177 Y0.2975
N21265 X0.0308
N21270 X0.0368 Y0.2978
N21275 X0.0427 Y0.2985
N21280 X0.0486 Y0.2997
N21285 X0.0544 Y0.3012
N21290 X0.0601 Y0.303
N21295 X0.0658 Y0.3052
N21300 X0.0713 Y0.3076
N21305 X0.077 Y0.3103
N21310 X0.0831 Y0.3136
N21315 X0.0896 Y0.3175
N21320 X0.0961 Y0.3217
N21325 X0.1032 Y0.3268
N21330 X0.1104 Y0.3325
N21335 X0.1178 Y0.3388
N21340 X0.1257 Y0.3462
N21345 X0.1336 Y0.3541
N21350 X0.1418 Y0.3632
N21355 X0.1504 Y0.3735
N21360 X0.1587 Y0.3845
N21365 X0.1673 Y0.3968
N21370 X0.1762 Y0.4107
N21375 X0.1847 Y0.4253
N21380 X0.1931 Y0.4414
N21385 X0.2014 Y0.4592
N21390 X0.2094 Y0.4784
N21395 X0.2169 Y0.4983
N21400 X0.2236 Y0.5192
N21405 X0.2296 Y0.541
N21410 X0.2348 Y0.5635
N21415 X0.2391 Y0.5862
